; generated by PrusaSlicer 2.6.0-alpha6+linux-x64-GTK3 on 2023-05-23 at 14:08:07 UTC


;
;
; 

; external perimeters extrusion width = 0.45mm
; perimeters extrusion width = 0.45mm
; infill extrusion width = 0.45mm
; solid infill extrusion width = 0.45mm
; top infill extrusion width = 0.40mm
; first layer extrusion width = 0.42mm

M73 P0 R35
M201 X9000 Y9000 Z500 E10000 ; sets maximum accelerations, mm/sec^2
M203 X500 Y500 Z12 E120 ; sets maximum feedrates, mm / sec
M204 S2000 T1500 ; sets acceleration (S) and retract acceleration (R), mm/sec^2
M205 X10.00 Y10.00 Z0.20 E4.50 ; sets the jerk limits, mm/sec
M205 S0 T0 ; sets the minimum extruding and travel feed rate, mm/sec
;TYPE:Custom
M862.3 P "MK2.5" ; printer model check
M862.1 P0.4 ; nozzle diameter check
M115 U3.12.2 ; tell printer latest fw version
G90 ; use absolute coordinates
M83 ; extruder relative mode
M104 S215 ; set extruder temp
M140 S60 ; set bed temp
M190 S60 ; wait for bed temp
M109 S215 ; wait for extruder temp
G28 W ; home all without mesh bed level
G80 ; mesh bed leveling

G1 Z0.2 F720
G1 Y-3 F1000 ; go outside print area
G92 E0
G1 X60 E9 F1000 ; intro line
G1 X100 E12.5 F1000 ; intro line

G92 E0
G21 ; set units to millimeters
G90 ; use absolute coordinates
M83 ; use relative distances for extrusion
M900 K0.05 ; Filament gcode LA 1.5
M900 K30 ; Filament gcode LA 1.0
M107
;LAYER_CHANGE
;Z:0.2
;HEIGHT:0.2
;BEFORE_LAYER_CHANGE
G92 E0.0
;0.2


G1 E-.8 F2100
G1 Z.4 F720
;AFTER_LAYER_CHANGE
;0.2
G1 X114.923 Y26.688 F10800
G1 Z.2 F720
G1 E.8 F2100
M204 S800
;TYPE:Skirt/Brim
;WIDTH:0.42
G1 F1200
G1 X115.314 Y25.381 E.04277
G1 X115.988 Y24.706 E.02991
G1 X127.788 Y16.893 E.44373
G1 X129.1 Y16.498 E.04296
G1 X132.7 Y16.498 E.11288
G1 X134.007 Y16.89 E.04278
G1 X134.883 Y17.935 E.04275
G1 X135.077 Y18.875 E.03009
G1 X135.077 Y191.125 E5.40078
G1 X134.686 Y192.432 E.04277
G1 X133.64 Y193.308 E.04278
G1 X132.7 Y193.502 E.03009
G1 X129.1 Y193.502 E.11288
G1 X127.793 Y193.11 E.04278
G1 X126.907 Y192.042 E.04351
G1 X115.107 Y163.805 E.95955
G1 X114.923 Y162.888 E.02932
G1 X114.923 Y26.748 E4.26857
M204 S1000
; printing object HCW1 Part Edge - Left or Right.stl id:0 copy 0
;WIPE_START
G1 F8640
M73 P1 R35
G1 X115.314 Y25.381 E-.3283
G1 X115.988 Y24.706 E-.22026
G1 X116.896 Y24.105 E-.25144
;WIPE_END
G1 Z.6 F720
G1 X129.193 Y46.044 F10800
G1 Z.2 F720
G1 E.8 F2100
M204 S800
;TYPE:Perimeter
;WIDTH:0.607189
G1 F1200
G1 X129.294 Y46.014 E.00494
;WIDTH:0.560392
G1 X129.398 Y45.984 E.00466
;WIDTH:0.513594
G1 X129.501 Y45.954 E.0042
;WIDTH:0.466797
G1 X129.604 Y45.923 E.00379
;WIDTH:0.419999
G1 X129.822 Y45.698 E.00982
G1 X129.887 Y45.434 E.00852
G1 X129.887 Y21.823 E.74031
G1 X129.8 Y21.522 E.00982
G1 X129.737 Y21.44 E.00324
G1 X129.383 Y21.205 E.01332
;WIDTH:0.464577
G1 X129.259 Y21.186 E.0044
;WIDTH:0.509154
G1 X129.134 Y21.167 E.0049
;WIDTH:0.553732
G1 X129.01 Y21.148 E.00533
;WIDTH:0.598309
G1 X128.886 Y21.128 E.0058
;WIDTH:0.642886
G1 X128.762 Y21.109 E.00626
G1 X128.886 Y21.011 E.00788
;WIDTH:0.598309
G1 X129.01 Y20.914 E.00727
;WIDTH:0.553732
G1 X129.134 Y20.817 E.00669
;WIDTH:0.509154
G1 X129.259 Y20.719 E.00616
;WIDTH:0.464577
G1 X129.383 Y20.622 E.00552
;WIDTH:0.419999
G1 X129.604 Y20.494 E.00801
G1 X129.8 Y20.305 E.00854
G1 X129.887 Y20.004 E.00982
G1 X129.887 Y19.662 E.01072
G1 X131.913 Y19.662 E.06352
G1 X131.913 Y190.338 E5.35142
G1 X129.887 Y190.338 E.06352
G1 X129.887 Y169.573 E.65107
G1 X129.822 Y169.309 E.00852
G1 X129.604 Y169.083 E.00985
;WIDTH:0.466798
G1 X129.501 Y168.997 E.00473
;WIDTH:0.513596
G1 X129.398 Y168.91 E.00528
;WIDTH:0.560394
G1 X129.294 Y168.823 E.00583
;WIDTH:0.607192
G1 X129.191 Y168.736 E.00633
;WIDTH:0.65399
G1 X129.087 Y168.65 E.00686
G1 X129.191 Y168.62 E.0055
;WIDTH:0.607192
G1 X129.294 Y168.589 E.00505
;WIDTH:0.560394
G1 X129.398 Y168.559 E.00466
;WIDTH:0.513596
G1 X129.501 Y168.529 E.0042
;WIDTH:0.466798
G1 X129.604 Y168.498 E.00379
;WIDTH:0.419999
G1 X129.822 Y168.273 E.00982
G1 X129.887 Y168.009 E.00852
G1 X129.887 Y144.398 E.74031
G1 X129.8 Y144.097 E.00982
G1 X129.737 Y144.015 E.00324
G1 X129.383 Y143.78 E.01332
;WIDTH:0.464576
G1 X129.259 Y143.761 E.0044
;WIDTH:0.509152
G1 X129.134 Y143.742 E.0049
;WIDTH:0.553728
G1 X129.01 Y143.723 E.00533
;WIDTH:0.598304
G1 X128.886 Y143.703 E.0058
;WIDTH:0.64288
G1 X128.762 Y143.684 E.00626
G1 X128.886 Y143.586 E.00788
;WIDTH:0.598304
G1 X129.01 Y143.489 E.00727
;WIDTH:0.553728
G1 X129.134 Y143.391 E.00671
;WIDTH:0.509152
G1 X129.259 Y143.294 E.00613
;WIDTH:0.464576
G1 X129.383 Y143.197 E.00552
;WIDTH:0.419999
G1 X129.604 Y143.069 E.00801
G1 X129.8 Y142.88 E.00854
G1 X129.887 Y142.579 E.00982
G1 X129.887 Y128.708 E.43491
G1 X129.822 Y128.444 E.00852
G1 X129.604 Y128.218 E.00985
;WIDTH:0.466797
G1 X129.501 Y128.132 E.00473
;WIDTH:0.513594
G1 X129.398 Y128.045 E.00528
;WIDTH:0.560392
G1 X129.294 Y127.958 E.00583
;WIDTH:0.607189
G1 X129.191 Y127.871 E.00633
;WIDTH:0.653986
G1 X129.087 Y127.785 E.00686
G1 X129.191 Y127.755 E.0055
;WIDTH:0.607189
G1 X129.294 Y127.724 E.00505
;WIDTH:0.560392
G1 X129.398 Y127.694 E.00466
;WIDTH:0.513594
G1 X129.501 Y127.664 E.0042
;WIDTH:0.466797
G1 X129.604 Y127.633 E.00379
;WIDTH:0.419999
G1 X129.822 Y127.408 E.00982
G1 X129.887 Y127.144 E.00852
G1 X129.887 Y103.533 E.74031
G1 X129.8 Y103.232 E.00982
G1 X129.737 Y103.15 E.00324
G1 X129.383 Y102.915 E.01332
;WIDTH:0.464577
G1 X129.259 Y102.896 E.0044
;WIDTH:0.509154
G1 X129.134 Y102.877 E.0049
;WIDTH:0.553732
G1 X129.01 Y102.858 E.00533
;WIDTH:0.598309
G1 X128.886 Y102.838 E.0058
;WIDTH:0.642886
G1 X128.762 Y102.819 E.00626
G1 X128.886 Y102.721 E.00788
;WIDTH:0.598309
G1 X129.01 Y102.624 E.00727
;WIDTH:0.553732
G1 X129.134 Y102.526 E.00671
;WIDTH:0.509154
G1 X129.259 Y102.429 E.00613
;WIDTH:0.464577
G1 X129.383 Y102.332 E.00552
;WIDTH:0.419999
G1 X129.604 Y102.204 E.00801
G1 X129.8 Y102.015 E.00854
G1 X129.887 Y101.714 E.00982
G1 X129.887 Y87.833 E.43523
G1 X129.822 Y87.569 E.00852
G1 X129.604 Y87.343 E.00985
;WIDTH:0.466797
G1 X129.501 Y87.257 E.00473
;WIDTH:0.513594
G1 X129.398 Y87.17 E.00528
;WIDTH:0.560392
G1 X129.294 Y87.083 E.00583
;WIDTH:0.607189
G1 X129.191 Y86.996 E.00633
;WIDTH:0.653986
G1 X129.087 Y86.91 E.00686
G1 X129.191 Y86.88 E.0055
;WIDTH:0.607189
G1 X129.294 Y86.849 E.00505
;WIDTH:0.560392
G1 X129.398 Y86.819 E.00466
;WIDTH:0.513594
G1 X129.501 Y86.789 E.0042
;WIDTH:0.466797
G1 X129.604 Y86.758 E.00379
;WIDTH:0.419999
G1 X129.822 Y86.533 E.00982
G1 X129.887 Y86.269 E.00852
G1 X129.887 Y62.658 E.74031
G1 X129.8 Y62.357 E.00982
G1 X129.737 Y62.275 E.00324
G1 X129.383 Y62.04 E.01332
;WIDTH:0.464577
G1 X129.259 Y62.021 E.0044
;WIDTH:0.509155
G1 X129.134 Y62.002 E.0049
;WIDTH:0.553733
G1 X129.01 Y61.983 E.00533
;WIDTH:0.598311
G1 X128.886 Y61.963 E.0058
;WIDTH:0.642888
G1 X128.762 Y61.944 E.00626
G1 X128.886 Y61.846 E.00788
;WIDTH:0.598311
G1 X129.01 Y61.749 E.00727
;WIDTH:0.553733
G1 X129.134 Y61.651 E.00671
;WIDTH:0.509155
G1 X129.259 Y61.554 E.00613
;WIDTH:0.464577
G1 X129.383 Y61.457 E.00552
;WIDTH:0.419999
G1 X129.604 Y61.329 E.00801
G1 X129.8 Y61.14 E.00854
G1 X129.887 Y60.839 E.00982
G1 X129.887 Y46.998 E.43397
M73 P2 R35
G1 X129.822 Y46.734 E.00852
G1 X129.604 Y46.508 E.00985
;WIDTH:0.466797
G1 X129.501 Y46.422 E.00473
;WIDTH:0.513594
G1 X129.398 Y46.335 E.00528
;WIDTH:0.560392
G1 X129.294 Y46.248 E.00583
;WIDTH:0.607189
G1 X129.191 Y46.162 E.0063
;WIDTH:0.653986
G1 X129.087 Y46.075 E.00689
G1 X129.136 Y46.061 E.00259
M204 S1000
G1 X129.227 Y45.597 F10800
M204 S800
;TYPE:External perimeter
;WIDTH:0.419999
G1 F1200
G1 X118.782 Y39.567 E.37815
G1 X118.691 Y39.436 E.005
G1 X118.688 Y39.404 E.00101
G1 X118.688 Y27.598 E.37017
G1 X118.755 Y27.454 E.00498
G1 X129.006 Y21.532 E.37119
G1 X129.194 Y21.532 E.00589
G1 X129.481 Y21.723 E.01081
G1 X129.51 Y21.823 E.00326
G1 X129.51 Y45.434 E.74031
G1 X129.468 Y45.552 E.00393
G1 X129.416 Y45.597 E.00216
G1 X129.287 Y45.597 E.00404
M204 S1000
G1 X128.937 Y45.872 F10800
;WIPE_START
G1 F8640
G1 X126.282 Y43.872 E-.8
;WIPE_END
G1 Z.6 F720
G1 X129.46 Y60.967 F10800
G1 Z.2 F720
G1 E.8 F2100
M204 S800
G1 F1200
G1 X129.51 Y60.839 E.00431
G1 X129.51 Y46.998 E.43397
G1 X129.488 Y46.91 E.00284
G1 X129.416 Y46.835 E.00326
G1 X117.71 Y40.076 E.42382
G1 X117.71 Y26.925 E.41234
M73 P2 R34
G1 X129.46 Y20.132 E.42555
G1 X129.51 Y20.004 E.00431
G1 X129.51 Y19.285 E.02254
G1 X132.29 Y19.285 E.08716
G1 X132.29 Y190.715 E5.37506
G1 X129.51 Y190.715 E.08716
G1 X129.51 Y169.573 E.66289
G1 X129.488 Y169.485 E.00284
G1 X129.416 Y169.41 E.00326
G1 X117.71 Y162.651 E.42382
G1 X117.71 Y149.5 E.41234
G1 X128.517 Y143.261 E.39126
G1 X129.46 Y142.707 E.03429
G1 X129.51 Y142.579 E.00431
G1 X129.51 Y128.708 E.43491
G1 X129.488 Y128.62 E.00284
G1 X129.416 Y128.545 E.00326
G1 X117.71 Y121.786 E.42382
G1 X117.71 Y108.635 E.41234
G1 X128.517 Y102.396 E.39126
G1 X129.46 Y101.842 E.03429
M73 P3 R34
G1 X129.51 Y101.714 E.00431
G1 X129.51 Y87.833 E.43523
G1 X129.488 Y87.745 E.00284
G1 X129.416 Y87.67 E.00326
G1 X117.71 Y80.911 E.42382
G1 X117.71 Y67.76 E.41234
G1 X129.408 Y60.997 E.42367
M204 S1000
G1 X129.597 Y60.953 F10800
;WIPE_START
G1 F8640
G1 X129.51 Y60.839 E-.04342
G1 X129.51 Y57.562 E-.75658
;WIPE_END
G1 Z.6 F720
G1 X129.087 Y46.075 F10800
G1 Z.2 F720
G1 E.8 F2100
M204 S800
;TYPE:Perimeter
;WIDTH:0.653986
G1 F1200
G1 X128.983 Y46.02 E.00598
;WIDTH:0.643714
G1 X118.538 Y39.99 E.6025
;WIDTH:0.691779
G1 X118.393 Y39.878 E.00989
;WIDTH:0.740638
G1 X118.247 Y39.766 E.01068
G1 X118.223 Y39.585 E.01059
;WIDTH:0.692242
G1 X118.199 Y39.404 E.00986
;WIDTH:0.643846
G1 X118.199 Y27.598 E.58991
;WIDTH:0.692469
G1 X118.223 Y27.417 E.00986
;WIDTH:0.741092
G1 X118.248 Y27.235 E.01066
G1 X118.393 Y27.123 E.01064
;WIDTH:0.69242
G1 X118.538 Y27.011 E.00989
;WIDTH:0.643748
G1 X128.762 Y21.109 E.58978
M204 S1000
;WIPE_START
G1 F8640
G1 X125.761 Y22.841 E-.8
;WIPE_END
G1 Z.6 F720
G1 X129.194 Y62.367 F10800
G1 Z.2 F720
G1 E.8 F2100
M204 S800
;TYPE:External perimeter
;WIDTH:0.419999
G1 F1200
G1 X129.481 Y62.558 E.01081
G1 X129.51 Y62.658 E.00326
G1 X129.51 Y86.269 E.74031
G1 X129.468 Y86.387 E.00393
G1 X129.416 Y86.432 E.00216
G1 X129.227 Y86.432 E.00593
G1 X118.782 Y80.402 E.37815
G1 X118.691 Y80.271 E.005
G1 X118.688 Y80.239 E.00101
G1 X118.688 Y68.433 E.37017
G1 X118.755 Y68.289 E.00498
G1 X129.006 Y62.367 E.37119
G1 X129.134 Y62.367 E.00401
M204 S1000
G1 X129.427 Y62.113 F10800
;WIPE_START
G1 F8640
G1 X129.481 Y62.558 E-.09146
G1 X129.51 Y62.658 E-.02404
G1 X129.51 Y65.622 E-.6845
;WIPE_END
G1 Z.6 F720
G1 X129.087 Y86.91 F10800
G1 Z.2 F720
G1 E.8 F2100
M204 S800
;TYPE:Perimeter
;WIDTH:0.653986
G1 F1200
G1 X128.983 Y86.855 E.00598
;WIDTH:0.643714
G1 X118.538 Y80.825 E.6025
;WIDTH:0.691778
G1 X118.393 Y80.713 E.00989
;WIDTH:0.740638
G1 X118.247 Y80.601 E.01068
G1 X118.223 Y80.42 E.01059
;WIDTH:0.692242
G1 X118.199 Y80.239 E.00986
;WIDTH:0.643846
G1 X118.199 Y68.433 E.58991
;WIDTH:0.692467
G1 X118.223 Y68.252 E.00986
;WIDTH:0.741088
G1 X118.248 Y68.07 E.01066
G1 X118.393 Y67.958 E.01064
;WIDTH:0.692415
G1 X118.538 Y67.846 E.00989
;WIDTH:0.643742
G1 X128.762 Y61.944 E.58977
M204 S1000
;WIPE_START
G1 F8640
G1 X125.761 Y63.676 E-.8
;WIPE_END
G1 Z.6 F720
G1 X129.227 Y127.307 F10800
G1 Z.2 F720
G1 E.8 F2100
M204 S800
;TYPE:External perimeter
;WIDTH:0.419999
G1 F1200
G1 X118.782 Y121.277 E.37815
G1 X118.691 Y121.146 E.005
G1 X118.688 Y121.114 E.00101
G1 X118.688 Y109.308 E.37017
G1 X118.755 Y109.164 E.00498
G1 X129.006 Y103.242 E.37119
G1 X129.194 Y103.242 E.00589
G1 X129.481 Y103.433 E.01081
G1 X129.51 Y103.533 E.00326
G1 X129.51 Y127.144 E.74031
G1 X129.468 Y127.262 E.00393
G1 X129.416 Y127.307 E.00216
G1 X129.287 Y127.307 E.00404
M204 S1000
G1 X128.937 Y127.582 F10800
G1 X129.087 Y127.785
M204 S800
;TYPE:Perimeter
;WIDTH:0.653986
G1 F1200
G1 X128.983 Y127.73 E.00598
;WIDTH:0.643718
G1 X118.538 Y121.7 E.60251
;WIDTH:0.691776
G1 X118.393 Y121.588 E.00989
;WIDTH:0.740636
G1 X118.247 Y121.476 E.01068
G1 X118.223 Y121.295 E.01059
;WIDTH:0.692241
G1 X118.199 Y121.114 E.00986
;WIDTH:0.643846
G1 X118.199 Y109.308 E.58991
;WIDTH:0.692467
G1 X118.223 Y109.127 E.00986
;WIDTH:0.741088
G1 X118.248 Y108.945 E.01066
G1 X118.393 Y108.833 E.01064
;WIDTH:0.692413
G1 X118.538 Y108.721 E.00989
;WIDTH:0.643738
G1 X128.762 Y102.819 E.58977
M204 S1000
;WIPE_START
G1 F8640
G1 X125.761 Y104.551 E-.8
;WIPE_END
G1 Z.6 F720
G1 X129.227 Y168.172 F10800
G1 Z.2 F720
G1 E.8 F2100
M204 S800
;TYPE:External perimeter
;WIDTH:0.419999
G1 F1200
G1 X118.782 Y162.142 E.37815
G1 X118.691 Y162.011 E.005
G1 X118.688 Y161.979 E.00101
G1 X118.688 Y150.173 E.37017
G1 X118.755 Y150.029 E.00498
G1 X129.006 Y144.107 E.37119
G1 X129.194 Y144.107 E.00589
G1 X129.481 Y144.298 E.01081
G1 X129.51 Y144.398 E.00326
G1 X129.51 Y168.009 E.74031
G1 X129.468 Y168.127 E.00393
G1 X129.416 Y168.172 E.00216
G1 X129.287 Y168.172 E.00404
M204 S1000
G1 X128.937 Y168.447 F10800
G1 X129.087 Y168.65
M204 S800
;TYPE:Perimeter
;WIDTH:0.65399
G1 F1200
G1 X128.983 Y168.595 E.00598
;WIDTH:0.643722
G1 X118.538 Y162.565 E.60251
;WIDTH:0.691778
G1 X118.393 Y162.453 E.00989
;WIDTH:0.740636
M73 P4 R34
G1 X118.247 Y162.341 E.01068
G1 X118.223 Y162.16 E.01059
;WIDTH:0.692241
G1 X118.199 Y161.979 E.00986
;WIDTH:0.643846
G1 X118.199 Y150.173 E.58991
;WIDTH:0.692468
G1 X118.223 Y149.992 E.00986
;WIDTH:0.74109
G1 X118.248 Y149.81 E.01066
G1 X118.393 Y149.698 E.01064
;WIDTH:0.692416
G1 X118.538 Y149.586 E.00989
;WIDTH:0.643742
G1 X128.762 Y143.684 E.58977
M204 S1000
;WIPE_START
G1 F8640
G1 X125.761 Y145.416 E-.8
;WIPE_END
G1 Z.6 F720
G1 X130.979 Y19.832 F10800
G1 Z.2 F720
G1 E.8 F2100
M204 S800
;TYPE:Solid infill
;WIDTH:0.420845
G1 F1200
G1 X131.574 Y20.426 E.02642
G1 X131.574 Y20.961 E.01681
G1 X130.614 Y20.001 E.04266
G1 X130.226 Y20.001 E.01219
G1 X130.202 Y20.123 E.00391
G1 X131.574 Y21.495 E.06097
G1 X131.574 Y22.03 E.01681
G1 X130.06 Y20.516 E.06728
G1 X129.987 Y20.619 E.00397
G1 X129.788 Y20.779 E.00802
G1 X131.574 Y22.564 E.07935
G1 X131.574 Y23.098 E.01678
G1 X130.206 Y21.731 E.06077
G1 X130.226 Y21.802 E.00232
G1 X130.226 Y22.286 E.01521
G1 X131.574 Y23.633 E.05988
G1 X131.574 Y24.167 E.01678
G1 X130.226 Y22.82 E.05988
G1 X130.226 Y23.355 E.01681
G1 X131.574 Y24.702 E.05988
G1 X131.574 Y25.236 E.01678
G1 X130.226 Y23.889 E.05988
G1 X130.226 Y24.424 E.01681
G1 X131.574 Y25.771 E.05988
G1 X131.574 Y26.305 E.01678
G1 X130.226 Y24.958 E.05988
G1 X130.226 Y25.493 E.01681
G1 X131.574 Y26.84 E.05988
G1 X131.574 Y27.374 E.01678
G1 X130.226 Y26.027 E.05988
G1 X130.226 Y26.562 E.01681
G1 X131.574 Y27.909 E.05988
G1 X131.574 Y28.443 E.01678
G1 X130.226 Y27.096 E.05988
G1 X130.226 Y27.63 E.01678
G1 X131.574 Y28.978 E.05991
G1 X131.574 Y29.512 E.01678
G1 X130.226 Y28.165 E.05988
G1 X130.226 Y28.699 E.01678
G1 X131.574 Y30.047 E.05991
G1 X131.574 Y30.581 E.01678
G1 X130.226 Y29.234 E.05988
G1 X130.226 Y29.768 E.01678
G1 X131.574 Y31.115 E.05988
G1 X131.574 Y31.65 E.01681
G1 X130.226 Y30.303 E.05988
G1 X130.226 Y30.837 E.01678
G1 X131.574 Y32.184 E.05988
G1 X131.574 Y32.719 E.01681
G1 X130.226 Y31.372 E.05988
G1 X130.226 Y31.906 E.01678
G1 X131.574 Y33.253 E.05988
G1 X131.574 Y33.788 E.01681
G1 X130.226 Y32.441 E.05988
G1 X130.226 Y32.975 E.01678
G1 X131.574 Y34.322 E.05988
G1 X131.574 Y34.857 E.01681
G1 X130.226 Y33.51 E.05988
G1 X130.226 Y34.044 E.01678
G1 X131.574 Y35.391 E.05988
G1 X131.574 Y35.926 E.01681
G1 X130.226 Y34.579 E.05988
G1 X130.226 Y35.113 E.01678
G1 X131.574 Y36.46 E.05988
G1 X131.574 Y36.995 E.01681
G1 X130.226 Y35.648 E.05988
G1 X130.226 Y36.182 E.01678
G1 X131.574 Y37.529 E.05988
G1 X131.574 Y38.064 E.01681
G1 X130.226 Y36.716 E.05991
G1 X130.226 Y37.251 E.01681
G1 X131.574 Y38.598 E.05988
G1 X131.574 Y39.132 E.01678
G1 X130.226 Y37.785 E.05988
G1 X130.226 Y38.32 E.01681
G1 X131.574 Y39.667 E.05988
G1 X131.574 Y40.201 E.01678
G1 X130.226 Y38.854 E.05988
G1 X130.226 Y39.389 E.01681
G1 X131.574 Y40.736 E.05988
G1 X131.574 Y41.27 E.01678
G1 X130.226 Y39.923 E.05988
G1 X130.226 Y40.458 E.01681
G1 X131.574 Y41.805 E.05988
G1 X131.574 Y42.339 E.01678
G1 X130.226 Y40.992 E.05988
G1 X130.226 Y41.527 E.01681
G1 X131.574 Y42.874 E.05988
