; generated by PrusaSlicer 2.6.0-alpha6+linux-x64-GTK3 on 2023-05-29 at 18:38:29 UTC


;
;
; 

; external perimeters extrusion width = 0.45mm
; perimeters extrusion width = 0.45mm
; infill extrusion width = 0.45mm
; solid infill extrusion width = 0.45mm
; top infill extrusion width = 0.40mm
; first layer extrusion width = 0.42mm

M73 P0 R82
M201 X9000 Y9000 Z500 E10000 ; sets maximum accelerations, mm/sec^2
M203 X500 Y500 Z12 E120 ; sets maximum feedrates, mm / sec
M204 S2000 T1500 ; sets acceleration (S) and retract acceleration (R), mm/sec^2
M205 X10.00 Y10.00 Z0.20 E4.50 ; sets the jerk limits, mm/sec
M205 S0 T0 ; sets the minimum extruding and travel feed rate, mm/sec
;TYPE:Custom
M862.3 P "MK2.5" ; printer model check
M862.1 P0.4 ; nozzle diameter check
M115 U3.12.2 ; tell printer latest fw version
G90 ; use absolute coordinates
M83 ; extruder relative mode
M104 S215 ; set extruder temp
M140 S60 ; set bed temp
M190 S60 ; wait for bed temp
M109 S215 ; wait for extruder temp
G28 W ; home all without mesh bed level
G80 ; mesh bed leveling

G1 Z0.2 F720
G1 Y-3 F1000 ; go outside print area
G92 E0
G1 X60 E9 F1000 ; intro line
G1 X100 E12.5 F1000 ; intro line

G92 E0
G21 ; set units to millimeters
G90 ; use absolute coordinates
M83 ; use relative distances for extrusion
M900 K0.05 ; Filament gcode LA 1.5
M900 K30 ; Filament gcode LA 1.0
M107
;LAYER_CHANGE
;Z:0.2
;HEIGHT:0.2
;BEFORE_LAYER_CHANGE
G92 E0.0
;0.2


G1 E-.8 F2100
G1 Z.4 F720
;AFTER_LAYER_CHANGE
;0.2
G1 X95.779 Y72.503 F10800
G1 Z.2 F720
G1 E.8 F2100
M204 S800
;TYPE:Skirt/Brim
;WIDTH:0.42
G1 F1200
G1 X96.778 Y71.454 E.04542
G1 X97.706 Y70.831 E.03505
G1 X98.953 Y70.332 E.04211
G1 X100.387 Y70.126 E.04542
G1 X149.613 Y70.126 E1.54345
G1 X150.723 Y70.253 E.03503
G1 X151.789 Y70.589 E.03504
G1 X152.773 Y71.12 E.03506
G1 X153.637 Y71.828 E.03502
G1 X154.352 Y72.687 E.03504
G1 X154.892 Y73.666 E.03506
G1 X155.236 Y74.729 E.03503
G1 X155.363 Y75.612 E.02797
G1 X155.373 Y134.164 E1.83586
G1 X155.236 Y135.271 E.03497
G1 X155.016 Y136.025 E.02463
G1 X154.645 Y136.836 E.02796
G1 X154.221 Y137.497 E.02462
G1 X153.222 Y138.546 E.04542
G1 X152.093 Y139.273 E.0421
G1 X150.723 Y139.747 E.04545
G1 X149.5 Y139.877 E.03856
G1 X100.5 Y139.877 E1.53636
G1 X99.499 Y139.79 E.0315
G1 X98.736 Y139.604 E.02462
G1 X97.907 Y139.273 E.02799
G1 X96.956 Y138.686 E.03504
G1 X95.985 Y137.759 E.04209
G1 X95.355 Y136.836 E.03504
G1 X94.817 Y135.491 E.04542
G1 X94.627 Y134.164 E.04203
G1 X94.627 Y75.836 E1.82883
G1 X94.764 Y74.729 E.03497
G1 X94.984 Y73.975 E.02463
G1 X95.355 Y73.164 E.02796
G1 X95.746 Y72.553 E.02274
M204 S1000
; printing object hws_rpi.stl id:0 copy 0
;WIPE_START
G1 F8640
G1 X96.778 Y71.454 E-.34811
G1 X97.706 Y70.831 E-.25809
G1 X98.485 Y70.519 E-.1938
;WIPE_END
G1 Z.6 F720
G1 X149.595 Y136.652 F10800
G1 Z.2 F720
G1 E.8 F2100
M204 S800
;TYPE:Perimeter
;WIDTH:0.512332
G1 F1200
G1 X149.375 Y136.652 E.00859
;WIDTH:0.510051
G1 X148.847 Y136.585 E.02067
G1 X148.463 Y136.562 E.01494
;WIDTH:0.465025
G1 X148.079 Y136.539 E.0135
;WIDTH:0.419999
G1 X140.927 Y135.693 E.22581
;WIDTH:0.444492
G1 X139.92 Y135.561 E.03391
G1 X136.334 Y135.174 E.12043
;WIDTH:0.444834
G1 X133.325 Y134.883 E.10103
;WIDTH:0.446477
M73 P0 R81
G1 X131.979 Y134.786 E.04528
;WIDTH:0.419999
G1 X130.783 Y134.689 E.03762
;WIDTH:0.465309
G1 X130.687 Y134.66 E.00352
;WIDTH:0.510618
G1 X130.591 Y134.631 E.0039
;WIDTH:0.555927
G1 X130.494 Y134.603 E.00431
;WIDTH:0.601236
G1 X130.398 Y134.574 E.00466
G1 X129.479 Y134.532 E.04271
;WIDTH:0.573462
G1 X128.561 Y134.49 E.04054
;WIDTH:0.545688
G1 X128.546 Y134.49 E.00063
;WIDTH:0.545182
G1 X127.736 Y134.468 E.03384
;WIDTH:0.530632
G1 X127.365 Y134.472 E.01505
;WIDTH:0.493755
G1 X126.994 Y134.477 E.01391
;WIDTH:0.456877
G1 X126.623 Y134.482 E.01277
;WIDTH:0.44916
G1 X124.475 Y134.453 E.07256
;WIDTH:0.446219
G1 X124.292 Y134.456 E.00614
;WIDTH:0.448679
G1 X122.264 Y134.505 E.06844
;WIDTH:0.446728
G1 X120.642 Y134.585 E.05453
;WIDTH:0.447467
G1 X118.347 Y134.754 E.07741
;WIDTH:0.419999
G1 X115.813 Y134.974 E.07975
G1 X113.887 Y135.167 E.06069
;WIDTH:0.445014
G1 X112.769 Y135.268 E.03753
G1 X109.615 Y135.615 E.10609
;WIDTH:0.447003
G1 X107.554 Y135.87 E.06978
;WIDTH:0.419999
G1 X101.921 Y136.539 E.17786
;WIDTH:0.46497
G1 X101.537 Y136.562 E.0135
;WIDTH:0.509941
G1 X101.153 Y136.585 E.01494
G1 X100.485 Y136.667 E.02614
;WIDTH:0.513656
G1 X99.974 Y136.609 E.02013
G1 X99.489 Y136.464 E.01981
;WIDTH:0.509375
G1 X99.035 Y136.225 E.0199
;WIDTH:0.513981
G1 X98.647 Y135.909 E.0196
G1 X98.315 Y135.527 E.01982
;WIDTH:0.513171
G1 X98.069 Y135.084 E.01981
G1 X97.907 Y134.604 E.01981
;WIDTH:0.510412
G1 X97.838 Y134.094 E.02001
;WIDTH:0.515311
G1 X97.869 Y133.587 E.01995
;WIDTH:0.520866
G1 X98.009 Y132.897 E.02798
;WIDTH:0.487244
G1 X98.032 Y132.731 E.00619
;WIDTH:0.453622
G1 X98.054 Y132.565 E.00572
;WIDTH:0.419999
G1 X99.662 Y125.824 E.21729
;WIDTH:0.447002
G1 X100.531 Y122.089 E.12885
;WIDTH:0.445316
G1 X100.594 Y121.801 E.00986
;WIDTH:0.446384
G1 X101.263 Y118.709 E.10613
G1 X101.41 Y117.942 E.0262
;WIDTH:0.449355
G1 X102.067 Y114.636 E.11391
;WIDTH:0.441133
G1 X102.069 Y114.62 E.00053
;WIDTH:0.448294
G1 X102.542 Y111.77 E.09738
;WIDTH:0.440327
G1 X102.546 Y111.749 E.00071
;WIDTH:0.449121
G1 X102.749 Y110.073 E.05702
;WIDTH:0.419999
G1 X102.846 Y109.31 E.02412
;WIDTH:0.450191
G1 X102.97 Y108.133 E.04008
;WIDTH:0.444081
G1 X103.061 Y106.695 E.04806
;WIDTH:0.443124
G1 X103.086 Y106.001 E.02311
;WIDTH:0.447199
G1 X103.094 Y105.212 E.02652
;WIDTH:0.448479
G1 X103.084 Y104.232 E.03305
G1 X103.048 Y103.623 E.02057
;WIDTH:0.419999
G1 X103.011 Y102.611 E.03175
G1 X102.939 Y101.78 E.02615
;WIDTH:0.452145
G1 X102.834 Y100.451 E.04536
;WIDTH:0.444611
G1 X102.686 Y99.238 E.04082
;WIDTH:0.444344
G1 X102.494 Y97.902 E.04505
;WIDTH:0.445996
G1 X102.016 Y95.081 E.0959
;WIDTH:0.451014
G1 X101.858 Y94.328 E.02611
;WIDTH:0.449078
G1 X101.329 Y91.603 E.09375
;WIDTH:0.447969
G1 X100.435 Y87.48 E.14209
;WIDTH:0.445452
G1 X100.165 Y86.361 E.03853
;WIDTH:0.447055
G1 X99.449 Y83.2 E.10891
;WIDTH:0.446522
G1 X99.2 Y82.21 E.03426
;WIDTH:0.419999
G1 X98.054 Y77.435 E.15397
;WIDTH:0.465223
G1 X97.985 Y77.045 E.01391
;WIDTH:0.510447
G1 X97.837 Y76.129 E.03607
;WIDTH:0.514179
G1 X97.864 Y75.623 E.01986
G1 X97.979 Y75.129 E.01988
;WIDTH:0.512675
G1 X98.193 Y74.669 E.01982
G1 X98.486 Y74.256 E.01978
;WIDTH:0.511196
G1 X98.851 Y73.904 E.01974
;WIDTH:0.514295
G1 X99.279 Y73.634 E.01983
G1 X99.748 Y73.441 E.01988
;WIDTH:0.511401
G1 X100.245 Y73.348 E.0197
G1 X100.622 Y73.349 E.01469
;WIDTH:0.509115
G1 X101.143 Y73.415 E.02036
G1 X101.532 Y73.44 E.01511
;WIDTH:0.464557
G1 X101.921 Y73.464 E.01366
;WIDTH:0.419999
G1 X107.554 Y74.134 E.17786
;WIDTH:0.44636
G1 X110.604 Y74.497 E.10304
;WIDTH:0.445586
G1 X112.433 Y74.679 E.06154
;WIDTH:0.446431
G1 X114.292 Y74.889 E.06277
;WIDTH:0.447236
G1 X117.357 Y75.176 E.10349
;WIDTH:0.448366
G1 X119.224 Y75.306 E.06309
;WIDTH:0.445379
G1 X120.062 Y75.381 E.02816
G1 X122.212 Y75.491 E.07204
;WIDTH:0.44018
G1 X122.228 Y75.492 E.00053
;WIDTH:0.447406
G1 X124.217 Y75.542 E.06692
;WIDTH:0.438416
G1 X124.235 Y75.542 E.00059
;WIDTH:0.449748
G1 X126.565 Y75.519 E.07882
;WIDTH:0.448366
G1 X128.2 Y75.475 E.05514
;WIDTH:0.446745
G1 X129.988 Y75.376 E.06013
;WIDTH:0.440094
G1 X129.995 Y75.375 E.00023
;WIDTH:0.445585
G1 X131.812 Y75.244 E.06099
;WIDTH:0.46449
G1 X132.069 Y75.235 E.00901
G1 X133.164 Y75.115 E.03861
;WIDTH:0.446203
G1 X134.581 Y74.999 E.04768
;WIDTH:0.442178
G1 X137.396 Y74.713 E.09393
;WIDTH:0.445828
G1 X139.525 Y74.468 E.0718
;WIDTH:0.444422
G1 X140.528 Y74.37 E.03364
;WIDTH:0.44662
G1 X142.446 Y74.13 E.06489
;WIDTH:0.419999
G1 X148.079 Y73.461 E.17786
;WIDTH:0.464994
G1 X148.461 Y73.439 E.01343
;WIDTH:0.509988
G1 X148.843 Y73.416 E.01486
G1 X149.515 Y73.334 E.02629
;WIDTH:0.514625
G1 X150.026 Y73.392 E.02017
G1 X150.511 Y73.536 E.01984
;WIDTH:0.509373
G1 X150.965 Y73.775 E.0199
;WIDTH:0.513985
G1 X151.353 Y74.091 E.0196
G1 X151.685 Y74.473 E.01982
;WIDTH:0.513158
G1 X151.931 Y74.916 E.01981
G1 X152.093 Y75.396 E.01981
;WIDTH:0.510418
G1 X152.162 Y75.897 E.01966
;WIDTH:0.515305
G1 X152.131 Y76.413 E.0203
G1 X152.022 Y76.94 E.02114
;WIDTH:0.50262
G1 X151.984 Y77.187 E.00955
;WIDTH:0.46131
G1 X151.946 Y77.435 E.00873
;WIDTH:0.419999
G1 X150.794 Y82.245 E.15508
;WIDTH:0.443514
G1 X150.463 Y83.575 E.04565
;WIDTH:0.445246
G1 X149.257 Y88.861 E.18138
;WIDTH:0.444366
G1 X149.094 Y89.686 E.02807
;WIDTH:0.419999
G1 X148.511 Y92.43 E.08796
G1 X147.891 Y95.655 E.10297
G1 X147.706 Y96.749 E.03479
;WIDTH:0.444253
G1 X147.597 Y97.314 E.0192
G1 X147.376 Y98.808 E.0504
;WIDTH:0.438244
G1 X147.374 Y98.82 E.0004
;WIDTH:0.445056
G1 X147.196 Y100.227 E.04742
;WIDTH:0.437159
G1 X147.097 Y101.227 E.03294
;WIDTH:0.419999
G1 X146.953 Y103.307 E.06537
;WIDTH:0.4475
G1 X146.921 Y103.947 E.02156
G1 X146.905 Y104.994 E.03523
;WIDTH:0.446582
G1 X146.914 Y106.017 E.03434
;WIDTH:0.443784
G1 X146.979 Y107.416 E.04668
;WIDTH:0.442311
G1 X147.085 Y108.552 E.03789
;WIDTH:0.42173
G1 X147.229 Y109.938 E.04389
;WIDTH:0.419999
G1 X147.264 Y110.27 E.01047
;WIDTH:0.424068
G1 X147.617 Y112.746 E.07926
;WIDTH:0.446542
G1 X147.663 Y113.072 E.01105
;WIDTH:0.449414
G1 X148.019 Y115.009 E.06657
;WIDTH:0.419999
G1 X148.229 Y116.131 E.03579
;WIDTH:0.448955
G1 X148.794 Y118.994 E.09852
;WIDTH:0.450014
G1 X148.954 Y119.67 E.02351
;WIDTH:0.419999
G1 X149.455 Y121.952 E.07325
;WIDTH:0.444935
G1 X149.672 Y122.989 E.03542
G1 X150.552 Y126.801 E.13078
;WIDTH:0.445837
G1 X150.815 Y127.85 E.03623
;WIDTH:0.419999
G1 X151.946 Y132.565 E.15203
;WIDTH:0.465226
G1 X152.015 Y132.955 E.01391
;WIDTH:0.510452
G1 X152.163 Y133.871 E.03607
;WIDTH:0.514177
G1 X152.136 Y134.377 E.01986
G1 X152.021 Y134.871 E.01988
;WIDTH:0.512684
G1 X151.807 Y135.331 E.01982
G1 X151.514 Y135.744 E.01978
;WIDTH:0.511186
G1 X151.149 Y136.096 E.01974
;WIDTH:0.514294
G1 X150.721 Y136.366 E.01983
G1 X150.252 Y136.559 E.01988
;WIDTH:0.512332
G1 X149.755 Y136.651 E.01973
G1 X149.655 Y136.652 E.0039
M204 S1000
G1 X149.572 Y137.081 F10800
M204 S800
;TYPE:External perimeter
;WIDTH:0.419999
G1 F1200
G1 X149.515 Y137.089 E.0018
G1 X139.874 Y135.948 E.3044
G1 X136.292 Y135.561 E.11296
G1 X133.288 Y135.27 E.09463
G1 X130.686 Y135.06 E.08185
G1 X128.534 Y134.93 E.0676
G1 X126.62 Y134.859 E.06005
G1 X124.466 Y134.842 E.06754
G1 X122.279 Y134.894 E.06859
G1 X120.665 Y134.972 E.05066
G1 X118.383 Y135.129 E.07172
G1 X115.846 Y135.35 E.07985
G1 X112.964 Y135.639 E.09082
G1 X109.657 Y136.001 E.10431
G1 X100.49 Y137.088 E.28944
G1 X99.915 Y137.033 E.01811
G1 X99.351 Y136.867 E.01843
G1 X98.829 Y136.598 E.01841
G1 X98.368 Y136.235 E.0184
G1 X97.983 Y135.79 E.01845
G1 X97.689 Y135.282 E.0184
G1 X97.498 Y134.726 E.01843
G1 X97.426 Y134.224 E.0159
G1 X97.429 Y133.838 E.0121
G1 X97.5 Y133.259 E.01829
G1 X99.137 Y126.427 E.22028
G1 X100.152 Y122.002 E.14235
G1 X100.988 Y118.135 E.12405
G1 X101.686 Y114.561 E.11418
G1 X102.16 Y111.707 E.09071
G1 X102.473 Y109.257 E.07744
G1 X102.581 Y108.108 E.03618
G1 X102.673 Y106.681 E.04484
G1 X102.697 Y105.994 E.02155
G1 X102.707 Y104.641 E.04242
G1 X102.635 Y102.643 E.06269
G1 X102.448 Y100.497 E.06754
G1 X102.301 Y99.293 E.03803
G1 X102.111 Y97.971 E.04188
G1 X101.606 Y94.998 E.09455
G1 X100.949 Y91.681 E.10602
G1 X100.055 Y87.563 E.13212
G1 X99.054 Y83.221 E.13971
G1 X97.497 Y76.716 E.20972
G1 X97.418 Y76.076 E.02022
G1 X97.457 Y75.501 E.01807
G1 X97.642 Y74.856 E.02104
G1 X97.861 Y74.406 E.01569
G1 X98.21 Y73.935 E.01838
G1 X98.642 Y73.539 E.01837
G1 X99.142 Y73.231 E.01841
G1 X99.748 Y73.013 E.02019
G1 X100.485 Y72.911 E.02333
G1 X106.11 Y73.589 E.17764
G1 X110.648 Y74.11 E.14322
G1 X114.329 Y74.502 E.11607
G1 X117.389 Y74.789 E.09637
G1 X120.034 Y74.989 E.08317
G1 X122.232 Y75.104 E.06901
G1 X124.229 Y75.156 E.06264
G1 X126.553 Y75.142 E.07287
G1 X128.183 Y75.087 E.05114
G1 X129.969 Y74.989 E.05608
G1 X132.03 Y74.837 E.0648
G1 X134.547 Y74.613 E.07923
G1 X137.357 Y74.327 E.08856
G1 X140.486 Y73.983 E.0987
G1 X149.51 Y72.912 E.28493
G1 X150.085 Y72.967 E.01811
G1 X150.649 Y73.133 E.01843
G1 X151.171 Y73.402 E.01841
G1 X151.632 Y73.765 E.0184
G1 X152.017 Y74.21 E.01845
G1 X152.311 Y74.719 E.01843
G1 X152.502 Y75.274 E.0184
G1 X152.574 Y75.776 E.0159
G1 X152.571 Y76.162 E.0121
G1 X152.5 Y76.741 E.01829
G1 X150.843 Y83.659 E.22304
G1 X149.639 Y88.939 E.1698
G1 X148.882 Y92.501 E.11418
G1 X148.261 Y95.73 E.1031
G1 X147.982 Y97.372 E.05222
G1 X147.757 Y98.867 E.0474
G1 X147.474 Y101.253 E.07534
G1 X147.33 Y103.318 E.0649
G1 X147.295 Y104.991 E.05247
G1 X147.303 Y106 E.03164
G1 X147.366 Y107.388 E.04356
G1 X147.419 Y108.116 E.02289
G1 X147.637 Y110.216 E.0662
G1 X147.993 Y112.698 E.07862
G1 X148.508 Y115.606 E.0926
G1 X149.187 Y118.97 E.1076
G1 X150.007 Y122.709 E.12002
G1 X150.975 Y126.902 E.13493
G1 X152.503 Y133.284 E.20576
G1 X152.582 Y133.913 E.01988
G1 X152.543 Y134.499 E.01841
G1 X152.358 Y135.144 E.02104
G1 X152.139 Y135.594 E.01569
G1 X151.79 Y136.065 E.01838
G1 X151.358 Y136.461 E.01837
G1 X150.858 Y136.769 E.01841
G1 X150.248 Y136.987 E.02031
G1 X149.631 Y137.073 E.01953
M204 S1000
G1 X149.535 Y137.037 F10800
;WIPE_START
G1 F8640
G1 X149.515 Y137.089 E-.02704
G1 X146.191 Y136.696 E-.77296
;WIPE_END
G1 Z.6 F720
G1 X127.641 Y126.35 F10800
G1 Z.2 F720
G1 E.8 F2100
M204 S800
;TYPE:Perimeter
;WIDTH:0.524747
G1 F1200
G1 X127.67 Y126.347 E.00117
;WIDTH:0.484606
G1 X127.776 Y126.339 E.0039
;WIDTH:0.444465
G1 X131.496 Y126.339 E.12421
;WIDTH:0.484607
G1 X131.602 Y126.347 E.0039
;WIDTH:0.524748
G1 X131.709 Y126.356 E.0043
;WIDTH:0.564889
G1 X131.815 Y126.364 E.00461
G1 X131.875 Y126.452 E.00462
;WIDTH:0.524737
G1 X131.936 Y126.54 E.00429
;WIDTH:0.484585
G1 X131.996 Y126.628 E.00391
;WIDTH:0.444432
G1 X133.856 Y129.849 E.12418
;WIDTH:0.484573
G1 X133.902 Y129.946 E.00394
;WIDTH:0.524716
G1 X133.948 Y130.042 E.00426
;WIDTH:0.564859
G1 X133.994 Y130.138 E.00462
G1 X133.948 Y130.235 E.00466
;WIDTH:0.524716
G1 X133.902 Y130.331 E.00426
;WIDTH:0.484573
G1 X133.856 Y130.427 E.00391
;WIDTH:0.444431
G1 X132.151 Y133.38 E.11384
G1 X131.879 Y133.776 E.01604
;WIDTH:0.419999
G1 X131.774 Y133.852 E.00406
G1 X131.496 Y133.925 E.00901
G1 X130.814 Y133.925 E.02138
;WIDTH:0.465309
G1 X130.714 Y133.948 E.0036
;WIDTH:0.510618
G1 X130.614 Y133.971 E.00399
;WIDTH:0.555927
G1 X130.515 Y133.993 E.00433
;WIDTH:0.601236
G1 X130.415 Y134.016 E.00476
G1 X129.495 Y134.002 E.04272
;WIDTH:0.573462
G1 X128.576 Y133.988 E.04055
;WIDTH:0.545688
G1 X127.776 Y133.981 E.03345
;WIDTH:0.530921
G1 X127.615 Y133.871 E.00791
;WIDTH:0.493947
G1 X127.453 Y133.76 E.00736
;WIDTH:0.456973
G1 X127.291 Y133.65 E.00674
;WIDTH:0.444428
G1 X125.416 Y130.427 E.12449
;WIDTH:0.484566
G1 X125.37 Y130.331 E.00391
;WIDTH:0.52471
G1 X125.324 Y130.235 E.00426
;WIDTH:0.564854
G1 X125.278 Y130.138 E.00466
G1 X125.324 Y130.042 E.00462
;WIDTH:0.524711
G1 X125.37 Y129.946 E.00426
;WIDTH:0.484568
G1 X125.416 Y129.849 E.00394
;WIDTH:0.444426
G1 X127.276 Y126.628 E.12418
;WIDTH:0.48458
G1 X127.336 Y126.54 E.00391
;WIDTH:0.524734
G1 X127.397 Y126.452 E.00429
;WIDTH:0.564887
G1 X127.457 Y126.364 E.00462
G1 X127.564 Y126.356 E.00466
;WIDTH:0.524747
G1 X127.581 Y126.355 E.00068
M204 S1000
G1 X127.724 Y126.736 F10800
M204 S800
;TYPE:External perimeter
;WIDTH:0.419999
G1 F1200
G1 X131.496 Y126.728 E.11827
G1 X131.627 Y126.781 E.00443
G1 X133.519 Y130.044 E.11826
G1 X133.539 Y130.184 E.00443
G1 X133.519 Y130.233 E.00166
G1 X131.659 Y133.454 E.11662
G1 X131.513 Y133.547 E.00543
G1 X127.776 Y133.548 E.11717
G1 X127.613 Y133.454 E.0059
G1 X125.753 Y130.233 E.11662
G1 X125.733 Y130.093 E.00443
G1 X125.753 Y130.044 E.00166
G1 X127.613 Y126.823 E.11662
G1 X127.677 Y126.773 E.00255
M204 S1000
G1 X127.795 Y126.342 F10800
;WIPE_START
G1 F8640
G1 X131.141 Y126.732 E-.8
;WIPE_END
G1 Z.6 F720
G1 X132.469 Y134.029 F10800
G1 Z.2 F720
G1 E.8 F2100
M204 S800
;TYPE:Perimeter
;WIDTH:0.436973
G1 F1200
G1 X132.43 Y133.795 E.00777
;WIDTH:0.444431
G1 X132.499 Y133.581 E.00751
G1 X134.204 Y130.628 E.11384
;WIDTH:0.484573
G1 X134.264 Y130.54 E.00391
;WIDTH:0.524716
G1 X134.325 Y130.452 E.00429
;WIDTH:0.564859
