; generated by PrusaSlicer 2.6.0-alpha6+linux-x64-GTK3 on 2023-05-30 at 03:41:42 UTC


;
;
; 

; external perimeters extrusion width = 0.45mm
; perimeters extrusion width = 0.45mm
; infill extrusion width = 0.45mm
; solid infill extrusion width = 0.45mm
; top infill extrusion width = 0.40mm
; first layer extrusion width = 0.42mm

M73 P0 R54
M201 X9000 Y9000 Z500 E10000 ; sets maximum accelerations, mm/sec^2
M203 X500 Y500 Z12 E120 ; sets maximum feedrates, mm / sec
M204 S2000 T1500 ; sets acceleration (S) and retract acceleration (R), mm/sec^2
M205 X10.00 Y10.00 Z0.20 E4.50 ; sets the jerk limits, mm/sec
M205 S0 T0 ; sets the minimum extruding and travel feed rate, mm/sec
;TYPE:Custom
M862.3 P "MK2.5" ; printer model check
M862.1 P0.4 ; nozzle diameter check
M115 U3.12.2 ; tell printer latest fw version
G90 ; use absolute coordinates
M83 ; extruder relative mode
M104 S215 ; set extruder temp
M140 S60 ; set bed temp
M190 S60 ; wait for bed temp
M109 S215 ; wait for extruder temp
G28 W ; home all without mesh bed level
G80 ; mesh bed leveling

G1 Z0.2 F720
G1 Y-3 F1000 ; go outside print area
G92 E0
G1 X60 E9 F1000 ; intro line
G1 X100 E12.5 F1000 ; intro line

G92 E0
G21 ; set units to millimeters
G90 ; use absolute coordinates
M83 ; use relative distances for extrusion
M900 K0.05 ; Filament gcode LA 1.5
M900 K30 ; Filament gcode LA 1.0
M107
;LAYER_CHANGE
;Z:0.2
;HEIGHT:0.2
;BEFORE_LAYER_CHANGE
G92 E0.0
;0.2


G1 E-.8 F2100
M73 P0 R53
G1 Z.4 F720
;AFTER_LAYER_CHANGE
;0.2
G1 X106.227 Y86.661 F10800
G1 Z.2 F720
G1 E.8 F2100
M204 S800
;TYPE:Skirt/Brim
;WIDTH:0.42
G1 F1200
G1 X107.097 Y85.791 E.03858
G1 X127.535 Y73.991 E.73996
G1 X128.724 Y73.673 E.03859
G1 X141.714 Y73.673 E.40729
G1 X143.021 Y74.065 E.04278
G1 X143.773 Y74.861 E.03433
G1 X150.268 Y86.111 E.4073
G1 X150.587 Y87.3 E.0386
G1 X150.587 Y110.9 E.73996
G1 X150.268 Y112.089 E.0386
G1 X143.773 Y123.339 E.4073
G1 X142.903 Y124.209 E.03858
G1 X122.465 Y136.009 E.73996
G1 X121.276 Y136.327 E.03859
G1 X108.286 Y136.327 E.40729
G1 X106.979 Y135.935 E.04278
G1 X106.227 Y135.139 E.03433
G1 X99.732 Y123.889 E.4073
G1 X99.413 Y122.7 E.0386
G1 X99.413 Y99.1 E.73996
G1 X99.732 Y97.911 E.0386
G1 X106.197 Y86.713 E.40542
M204 S1000
; printing object insert-hollow-for.stl id:0 copy 0
;WIPE_START
G1 F8640
G1 X107.097 Y85.791 E-.2975
G1 X108.982 Y84.703 E-.5025
;WIPE_END
G1 Z.6 F720
G1 X139.714 Y118.685 F10800
G1 Z.2 F720
G1 E.8 F2100
M204 S800
;TYPE:External perimeter
;WIDTH:0.529023
G1 F1200
G1 X139.331 Y118.702 E.0155
;WIDTH:0.496461
G1 X131.108 Y118.702 E.31011
;WIDTH:0.529023
G1 X130.724 Y118.685 E.01554
G1 X130.518 Y118.362 E.01548
;WIDTH:0.496461
G1 X126.407 Y111.24 E.31012
;WIDTH:0.529023
G1 X126.229 Y110.9 E.01551
G1 X126.407 Y110.56 E.01551
;WIDTH:0.496461
G1 X130.518 Y103.438 E.31012
;WIDTH:0.529023
G1 X130.724 Y103.115 E.01548
G1 X131.108 Y103.098 E.01554
;WIDTH:0.49646
G1 X139.331 Y103.098 E.31011
;WIDTH:0.529023
G1 X139.714 Y103.115 E.0155
G1 X139.92 Y103.438 E.01548
;WIDTH:0.49646
G1 X144.031 Y110.56 E.31012
;WIDTH:0.529022
G1 X144.209 Y110.9 E.01551
G1 X144.031 Y111.24 E.01551
;WIDTH:0.49646
G1 X139.92 Y118.362 E.31012
;WIDTH:0.529023
G1 X139.746 Y118.635 E.01309
M204 S1000
;WIPE_START
G1 F8640
G1 X139.331 Y118.702 E-.09707
G1 X136.287 Y118.702 E-.70293
;WIPE_END
G1 Z.6 F720
G1 X126.8 Y111.013 F10800
G1 Z.2 F720
G1 E.8 F2100
M204 S800
G1 F1200
G1 X126.753 Y110.9 E.00495
G1 X126.8 Y110.787 E.00495
;WIDTH:0.496461
G1 X130.911 Y103.665 E.31012
;WIDTH:0.529023
G1 X130.986 Y103.568 E.00496
G1 X131.108 Y103.552 E.00497
;WIDTH:0.49646
G1 X139.331 Y103.552 E.31011
;WIDTH:0.529023
G1 X139.452 Y103.568 E.00493
G1 X139.527 Y103.665 E.00496
;WIDTH:0.49646
G1 X143.639 Y110.787 E.31014
;WIDTH:0.529022
G1 X143.685 Y110.9 E.00493
G1 X143.639 Y111.013 E.00493
;WIDTH:0.49646
G1 X139.527 Y118.135 E.31014
;WIDTH:0.529023
G1 X139.452 Y118.232 E.00496
G1 X139.331 Y118.248 E.00493
;WIDTH:0.496461
G1 X131.108 Y118.248 E.31011
;WIDTH:0.529023
G1 X130.986 Y118.232 E.00497
G1 X130.911 Y118.135 E.00496
;WIDTH:0.496461
G1 X126.83 Y111.065 E.30786
M204 S1000
;WIPE_START
G1 F8640
G1 X126.753 Y110.9 E-.04204
G1 X126.8 Y110.787 E-.02826
G1 X128.38 Y108.05 E-.7297
;WIPE_END
G1 Z.6 F720
G1 X124.119 Y110.806 F10800
G1 Z.2 F720
G1 E.8 F2100
M204 S800
;WIDTH:0.419999
G1 F1200
G1 X129.587 Y101.334 E.34292
G1 X129.718 Y101.243 E.005
G1 X140.687 Y101.24 E.34392
G1 X140.782 Y101.265 E.00308
G1 X140.851 Y101.334 E.00306
G1 X146.319 Y110.806 E.34292
G1 X146.333 Y110.965 E.005
G1 X140.851 Y120.466 E.34393
G1 X140.72 Y120.557 E.005
G1 X129.751 Y120.56 E.34392
G1 X129.606 Y120.493 E.00501
G1 X129.587 Y120.466 E.00104
G1 X124.119 Y110.994 E.34292
G1 X124.108 Y110.863 E.00412
M204 S1000
G1 X123.813 Y110.548 F10800
;WIPE_START
G1 F8640
G1 X125.835 Y107.859 E-.8
;WIPE_END
G1 Z.6 F720
G1 X129.076 Y100.26 F10800
G1 Z.2 F720
G1 E.8 F2100
M204 S800
G1 F1200
G1 X141.362 Y100.26 E.38522
G1 X147.505 Y110.9 E.38522
G1 X141.362 Y121.54 E.38522
G1 X129.076 Y121.54 E.38522
G1 X122.933 Y110.9 E.38522
G1 X129.046 Y100.312 E.38334
M204 S1000
G1 X129.423 Y100.46 F10800
;WIPE_START
G1 F8640
G1 X132.511 Y100.297 E-.8
;WIPE_END
G1 Z.6 F720
G1 X123.671 Y110.618 F10800
G1 Z.2 F720
G1 E.8 F2100
M204 S800
;TYPE:Perimeter
;WIDTH:0.694559
G1 F1200
G1 X123.695 Y110.561 E.00335
;WIDTH:0.645844
G1 X129.163 Y101.089 E.54831
;WIDTH:0.694559
G1 X129.275 Y100.944 E.00993
;WIDTH:0.743274
G1 X129.387 Y100.799 E.01067
G1 X129.569 Y100.774 E.0107
;WIDTH:0.694557
G1 X129.751 Y100.75 E.00995
;WIDTH:0.64584
G1 X140.687 Y100.75 E.54825
;WIDTH:0.694557
G1 X140.869 Y100.774 E.00995
;WIDTH:0.743274
G1 X141.051 Y100.799 E.0107
G1 X141.163 Y100.944 E.01067
;WIDTH:0.694558
G1 X141.275 Y101.089 E.00993
;WIDTH:0.645842
G1 X146.743 Y110.561 E.54831
;WIDTH:0.694558
G1 X146.813 Y110.73 E.00991
;WIDTH:0.743276
M73 P1 R53
G1 X146.883 Y110.9 E.01071
G1 X146.813 Y111.07 E.01071
;WIDTH:0.694558
G1 X146.743 Y111.239 E.00991
;WIDTH:0.645842
G1 X141.275 Y120.711 E.54831
;WIDTH:0.694558
G1 X141.163 Y120.856 E.00993
;WIDTH:0.743274
G1 X141.051 Y121.001 E.01067
G1 X140.869 Y121.026 E.0107
;WIDTH:0.694557
G1 X140.687 Y121.05 E.00995
;WIDTH:0.64584
G1 X129.751 Y121.05 E.54825
;WIDTH:0.694557
G1 X129.569 Y121.026 E.00995
;WIDTH:0.743274
G1 X129.387 Y121.001 E.0107
G1 X129.275 Y120.856 E.01067
;WIDTH:0.694559
G1 X129.163 Y120.711 E.00993
;WIDTH:0.645844
G1 X123.695 Y111.239 E.54831
;WIDTH:0.694559
G1 X123.625 Y111.07 E.00991
;WIDTH:0.743276
G1 X123.555 Y110.9 E.01071
G1 X123.625 Y110.73 E.01071
;WIDTH:0.694559
G1 X123.648 Y110.674 E.00328
M204 S1000
;WIPE_START
G1 F8640
G1 X123.695 Y110.561 E-.02826
G1 X125.366 Y107.666 E-.77174
;WIPE_END
G1 Z.6 F720
G1 X124.119 Y87.394 F10800
G1 Z.2 F720
G1 E.8 F2100
M204 S800
;TYPE:External perimeter
;WIDTH:0.419999
G1 F1200
G1 X124.105 Y87.235 E.005
G1 X124.119 Y87.206 E.00101
G1 X129.587 Y77.734 E.34292
G1 X129.718 Y77.643 E.005
G1 X129.751 Y77.64 E.00104
G1 X140.687 Y77.64 E.34289
G1 X140.782 Y77.665 E.00308
G1 X140.851 Y77.734 E.00306
G1 X146.319 Y87.206 E.34292
G1 X146.333 Y87.365 E.005
G1 X140.851 Y96.866 E.34393
G1 X140.72 Y96.957 E.005
G1 X140.687 Y96.96 E.00104
G1 X129.751 Y96.96 E.34289
G1 X129.606 Y96.893 E.00501
G1 X124.149 Y87.446 E.34207
M204 S1000
G1 X123.966 Y87.349 F10800
;WIPE_START
G1 F8640
G1 X124.105 Y87.235 E-.04977
G1 X124.119 Y87.206 E-.00744
G1 X125.727 Y84.42 E-.74279
;WIPE_END
G1 Z.6 F720
G1 X141.362 Y97.94 F10800
G1 Z.2 F720
G1 E.8 F2100
M204 S800
G1 F1200
G1 X129.076 Y97.94 E.38522
G1 X122.933 Y87.3 E.38522
G1 X129.076 Y76.66 E.38522
G1 X141.362 Y76.66 E.38522
G1 X147.505 Y87.3 E.38522
G1 X141.392 Y97.888 E.38334
M204 S1000
G1 X141.016 Y97.74 F10800
;WIPE_START
G1 F8640
G1 X137.927 Y97.903 E-.8
;WIPE_END
G1 Z.6 F720
G1 X123.874 Y87.95 F10800
G1 Z.2 F720
G1 E.8 F2100
M204 S800
;TYPE:Perimeter
;WIDTH:0.645844
G1 F1200
G1 X123.695 Y87.639 E.01799
;WIDTH:0.694559
G1 X123.625 Y87.47 E.00991
;WIDTH:0.743276
G1 X123.555 Y87.3 E.01071
G1 X123.625 Y87.13 E.01071
;WIDTH:0.694559
G1 X123.695 Y86.961 E.00991
;WIDTH:0.645848
G1 X129.163 Y77.489 E.54831
;WIDTH:0.694566
G1 X129.275 Y77.344 E.00993
;WIDTH:0.743284
G1 X129.387 Y77.199 E.01067
G1 X129.569 Y77.174 E.0107
;WIDTH:0.694567
G1 X129.751 Y77.15 E.00995
;WIDTH:0.64585
G1 X140.687 Y77.15 E.54826
;WIDTH:0.694567
G1 X140.869 Y77.174 E.00995
;WIDTH:0.743284
G1 X141.051 Y77.199 E.0107
G1 X141.163 Y77.344 E.01067
;WIDTH:0.694565
G1 X141.275 Y77.489 E.00993
;WIDTH:0.645846
G1 X146.743 Y86.961 E.54831
;WIDTH:0.694559
G1 X146.813 Y87.13 E.00991
;WIDTH:0.743276
G1 X146.883 Y87.3 E.01071
G1 X146.813 Y87.47 E.01071
;WIDTH:0.694559
G1 X146.743 Y87.639 E.00991
;WIDTH:0.645844
G1 X141.275 Y97.111 E.54831
;WIDTH:0.69456
G1 X141.163 Y97.256 E.00993
;WIDTH:0.743276
G1 X141.051 Y97.401 E.01067
G1 X140.869 Y97.426 E.0107
;WIDTH:0.694557
G1 X140.687 Y97.45 E.00995
;WIDTH:0.645838
G1 X129.751 Y97.45 E.54825
;WIDTH:0.694556
G1 X129.569 Y97.426 E.00995
;WIDTH:0.743274
G1 X129.387 Y97.401 E.0107
G1 X129.275 Y97.256 E.01067
;WIDTH:0.694559
G1 X129.163 Y97.111 E.00993
;WIDTH:0.645844
G1 X123.904 Y88.002 E.52731
M204 S1000
;WIPE_START
G1 F8640
G1 X123.695 Y87.639 E-.09672
G1 X123.625 Y87.47 E-.04224
G1 X123.555 Y87.3 E-.04245
G1 X123.625 Y87.13 E-.04245
G1 X123.695 Y86.961 E-.04224
G1 X124.851 Y84.958 E-.5339
;WIPE_END
G1 Z.6 F720
G1 X130.724 Y79.515 F10800
G1 Z.2 F720
G1 E.8 F2100
M204 S800
;TYPE:External perimeter
;WIDTH:0.529021
G1 F1200
G1 X131.108 Y79.498 E.01554
;WIDTH:0.496458
G1 X139.331 Y79.498 E.3101
;WIDTH:0.52902
G1 X139.714 Y79.515 E.0155
G1 X139.92 Y79.838 E.01548
;WIDTH:0.496459
G1 X144.031 Y86.96 E.31012
;WIDTH:0.529022
G1 X144.209 Y87.3 E.01551
G1 X144.031 Y87.64 E.01551
;WIDTH:0.496461
G1 X139.92 Y94.762 E.31012
;WIDTH:0.529023
G1 X139.714 Y95.085 E.01548
G1 X139.331 Y95.102 E.0155
;WIDTH:0.49646
G1 X131.108 Y95.102 E.31011
;WIDTH:0.529023
G1 X130.724 Y95.085 E.01554
G1 X130.518 Y94.762 E.01548
;WIDTH:0.496461
G1 X126.407 Y87.64 E.31012
;WIDTH:0.529023
G1 X126.229 Y87.3 E.01551
G1 X126.407 Y86.96 E.01551
;WIDTH:0.496461
G1 X130.518 Y79.838 E.31012
;WIDTH:0.529021
G1 X130.692 Y79.565 E.01309
M204 S1000
;WIPE_START
G1 F8640
G1 X131.108 Y79.498 E-.09729
G1 X134.151 Y79.498 E-.70271
;WIPE_END
G1 Z.6 F720
G1 X131.108 Y94.648 F10800
G1 Z.2 F720
G1 E.8 F2100
M204 S800
;WIDTH:0.529023
G1 F1200
G1 X130.986 Y94.632 E.00497
G1 X130.911 Y94.535 E.00496
;WIDTH:0.496461
G1 X126.8 Y87.413 E.31012
;WIDTH:0.529023
G1 X126.753 Y87.3 E.00495
G1 X126.8 Y87.187 E.00495
;WIDTH:0.496461
G1 X130.911 Y80.065 E.31012
;WIDTH:0.529021
G1 X130.986 Y79.968 E.00496
G1 X131.108 Y79.952 E.00497
;WIDTH:0.496458
G1 X139.331 Y79.952 E.3101
;WIDTH:0.52902
G1 X139.452 Y79.968 E.00493
G1 X139.527 Y80.065 E.00496
;WIDTH:0.496459
G1 X143.639 Y87.187 E.31014
;WIDTH:0.529022
G1 X143.685 Y87.3 E.00493
G1 X143.639 Y87.413 E.00493
;WIDTH:0.496461
G1 X139.527 Y94.535 E.31014
;WIDTH:0.529023
G1 X139.452 Y94.632 E.00496
G1 X139.331 Y94.648 E.00493
;WIDTH:0.49646
G1 X131.168 Y94.648 E.30784
M204 S1000
;WIPE_START
G1 F8640
G1 X130.986 Y94.632 E-.04219
G1 X130.911 Y94.535 E-.02831
G1 X129.332 Y91.799 E-.7295
;WIPE_END
G1 Z.6 F720
G1 X120.413 Y108.666 F10800
G1 Z.2 F720
G1 E.8 F2100
M204 S800
;WIDTH:0.419999
G1 F1200
G1 X120.282 Y108.757 E.005
G1 X120.249 Y108.76 E.00104
G1 X109.313 Y108.76 E.34289
G1 X109.168 Y108.693 E.00501
G1 X109.149 Y108.666 E.00104
G1 X103.681 Y99.194 E.34292
G1 X103.667 Y99.035 E.005
G1 X109.149 Y89.534 E.34393
G1 X109.28 Y89.443 E.005
G1 X120.249 Y89.44 E.34392
G1 X120.344 Y89.465 E.00308
G1 X120.413 Y89.534 E.00306
G1 X125.881 Y99.006 E.34292
G1 X125.895 Y99.165 E.005
G1 X120.443 Y108.614 E.34205
M204 S1000
G1 X120.45 Y108.821 F10800
;WIPE_START
G1 F8640
G1 X120.282 Y108.757 E-.04972
G1 X120.249 Y108.76 E-.00765
G1 X117.033 Y108.76 E-.74263
;WIPE_END
G1 Z.6 F720
G1 X120.924 Y109.74 F10800
G1 Z.2 F720
G1 E.8 F2100
M204 S800
G1 F1200
G1 X108.638 Y109.74 E.38522
G1 X102.495 Y99.1 E.38522
G1 X108.638 Y88.46 E.38522
G1 X120.924 Y88.46 E.38522
G1 X127.067 Y99.1 E.38522
G1 X120.954 Y109.688 E.38334
M204 S1000
G1 X120.577 Y109.54 F10800
G1 X120.788 Y108.974
M204 S800
;TYPE:Perimeter
;WIDTH:0.694562
G1 F1200
G1 X120.725 Y109.056 E.0056
;WIDTH:0.74328
G1 X120.613 Y109.201 E.01067
G1 X120.431 Y109.226 E.0107
;WIDTH:0.694565
G1 X120.249 Y109.25 E.00995
;WIDTH:0.64585
G1 X109.313 Y109.25 E.54826
;WIDTH:0.694566
G1 X109.131 Y109.226 E.00995
;WIDTH:0.743282
G1 X108.949 Y109.201 E.0107
G1 X108.837 Y109.056 E.01067
;WIDTH:0.694563
G1 X108.725 Y108.911 E.00993
;WIDTH:0.645844
G1 X103.257 Y99.439 E.54831
;WIDTH:0.694559
G1 X103.187 Y99.27 E.00991
;WIDTH:0.743276
G1 X103.117 Y99.1 E.01071
G1 X103.187 Y98.93 E.01071
;WIDTH:0.694559
G1 X103.257 Y98.761 E.00991
;WIDTH:0.645842
G1 X108.725 Y89.289 E.54831
;WIDTH:0.694557
G1 X108.837 Y89.144 E.00993
;WIDTH:0.743274
G1 X108.949 Y88.999 E.01067
G1 X109.131 Y88.974 E.0107
;WIDTH:0.694558
G1 X109.313 Y88.95 E.00995
;WIDTH:0.645842
G1 X120.249 Y88.95 E.54826
;WIDTH:0.694558
G1 X120.431 Y88.974 E.00995
;WIDTH:0.743274
G1 X120.613 Y88.999 E.0107
G1 X120.725 Y89.144 E.01067
;WIDTH:0.694557
G1 X120.837 Y89.289 E.00993
;WIDTH:0.645846
G1 X126.305 Y98.761 E.54831
;WIDTH:0.694563
G1 X126.375 Y98.93 E.00991
;WIDTH:0.74328
G1 X126.445 Y99.1 E.01071
G1 X126.375 Y99.27 E.01071
;WIDTH:0.694563
G1 X126.305 Y99.439 E.00991
;WIDTH:0.645846
G1 X120.837 Y108.911 E.54831
;WIDTH:0.694562
G1 X120.825 Y108.926 E.00104
M204 S1000
;WIPE_START
G1 F8640
G1 X120.725 Y109.056 E-.03787
G1 X120.613 Y109.201 E-.04231
G1 X120.431 Y109.226 E-.04242
M73 P1 R52
G1 X120.249 Y109.25 E-.04239
G1 X117.499 Y109.25 E-.63501
;WIPE_END
G1 Z.6 F720
G1 X110.286 Y91.315 F10800
G1 Z.2 F720
G1 E.8 F2100
M204 S800
;TYPE:External perimeter
;WIDTH:0.529022
G1 F1200
G1 X110.669 Y91.298 E.0155
;WIDTH:0.49646
G1 X118.892 Y91.298 E.31011
;WIDTH:0.529023
G1 X119.276 Y91.315 E.01554
M73 P2 R52
G1 X119.482 Y91.638 E.01548
;WIDTH:0.496461
G1 X123.593 Y98.76 E.31012
;WIDTH:0.529021
G1 X123.771 Y99.1 E.01551
G1 X123.593 Y99.44 E.01551
;WIDTH:0.496459
G1 X119.482 Y106.562 E.31012
;WIDTH:0.529021
G1 X119.276 Y106.885 E.01548
G1 X118.892 Y106.902 E.01554
;WIDTH:0.496458
G1 X110.669 Y106.902 E.3101
;WIDTH:0.529021
G1 X110.286 Y106.885 E.0155
G1 X110.08 Y106.562 E.01548
;WIDTH:0.49646
G1 X105.969 Y99.44 E.31012
;WIDTH:0.529022
G1 X105.791 Y99.1 E.01551
G1 X105.969 Y98.76 E.01551
;WIDTH:0.49646
G1 X110.08 Y91.638 E.31012
;WIDTH:0.529022
G1 X110.254 Y91.365 E.01309
M204 S1000
;WIPE_START
G1 F8640
G1 X110.669 Y91.298 E-.09707
G1 X113.713 Y91.298 E-.70293
;WIPE_END
G1 Z.6 F720
G1 X123.2 Y99.213 F10800
G1 Z.2 F720
G1 E.8 F2100
M204 S800
;WIDTH:0.496459
G1 F1200
G1 X119.089 Y106.335 E.31012
;WIDTH:0.529021
G1 X119.014 Y106.432 E.00496
G1 X118.892 Y106.448 E.00497
;WIDTH:0.496458
G1 X110.669 Y106.448 E.3101
;WIDTH:0.529021
G1 X110.548 Y106.432 E.00493
G1 X110.473 Y106.335 E.00496
;WIDTH:0.49646
G1 X106.361 Y99.213 E.31014
;WIDTH:0.529022
G1 X106.315 Y99.1 E.00493
G1 X106.361 Y98.987 E.00493
;WIDTH:0.49646
G1 X110.473 Y91.865 E.31014
;WIDTH:0.529022
G1 X110.548 Y91.768 E.00496
G1 X110.669 Y91.752 E.00493
;WIDTH:0.49646
G1 X118.892 Y91.752 E.31011
;WIDTH:0.529023
G1 X119.014 Y91.768 E.00497
G1 X119.089 Y91.865 E.00496
;WIDTH:0.496461
G1 X123.2 Y98.987 E.31012
;WIDTH:0.529021
G1 X123.247 Y99.1 E.00495
G1 X123.223 Y99.158 E.00254
M204 S1000
G1 X123.458 Y99.52 F10800
;WIPE_START
G1 F8640
G1 X121.494 Y102.16 E-.8
;WIPE_END
G1 Z.6 F720
G1 X120.413 Y132.266 F10800
G1 Z.2 F720
G1 E.8 F2100
M204 S800
;WIDTH:0.419999
G1 F1200
G1 X120.282 Y132.357 E.005
G1 X120.249 Y132.36 E.00104
G1 X109.313 Y132.36 E.34289
G1 X109.168 Y132.293 E.00501
G1 X109.149 Y132.266 E.00104
G1 X103.681 Y122.794 E.34292
G1 X103.667 Y122.635 E.005
G1 X109.149 Y113.134 E.34393
G1 X109.28 Y113.043 E.005
G1 X120.249 Y113.04 E.34392
G1 X120.344 Y113.065 E.00308
G1 X120.413 Y113.134 E.00306
G1 X125.881 Y122.606 E.34292
G1 X125.895 Y122.765 E.005
G1 X120.443 Y132.214 E.34205
M204 S1000
G1 X120.45 Y132.421 F10800
;WIPE_START
G1 F8640
G1 X120.282 Y132.357 E-.04972
G1 X120.249 Y132.36 E-.00765
G1 X117.033 Y132.36 E-.74263
;WIPE_END
G1 Z.6 F720
G1 X108.638 Y112.06 F10800
