; generated by PrusaSlicer 2.6.0-alpha6+linux-x64-GTK3 on 2023-05-23 at 13:11:17 UTC


;
;
; 

; external perimeters extrusion width = 0.45mm
; perimeters extrusion width = 0.45mm
; infill extrusion width = 0.45mm
; solid infill extrusion width = 0.45mm
; top infill extrusion width = 0.40mm
; first layer extrusion width = 0.42mm

M73 P0 R16
M201 X9000 Y9000 Z500 E10000 ; sets maximum accelerations, mm/sec^2
M203 X500 Y500 Z12 E120 ; sets maximum feedrates, mm / sec
M204 S2000 T1500 ; sets acceleration (S) and retract acceleration (R), mm/sec^2
M205 X10.00 Y10.00 Z0.20 E4.50 ; sets the jerk limits, mm/sec
M205 S0 T0 ; sets the minimum extruding and travel feed rate, mm/sec
;TYPE:Custom
M862.3 P "MK2.5" ; printer model check
M862.1 P0.4 ; nozzle diameter check
M115 U3.12.2 ; tell printer latest fw version
G90 ; use absolute coordinates
M83 ; extruder relative mode
M104 S215 ; set extruder temp
M140 S60 ; set bed temp
M190 S60 ; wait for bed temp
M109 S215 ; wait for extruder temp
G28 W ; home all without mesh bed level
G80 ; mesh bed leveling

G1 Z0.2 F720
G1 Y-3 F1000 ; go outside print area
G92 E0
G1 X60 E9 F1000 ; intro line
G1 X100 E12.5 F1000 ; intro line

G92 E0
G21 ; set units to millimeters
G90 ; use absolute coordinates
M83 ; use relative distances for extrusion
M900 K0.05 ; Filament gcode LA 1.5
M900 K30 ; Filament gcode LA 1.0
M107
;LAYER_CHANGE
;Z:0.2
;HEIGHT:0.2
;BEFORE_LAYER_CHANGE
G92 E0.0
;0.2


G1 E-.8 F2100
G1 Z.4 F720
;AFTER_LAYER_CHANGE
;0.2
G1 X116.12 Y92.373 F10800
G1 Z.2 F720
G1 E.8 F2100
M204 S800
;TYPE:Skirt/Brim
;WIDTH:0.42
G1 F1200
G1 X117.168 Y91.342 E.04609
G1 X118.505 Y90.996 E.0433
G1 X131.495 Y90.996 E.40729
G1 X132.913 Y91.389 E.04614
G1 X133.88 Y92.373 E.04326
G1 X140.376 Y103.623 E.40732
G1 X140.744 Y105.047 E.04612
G1 X140.376 Y106.377 E.04327
G1 X133.88 Y117.627 E.40732
G1 X132.832 Y118.658 E.04609
G1 X131.495 Y119.004 E.0433
G1 X118.505 Y119.004 E.40729
G1 X117.087 Y118.611 E.04614
M73 P1 R16
G1 X116.12 Y117.627 E.04326
G1 X109.624 Y106.377 E.40732
G1 X109.256 Y104.953 E.04612
G1 X109.624 Y103.623 E.04327
G1 X116.09 Y92.425 E.40543
M204 S1000
G1 X116.416 Y92.613 F10800
M204 S800
G1 F1200
G1 X116.446 Y92.561 E.00188
G1 X117.439 Y91.625 E.04279
G1 X118.505 Y91.373 E.03434
G1 X131.495 Y91.373 E.40729
G1 X132.802 Y91.765 E.04278
G1 X133.554 Y92.561 E.03433
G1 X140.049 Y103.811 E.4073
G1 X140.363 Y105.139 E.04279
G1 X140.049 Y106.189 E.03436
G1 X133.554 Y117.439 E.4073
G1 X132.561 Y118.375 E.04279
G1 X131.495 Y118.627 E.03434
G1 X118.505 Y118.627 E.40729
G1 X117.198 Y118.235 E.04278
G1 X116.446 Y117.439 E.03433
G1 X109.951 Y106.189 E.4073
G1 X109.637 Y104.861 E.04279
G1 X109.951 Y103.811 E.03436
G1 X116.386 Y92.665 E.40354
M204 S1000
; printing object Insert-countersunk.stl id:0 copy 0
;WIPE_START
G1 F8640
G1 X116.446 Y92.561 E-.02772
G1 X117.439 Y91.625 E-.31509
G1 X118.505 Y91.373 E-.25293
G1 X119.39 Y91.373 E-.20426
;WIPE_END
G1 Z.6 F720
G1 X130.632 Y114.566 F10800
G1 Z.2 F720
G1 E.8 F2100
M204 S800
;TYPE:External perimeter
;WIDTH:0.419999
G1 F1200
G1 X130.501 Y114.657 E.005
G1 X130.468 Y114.66 E.00104
G1 X119.532 Y114.66 E.34289
G1 X119.387 Y114.593 E.00501
G1 X119.368 Y114.566 E.00104
G1 X113.9 Y105.094 E.34292
G1 X113.886 Y104.935 E.005
G1 X119.368 Y95.434 E.34393
G1 X119.499 Y95.343 E.005
G1 X130.468 Y95.34 E.34392
G1 X130.563 Y95.365 E.00308
G1 X130.632 Y95.434 E.00306
G1 X136.1 Y104.906 E.34292
G1 X136.114 Y105.065 E.005
G1 X130.662 Y114.514 E.34205
M204 S1000
G1 X130.669 Y114.721 F10800
;WIPE_START
M73 P2 R16
G1 F8640
G1 X130.501 Y114.657 E-.04972
G1 X130.468 Y114.66 E-.00765
G1 X127.252 Y114.66 E-.74263
;WIPE_END
G1 Z.6 F720
G1 X118.857 Y115.64 F10800
G1 Z.2 F720
G1 E.8 F2100
M204 S800
G1 F1200
G1 X112.714 Y105 E.38522
G1 X118.857 Y94.36 E.38522
G1 X131.143 Y94.36 E.38522
G1 X137.286 Y105 E.38522
G1 X131.143 Y115.64 E.38522
G1 X118.917 Y115.64 E.38334
M204 S1000
G1 X118.857 Y115.24 F10800
;WIPE_START
G1 F8640
G1 X117.172 Y112.647 E-.8
;WIPE_END
G1 Z.6 F720
G1 X131.007 Y114.874 F10800
G1 Z.2 F720
G1 E.8 F2100
M204 S800
;TYPE:Perimeter
;WIDTH:0.694552
G1 F1200
G1 X130.944 Y114.956 E.0056
;WIDTH:0.74327
G1 X130.832 Y115.101 E.01067
G1 X130.65 Y115.126 E.0107
;WIDTH:0.694555
G1 X130.468 Y115.15 E.00995
;WIDTH:0.64584
G1 X119.532 Y115.15 E.54825
;WIDTH:0.694556
G1 X119.35 Y115.126 E.00995
;WIDTH:0.743272
G1 X119.168 Y115.101 E.0107
G1 X119.056 Y114.956 E.01067
;WIDTH:0.694556
G1 X118.944 Y114.811 E.00993
;WIDTH:0.645842
G1 X113.476 Y105.339 E.54831
;WIDTH:0.694559
G1 X113.406 Y105.17 E.00991
;WIDTH:0.743276
G1 X113.336 Y105 E.01071
G1 X113.406 Y104.83 E.01071
;WIDTH:0.694559
G1 X113.476 Y104.661 E.00991
;WIDTH:0.645842
G1 X118.944 Y95.189 E.54831
;WIDTH:0.694558
G1 X119.056 Y95.044 E.00993
;WIDTH:0.743274
G1 X119.168 Y94.899 E.01067
G1 X119.35 Y94.874 E.0107
;WIDTH:0.694557
G1 X119.532 Y94.85 E.00995
;WIDTH:0.64584
G1 X130.468 Y94.85 E.54825
;WIDTH:0.694555
G1 X130.65 Y94.874 E.00995
;WIDTH:0.74327
G1 X130.832 Y94.899 E.0107
G1 X130.944 Y95.044 E.01067
;WIDTH:0.694553
G1 X131.056 Y95.189 E.00993
;WIDTH:0.645842
G1 X136.524 Y104.661 E.54831
;WIDTH:0.694558
G1 X136.594 Y104.83 E.00991
;WIDTH:0.743274
G1 X136.664 Y105 E.01071
G1 X136.594 Y105.17 E.01071
;WIDTH:0.694558
G1 X136.524 Y105.339 E.00991
;WIDTH:0.645842
G1 X131.056 Y114.811 E.54831
;WIDTH:0.694552
G1 X131.044 Y114.826 E.00104
M204 S1000
;WIPE_START
G1 F8640
G1 X130.944 Y114.956 E-.03787
G1 X130.832 Y115.101 E-.04231
G1 X130.65 Y115.126 E-.04242
G1 X130.468 Y115.15 E-.04239
G1 X127.718 Y115.15 E-.63501
;WIPE_END
G1 Z.6 F720
G1 X120.691 Y97.537 F10800
G1 Z.2 F720
G1 E.8 F2100
M204 S800
;WIDTH:0.419999
G1 F1200
G1 X129.309 Y97.537 E.27021
G1 X133.617 Y105 E.27018
G1 X129.309 Y112.463 E.27018
G1 X120.691 Y112.463 E.27021
M73 P3 R16
G1 X116.383 Y105 E.27018
G1 X120.661 Y97.589 E.2683
M204 S1000
G1 X120.474 Y97.16 F10800
M204 S800
;TYPE:External perimeter
G1 F1200
G1 X129.526 Y97.16 E.28382
G1 X134.053 Y105 E.28385
G1 X129.526 Y112.84 E.28385
G1 X120.474 Y112.84 E.28382
G1 X115.947 Y105 E.28385
G1 X120.444 Y97.212 E.28197
M204 S1000
G1 X120.82 Y97.36 F10800
;WIPE_START
G1 F8640
G1 X123.909 Y97.192 E-.8
;WIPE_END
G1 Z.6 F720
G1 X122.118 Y110.011 F10800
G1 Z.2 F720
G1 E.8 F2100
M204 S800
;TYPE:Perimeter
G1 F1200
G1 X121.252 Y109.407 E.0331
G1 X120.486 Y108.618 E.03448
G1 X119.883 Y107.699 E.03446
G1 X119.465 Y106.681 E.0345
G1 X119.247 Y105.603 E.03448
G1 X119.247 Y104.397 E.03781
G1 X119.434 Y103.422 E.03113
G1 X119.834 Y102.397 E.0345
G1 X120.42 Y101.466 E.03449
G1 X121.171 Y100.663 E.03447
G1 X122.061 Y100.017 E.03448
G1 X123.057 Y99.551 E.03448
G1 X124.124 Y99.282 E.0345
G1 X125.222 Y99.219 E.03448
G1 X126.312 Y99.366 E.03449
G1 X127.354 Y99.716 E.03446
G1 X128.399 Y100.319 E.03783
G1 X129.137 Y100.957 E.03059
G1 X129.837 Y101.826 E.03499
G1 X130.35 Y102.8 E.03452
G1 X130.67 Y103.852 E.03448
G1 X130.785 Y104.946 E.03449
G1 X130.69 Y106.042 E.03449
M73 P3 R15
G1 X130.39 Y107.1 E.03448
G1 X129.896 Y108.082 E.03447
G1 X129.224 Y108.953 E.03449
G1 X128.399 Y109.681 E.0345
G1 X127.354 Y110.284 E.03783
G1 X126.416 Y110.609 E.03113
G1 X125.329 Y110.776 E.03448
G1 X124.23 Y110.734 E.03448
G1 X123.159 Y110.484 E.03448
G1 X122.168 Y110.043 E.03401
M204 S1000
G1 X122.311 Y109.694 F10800
M204 S800
;TYPE:External perimeter
G1 F1200
G1 X121.471 Y109.1 E.03226
G1 X120.759 Y108.358 E.03224
G1 X120.2 Y107.495 E.03224
G1 X119.815 Y106.541 E.03226
G1 X119.617 Y105.532 E.03224
G1 X119.617 Y104.468 E.03336
G1 X119.805 Y103.493 E.03113
G1 X120.184 Y102.537 E.03224
G1 X120.737 Y101.67 E.03224
G1 X121.444 Y100.924 E.03223
G1 X122.28 Y100.324 E.03226
G1 X123.214 Y99.894 E.03224
G1 X124.212 Y99.648 E.03223
G1 X125.239 Y99.596 E.03224
G1 X126.258 Y99.739 E.03226
G1 X127.231 Y100.072 E.03224
G1 X128.152 Y100.604 E.03335
G1 X128.89 Y101.242 E.03059
G1 X129.541 Y102.06 E.03278
G1 X130.015 Y102.973 E.03225
G1 X130.308 Y103.959 E.03225
G1 X130.409 Y104.982 E.03223
G1 X130.315 Y106.006 E.03224
G1 X130.029 Y106.994 E.03225
G1 X129.56 Y107.909 E.03224
G1 X128.927 Y108.72 E.03226
G1 X128.152 Y109.396 E.03224
G1 X127.231 Y109.928 E.03335
G1 X126.293 Y110.253 E.03113
G1 X125.275 Y110.402 E.03226
G1 X124.248 Y110.357 E.03223
G1 X123.248 Y110.118 E.03224
G1 X122.365 Y109.718 E.03039
M204 S1000
G1 X121.965 Y109.895 F10800
;WIPE_START
G1 F8640
G1 X121.471 Y109.1 E-.25095
G1 X120.759 Y108.358 E-.23745
G1 X120.2 Y107.495 E-.23742
G1 X120.08 Y107.197 E-.07418
;WIPE_END
G1 Z.6 F720
G1 X130.269 Y99.54 F10800
G1 Z.2 F720
G1 E.8 F2100
M204 S800
;TYPE:Solid infill
;WIDTH:0.422249
G1 F1200
G1 X128.605 Y97.876 E.07422
G1 X128.069 Y97.876 E.01691
G1 X130.539 Y100.346 E.11018
G1 X131.271 Y101.615 E.04621
G1 X127.533 Y97.876 E.16676
G1 X126.996 Y97.876 E.01694
G1 X132.004 Y102.885 E.22341
G1 X132.737 Y104.154 E.04622
M73 P4 R15
G1 X126.46 Y97.876 E.28002
G1 X125.923 Y97.876 E.01694
G1 X127.43 Y99.383 E.06722
G1 X126.626 Y99.116 E.02672
G1 X125.387 Y97.876 E.05529
G1 X124.85 Y97.876 E.01694
G1 X125.95 Y98.976 E.04907
G1 X125.332 Y98.894 E.01966
G1 X124.314 Y97.876 E.04541
G1 X123.777 Y97.876 E.01694
G1 X124.803 Y98.902 E.04577
G1 X124.293 Y98.929 E.01611
G1 X123.241 Y97.876 E.04695
G1 X122.704 Y97.876 E.01694
G1 X123.835 Y99.007 E.05045
G1 X123.407 Y99.115 E.01392
G1 X122.168 Y97.876 E.05527
G1 X121.632 Y97.876 E.01691
G1 X122.979 Y99.224 E.06011
G1 X122.607 Y99.388 E.01282
G1 X121.095 Y97.876 E.06744
G1 X120.887 Y97.876 E.00656
G1 X120.767 Y98.085 E.0076
G1 X122.242 Y99.56 E.06579
G1 X121.878 Y99.732 E.0127
G1 X120.571 Y98.425 E.0583
G1 X120.374 Y98.765 E.01239
G1 X121.567 Y99.958 E.05322
G1 X121.257 Y100.184 E.0121
G1 X120.178 Y99.105 E.04813
G1 X119.982 Y99.445 E.01238
G1 X120.947 Y100.411 E.04307
G1 X120.683 Y100.683 E.01196
G1 X119.785 Y99.785 E.04006
G1 X119.589 Y100.125 E.01238
G1 X120.421 Y100.958 E.03713
G1 X120.231 Y101.157 E.00868
G1 X120.173 Y101.246 E.00335
G1 X119.392 Y100.465 E.03484
G1 X119.196 Y100.806 E.01241
G1 X119.96 Y101.569 E.03406
G1 X119.747 Y101.893 E.01223
G1 X119 Y101.146 E.03332
G1 X118.803 Y101.486 E.01239
G1 X119.544 Y102.227 E.03305
G1 X119.389 Y102.608 E.01297
G1 X118.607 Y101.826 E.03488
G1 X118.411 Y102.166 E.01238
G1 X119.233 Y102.989 E.03669
G1 X119.136 Y103.227 E.00811
G1 X119.103 Y103.394 E.00537
G1 X118.214 Y102.506 E.03963
G1 X118.018 Y102.846 E.01238
G1 X119.012 Y103.841 E.04436
G1 X118.922 Y104.287 E.01435
G1 X117.822 Y103.186 E.04909
G1 X117.625 Y103.526 E.01239
G1 X118.905 Y104.806 E.0571
G1 X118.899 Y105.336 E.01672
G1 X117.429 Y103.866 E.06557
G1 X117.233 Y104.207 E.01241
G1 X118.976 Y105.95 E.07775
G1 X119.094 Y106.605 E.02099
G1 X117.036 Y104.547 E.0918
G1 X116.84 Y104.887 E.01238
G1 X119.738 Y107.785 E.12927
M204 S1000
;WIPE_START
G1 F8640
G1 X117.288 Y105.335 E-.8
;WIPE_END
G1 Z.6 F720
G1 X130.215 Y102.168 F10800
G1 Z.2 F720
G1 E.8 F2100
M204 S800
G1 F1200
G1 X133.16 Y105.113 E.13137
G1 X132.964 Y105.453 E.01238
G1 X130.876 Y103.365 E.09314
G1 X130.999 Y103.769 E.01332
G1 X131.029 Y104.055 E.00907
G1 X132.767 Y105.794 E.07755
G1 X132.571 Y106.134 E.01238
G1 X131.092 Y104.654 E.06599
G1 X131.127 Y104.999 E.01094
G1 X131.108 Y105.207 E.00659
G1 X132.375 Y106.474 E.05652
G1 X132.178 Y106.814 E.01239
G1 X131.063 Y105.698 E.04976
G1 X131.027 Y106.088 E.01235
G1 X131.002 Y106.174 E.00282
G1 X131.982 Y107.154 E.04371
G1 X131.786 Y107.494 E.01238
G1 X130.884 Y106.593 E.04021
G1 X130.766 Y107.011 E.0137
G1 X131.589 Y107.834 E.03671
G1 X131.393 Y108.174 E.01238
G1 X130.622 Y107.403 E.03439
G1 X130.44 Y107.758 E.01258
G1 X131.197 Y108.514 E.03374
G1 X131 Y108.854 E.01239
G1 X130.259 Y108.114 E.03303
G1 X130.174 Y108.281 E.00591
G1 X130.05 Y108.441 E.00638
G1 X130.804 Y109.195 E.03363
G1 X130.607 Y109.535 E.01239
G1 X129.816 Y108.743 E.03531
G1 X129.581 Y109.045 E.01207
G1 X130.411 Y109.875 E.03702
G1 X130.215 Y110.215 E.01238
G1 X129.321 Y109.321 E.03988
G1 X129.036 Y109.572 E.01198
G1 X130.018 Y110.555 E.04383
G1 X129.822 Y110.895 E.01238
G1 X128.751 Y109.824 E.04777
G1 X128.612 Y109.946 E.00583
G1 X128.439 Y110.048 E.00633
G1 X129.626 Y111.235 E.05295
G1 X129.429 Y111.575 E.01239
G1 X128.102 Y110.248 E.05919
G1 X127.766 Y110.448 E.01233
G1 X129.233 Y111.915 E.06544
G1 X129.113 Y112.124 E.0076
G1 X128.905 Y112.124 E.00656
G1 X127.406 Y110.625 E.06686
G1 X127.005 Y110.76 E.01335
G1 X128.368 Y112.124 E.06082
G1 X127.832 Y112.124 E.01691
G1 X126.603 Y110.895 E.05482
G1 X126.396 Y110.965 E.00689
G1 X126.168 Y110.996 E.00726
G1 X127.295 Y112.124 E.05029
G1 X126.759 Y112.124 E.01691
G1 X125.696 Y111.061 E.04742
G1 X125.218 Y111.119 E.01519
G1 X126.223 Y112.124 E.04483
G1 X125.686 Y112.124 E.01694
G1 X124.648 Y111.086 E.0463
G1 X124.079 Y111.053 E.01798
G1 X125.15 Y112.124 E.04777
G1 X124.613 Y112.124 E.01694
G1 X123.364 Y110.875 E.05571
G1 X122.928 Y110.763 E.0142
G1 X122.536 Y110.582 E.01362
G1 X124.077 Y112.124 E.06876
G1 X123.54 Y112.124 E.01694
G1 X117.263 Y105.846 E.28002
G1 X117.996 Y107.116 E.04625
G1 X123.004 Y112.124 E.22339
G1 X122.467 Y112.124 E.01694
G1 X118.729 Y108.385 E.16676
G1 X119.462 Y109.654 E.04622
G1 X121.931 Y112.124 E.11015
G1 X121.394 Y112.124 E.01694
G1 X119.731 Y110.46 E.0742
M204 S1000
; stop printing object Insert-countersunk.stl id:0 copy 0
M106 S84.15
;LAYER_CHANGE
;Z:0.4
;HEIGHT:0.2
;BEFORE_LAYER_CHANGE
G92 E0.0
;0.4


;WIPE_START
G1 F8640
G1 X121.394 Y112.124 E-.54321
G1 X121.931 Y112.124 E-.12399
G1 X121.524 Y111.717 E-.1328
;WIPE_END
G1 Z.6 F720
;AFTER_LAYER_CHANGE
;0.4
M104 S210 ; set temperature
G1 X121.524 Y119.004 F10800
M73 P5 R15
G1 Z.4 F720
G1 E.8 F2100
;TYPE:Skirt/Brim
;WIDTH:0.42
G1 F3000
G1 X118.505 Y119.004 E.09466
G1 X117.087 Y118.611 E.04614
G1 X116.12 Y117.627 E.04326
G1 X109.624 Y106.377 E.40732
G1 X109.256 Y104.953 E.04612
G1 X109.624 Y103.623 E.04327
G1 X116.12 Y92.373 E.40732
G1 X117.168 Y91.342 E.04609
G1 X118.505 Y90.996 E.0433
G1 X131.495 Y90.996 E.40729
G1 X132.913 Y91.389 E.04614
G1 X133.88 Y92.373 E.04326
G1 X140.376 Y103.623 E.40732
G1 X140.744 Y105.047 E.04612
G1 X140.376 Y106.377 E.04327
G1 X133.88 Y117.627 E.40732
G1 X132.832 Y118.658 E.04609
G1 X131.495 Y119.004 E.0433
G1 X121.584 Y119.004 E.31075
G1 X121.584 Y118.627 F10800
G1 F3000
G1 X118.505 Y118.627 E.09654
G1 X117.198 Y118.235 E.04278
G1 X116.446 Y117.439 E.03433
G1 X109.951 Y106.189 E.4073
G1 X109.637 Y104.861 E.04279
G1 X109.951 Y103.811 E.03436
G1 X116.446 Y92.561 E.4073
G1 X117.439 Y91.625 E.04279
G1 X118.505 Y91.373 E.03434
G1 X131.495 Y91.373 E.40729
G1 X132.802 Y91.765 E.04278
G1 X133.554 Y92.561 E.03433
G1 X140.049 Y103.811 E.4073
G1 X140.363 Y105.139 E.04279
G1 X140.049 Y106.189 E.03436
G1 X133.554 Y117.439 E.4073
G1 X132.561 Y118.375 E.04279
G1 X131.495 Y118.627 E.03434
G1 X121.644 Y118.627 E.30887
; printing object Insert-countersunk.stl id:0 copy 0
;WIPE_START
G1 F8640
G1 X118.505 Y118.627 E-.7248
G1 X118.193 Y118.533 E-.0752
;WIPE_END
G1 Z.8 F720
G1 X118.937 Y115.501 F10800
G1 Z.4 F720
G1 E.8 F2100
M204 S800
;TYPE:Perimeter
;WIDTH:0.684636
G1 F3000
G1 X118.699 Y115.122 E.02388
;WIDTH:0.649509
G1 X118.552 Y114.904 E.01326
;WIDTH:0.614381
G1 X113.199 Y105.632 E.50873
;WIDTH:0.649509
G1 X113.037 Y105.316 E.01791
;WIDTH:0.684637
G1 X112.875 Y105 E.01895
G1 X113.083 Y104.604 E.02387
;WIDTH:0.649509
G1 X113.199 Y104.368 E.01326
;WIDTH:0.614382
G1 X118.552 Y95.096 E.50873
;WIDTH:0.649509
G1 X118.745 Y94.798 E.01791
;WIDTH:0.684636
G1 X118.937 Y94.499 E.01896
G1 X119.385 Y94.482 E.02392
;WIDTH:0.649507
G1 X119.647 Y94.464 E.01325
;WIDTH:0.614378
G1 X130.353 Y94.464 E.50872
G1 X130.484 Y94.444 E.0063
;WIDTH:0.573284
G1 X130.615 Y94.423 E.00585
;WIDTH:0.532189
G1 X130.746 Y94.403 E.00539
;WIDTH:0.491094
G1 X130.877 Y94.382 E.00494
;WIDTH:0.449999
G1 X131.13 Y94.382 E.00856
G1 X131.257 Y94.601 E.00857
;WIDTH:0.491094
G1 X131.305 Y94.725 E.00496
;WIDTH:0.532188
G1 X131.352 Y94.849 E.00539
;WIDTH:0.573283
G1 X131.4 Y94.973 E.00586
;WIDTH:0.614377
G1 X131.448 Y95.096 E.00627
G1 X136.801 Y104.368 E.50873
;WIDTH:0.649509
G1 X136.963 Y104.684 E.01791
;WIDTH:0.684637
G1 X137.125 Y105 E.01895
G1 X136.917 Y105.396 E.02387
;WIDTH:0.649509
G1 X136.801 Y105.632 E.01326
;WIDTH:0.61438
G1 X131.448 Y114.904 E.50873
