; generated by PrusaSlicer 2.6.0-alpha6+linux-x64-GTK3 on 2023-05-29 at 18:41:20 UTC


;
;
; 

; external perimeters extrusion width = 0.45mm
; perimeters extrusion width = 0.45mm
; infill extrusion width = 0.45mm
; solid infill extrusion width = 0.45mm
; top infill extrusion width = 0.40mm
; first layer extrusion width = 0.42mm

M73 P0 R80
M201 X9000 Y9000 Z500 E10000 ; sets maximum accelerations, mm/sec^2
M203 X500 Y500 Z12 E120 ; sets maximum feedrates, mm / sec
M204 S2000 T1500 ; sets acceleration (S) and retract acceleration (R), mm/sec^2
M205 X10.00 Y10.00 Z0.20 E4.50 ; sets the jerk limits, mm/sec
M205 S0 T0 ; sets the minimum extruding and travel feed rate, mm/sec
;TYPE:Custom
M862.3 P "MK2.5" ; printer model check
M862.1 P0.4 ; nozzle diameter check
M115 U3.12.2 ; tell printer latest fw version
G90 ; use absolute coordinates
M83 ; extruder relative mode
M104 S215 ; set extruder temp
M140 S60 ; set bed temp
M190 S60 ; wait for bed temp
M109 S215 ; wait for extruder temp
G28 W ; home all without mesh bed level
G80 ; mesh bed leveling

G1 Z0.2 F720
G1 Y-3 F1000 ; go outside print area
G92 E0
G1 X60 E9 F1000 ; intro line
G1 X100 E12.5 F1000 ; intro line

G92 E0
G21 ; set units to millimeters
G90 ; use absolute coordinates
M83 ; use relative distances for extrusion
M900 K0.05 ; Filament gcode LA 1.5
M900 K30 ; Filament gcode LA 1.0
M107
;LAYER_CHANGE
;Z:0.2
;HEIGHT:0.2
;BEFORE_LAYER_CHANGE
G92 E0.0
;0.2


G1 E-.8 F2100
G1 Z.4 F720
;AFTER_LAYER_CHANGE
;0.2
G1 X81.641 Y66.342 F10800
G1 Z.2 F720
G1 E.8 F2100
M204 S800
;TYPE:Skirt/Brim
;WIDTH:0.42
G1 F1200
G1 X82.511 Y65.472 E.03858
G1 X94.311 Y58.659 E.42722
G1 X95.5 Y58.34 E.0386
G1 X166.3 Y58.34 E2.21988
G1 X167.489 Y58.659 E.0386
G1 X179.289 Y65.472 E.42722
G1 X180.225 Y66.464 E.04276
G1 X180.477 Y67.53 E.03434
G1 X180.477 Y122.032 E1.70887
G1 X180.159 Y123.22 E.03856
G1 X168.359 Y143.658 E.73996
G1 X167.489 Y144.528 E.03858
G1 X155.689 Y151.341 E.42722
G1 X154.5 Y151.66 E.0386
G1 X83.7 Y151.66 E2.21988
G1 X82.511 Y151.341 E.0386
G1 X70.711 Y144.528 E.42722
G1 X69.775 Y143.536 E.04276
G1 X69.523 Y142.47 E.03434
G1 X69.523 Y87.968 E1.70887
G1 X69.841 Y86.78 E.03856
G1 X81.611 Y66.394 E.73807
M204 S1000
; printing object wall-honeycomb-106x89.stl id:0 copy 0
;WIPE_START
G1 F8640
G1 X82.511 Y65.472 E-.2975
G1 X84.396 Y64.384 E-.5025
;WIPE_END
G1 Z.6 F720
G1 X95.898 Y87.739 F10800
G1 Z.2 F720
G1 E.8 F2100
M204 S800
;TYPE:Perimeter
;WIDTH:0.364919
G1 F1200
G1 X95.639 Y88.049 E.01082
G1 X95.5 Y88.457 E.01154
G1 X95.361 Y88.049 E.01154
G1 X95.102 Y87.739 E.01082
G1 X95.5 Y87.807 E.01081
G1 X95.839 Y87.749 E.00921
M204 S1000
;WIPE_START
G1 F8640
G1 X95.639 Y88.049 E-.08325
G1 X95.5 Y88.457 E-.09953
G1 X95.361 Y88.049 E-.09953
G1 X95.102 Y87.739 E-.09327
G1 X95.5 Y87.807 E-.09323
G1 X95.839 Y87.749 E-.07941
;WIPE_END
G1 E-.25178 F2100
G1 Z.6 F720
G1 X95.922 Y101.837 F10800
G1 Z.2 F720
G1 E.8 F2100
M204 S800
;WIDTH:0.364786
G1 F1200
G1 X95.5 Y101.754 E.01151
G1 X95.078 Y101.837 E.01151
G1 X95.361 Y101.513 E.01151
G1 X95.5 Y101.134 E.0108
G1 X95.639 Y101.513 E.0108
G1 X95.883 Y101.792 E.00992
M204 S1000
;WIPE_START
G1 F8640
G1 X95.5 Y101.754 E-.08887
G1 X95.078 Y101.837 E-.09931
G1 X95.361 Y101.513 E-.09933
G1 X95.5 Y101.134 E-.09321
G1 X95.639 Y101.513 E-.09321
G1 X95.883 Y101.792 E-.08558
;WIPE_END
G1 E-.24049 F2100
G1 Z.6 F720
G1 X107.697 Y108.177 F10800
G1 Z.2 F720
G1 E.8 F2100
M204 S800
;WIDTH:0.364785
G1 F1200
G1 X107.439 Y108.487 E.01079
G1 X107.3 Y108.895 E.01154
G1 X107.161 Y108.487 E.01154
G1 X106.903 Y108.177 E.01079
G1 X107.3 Y108.245 E.01078
G1 X107.638 Y108.187 E.00918
M204 S1000
;WIPE_START
G1 F8640
G1 X107.439 Y108.487 E-.08313
G1 X107.3 Y108.895 E-.09953
G1 X107.161 Y108.487 E-.09953
G1 X106.903 Y108.177 E-.09313
G1 X107.3 Y108.245 E-.093
G1 X107.638 Y108.187 E-.07919
;WIPE_END
G1 E-.25249 F2100
G1 Z.6 F720
G1 X107.723 Y122.276 F10800
G1 Z.2 F720
G1 E.8 F2100
M204 S800
;WIDTH:0.36492
G1 F1200
G1 X107.3 Y122.193 E.01154
G1 X106.877 Y122.276 E.01154
G1 X107.161 Y121.951 E.01156
G1 X107.3 Y121.572 E.01081
G1 X107.439 Y121.951 E.01081
G1 X107.683 Y122.231 E.00994
M204 S1000
;WIPE_START
G1 F8640
G1 X107.3 Y122.193 E-.08887
G1 X106.877 Y122.276 E-.09953
G1 X107.161 Y121.951 E-.09966
G1 X107.3 Y121.572 E-.09321
G1 X107.439 Y121.951 E-.09321
G1 X107.683 Y122.231 E-.08576
;WIPE_END
G1 E-.23976 F2100
G1 Z.6 F720
G1 X119.498 Y128.615 F10800
G1 Z.2 F720
G1 E.8 F2100
M204 S800
G1 F1200
G1 X119.239 Y128.925 E.01082
G1 X119.1 Y129.333 E.01154
G1 X118.961 Y128.925 E.01154
G1 X118.702 Y128.615 E.01082
G1 X119.1 Y128.683 E.01081
G1 X119.439 Y128.625 E.00921
M204 S1000
;WIPE_START
G1 F8640
G1 X119.239 Y128.925 E-.08325
G1 X119.1 Y129.333 E-.09953
G1 X118.961 Y128.925 E-.09953
G1 X118.702 Y128.615 E-.09327
G1 X119.1 Y128.683 E-.09323
G1 X119.439 Y128.625 E-.07941
;WIPE_END
G1 E-.25178 F2100
G1 Z.6 F720
G1 X131.323 Y122.276 F10800
G1 Z.2 F720
G1 E.8 F2100
M204 S800
;WIDTH:0.364919
G1 F1200
G1 X130.9 Y122.193 E.01154
G1 X130.477 Y122.276 E.01154
G1 X130.761 Y121.951 E.01156
G1 X130.9 Y121.572 E.01081
G1 X131.039 Y121.951 E.01081
G1 X131.284 Y122.231 E.00996
M204 S1000
;WIPE_START
G1 F8640
G1 X130.9 Y122.193 E-.0891
G1 X130.477 Y122.276 E-.09953
G1 X130.761 Y121.951 E-.09966
G1 X130.9 Y121.572 E-.09321
G1 X131.039 Y121.951 E-.09321
G1 X131.284 Y122.231 E-.08591
;WIPE_END
G1 E-.23938 F2100
G1 Z.6 F720
G1 X131.297 Y108.177 F10800
G1 Z.2 F720
G1 E.8 F2100
M204 S800
;WIDTH:0.364786
G1 F1200
G1 X131.039 Y108.487 E.01079
G1 X130.9 Y108.895 E.01154
G1 X130.761 Y108.487 E.01154
G1 X130.503 Y108.177 E.01079
G1 X130.9 Y108.245 E.01078
G1 X131.238 Y108.187 E.00918
M204 S1000
;WIPE_START
G1 F8640
G1 X131.039 Y108.487 E-.08313
G1 X130.9 Y108.895 E-.09953
G1 X130.761 Y108.487 E-.09953
G1 X130.503 Y108.177 E-.09313
G1 X130.9 Y108.245 E-.093
G1 X131.238 Y108.187 E-.07919
;WIPE_END
G1 E-.25249 F2100
G1 Z.6 F720
G1 X119.522 Y101.837 F10800
G1 Z.2 F720
G1 E.8 F2100
M204 S800
;WIDTH:0.364787
G1 F1200
G1 X119.1 Y101.754 E.01151
G1 X118.678 Y101.837 E.01151
G1 X118.961 Y101.513 E.01151
G1 X119.1 Y101.134 E.0108
G1 X119.239 Y101.513 E.0108
G1 X119.483 Y101.792 E.00992
M204 S1000
;WIPE_START
G1 F8640
G1 X119.1 Y101.754 E-.08887
G1 X118.678 Y101.837 E-.09931
G1 X118.961 Y101.513 E-.09933
G1 X119.1 Y101.134 E-.09321
G1 X119.239 Y101.513 E-.09321
G1 X119.483 Y101.792 E-.08558
;WIPE_END
G1 E-.24049 F2100
G1 Z.6 F720
G1 X119.498 Y87.739 F10800
G1 Z.2 F720
G1 E.8 F2100
M204 S800
;WIDTH:0.36492
G1 F1200
G1 X119.239 Y88.049 E.01082
G1 X119.1 Y88.457 E.01154
G1 X118.961 Y88.049 E.01154
G1 X118.702 Y87.739 E.01082
G1 X119.1 Y87.807 E.01081
G1 X119.439 Y87.749 E.00921
M204 S1000
;WIPE_START
G1 F8640
G1 X119.239 Y88.049 E-.08325
G1 X119.1 Y88.457 E-.09953
G1 X118.961 Y88.049 E-.09953
G1 X118.702 Y87.739 E-.09327
G1 X119.1 Y87.807 E-.09323
G1 X119.439 Y87.749 E-.07941
;WIPE_END
G1 E-.25178 F2100
G1 Z.6 F720
G1 X107.723 Y81.4 F10800
G1 Z.2 F720
G1 E.8 F2100
M204 S800
;WIDTH:0.364919
G1 F1200
G1 X107.3 Y81.317 E.01154
G1 X106.877 Y81.4 E.01154
G1 X107.161 Y81.075 E.01156
G1 X107.3 Y80.696 E.01081
G1 X107.439 Y81.075 E.01081
G1 X107.683 Y81.355 E.00994
M204 S1000
;WIPE_START
G1 F8640
G1 X107.3 Y81.317 E-.08887
G1 X106.877 Y81.4 E-.09953
G1 X107.161 Y81.075 E-.09966
G1 X107.3 Y80.696 E-.09321
G1 X107.439 Y81.075 E-.09321
G1 X107.683 Y81.355 E-.08576
;WIPE_END
G1 E-.23976 F2100
G1 Z.6 F720
G1 X118.568 Y101.438 F10800
G1 Z.2 F720
G1 E.8 F2100
M204 S800
;WIDTH:0.464036
G1 F1200
G1 X118.521 Y101.521 E.00334
;WIDTH:0.462375
G1 X118.462 Y101.593 E.00325
;WIDTH:0.504751
G1 X118.403 Y101.666 E.0036
;WIDTH:0.547127
G1 X118.345 Y101.739 E.00391
G1 X107.803 Y107.825 E.51034
;WIDTH:0.551933
G1 X107.726 Y107.867 E.00371
G1 X107.509 Y107.868 E.00918
;WIDTH:0.507955
G1 X107.291 Y107.868 E.00843
;WIDTH:0.463977
G1 X107.007 Y107.868 E.00994
;WIDTH:0.507957
G1 X106.94 Y107.868 E.00259
;WIDTH:0.551935
G1 X106.874 Y107.867 E.00279
G1 X106.797 Y107.825 E.00371
;WIDTH:0.547129
G1 X96.255 Y101.739 E.51034
G1 X96.151 Y101.605 E.00711
;WIDTH:0.504753
G1 X96.046 Y101.472 E.00651
;WIDTH:0.462376
G1 X95.942 Y101.338 E.00592
G1 X95.879 Y101.181 E.0059
;WIDTH:0.504867
G1 X95.815 Y101.024 E.00651
;WIDTH:0.547301
G1 X95.752 Y100.867 E.00709
G1 X95.752 Y88.695 E.51049
G1 X95.816 Y88.538 E.00711
;WIDTH:0.504867
G1 X95.879 Y88.381 E.0065
;WIDTH:0.462433
G1 X95.942 Y88.224 E.0059
G1 X96.047 Y88.09 E.00594
;WIDTH:0.504869
G1 X96.151 Y87.957 E.00649
;WIDTH:0.547303
G1 X96.255 Y87.823 E.00711
G1 X106.797 Y81.737 E.51052
G1 X106.965 Y81.714 E.00711
;WIDTH:0.504867
G1 X107.132 Y81.69 E.00648
;WIDTH:0.462433
G1 X107.3 Y81.666 E.00592
G1 X107.468 Y81.69 E.00592
;WIDTH:0.504867
G1 X107.635 Y81.714 E.00648
;WIDTH:0.5473
G1 X107.803 Y81.737 E.00711
G1 X118.345 Y87.823 E.51051
;WIDTH:0.552109
G1 X118.42 Y87.869 E.00373
G1 X118.529 Y88.057 E.0092
;WIDTH:0.508073
G1 X118.638 Y88.245 E.00841
;WIDTH:0.464036
G1 X118.747 Y88.434 E.00764
;WIDTH:0.462434
G1 X118.781 Y88.521 E.00326
;WIDTH:0.504869
G1 X118.814 Y88.608 E.00357
;WIDTH:0.547303
G1 X118.848 Y88.695 E.00392
G1 X118.848 Y100.867 E.51049
;WIDTH:0.552109
G1 X118.846 Y100.955 E.00373
G1 X118.738 Y101.144 E.00922
;WIDTH:0.508073
G1 X118.629 Y101.332 E.00841
;WIDTH:0.464036
G1 X118.598 Y101.386 E.00218
M204 S1000
G1 X118.188 Y101.294 F10800
M204 S800
;WIDTH:0.419999
G1 F1200
G1 X118.124 Y101.357 E.00282
G1 X107.583 Y107.443 E.38164
G1 X107.3 Y107.519 E.00919
G1 X107.017 Y107.443 E.00919
G1 X96.476 Y101.357 E.38164
G1 X96.269 Y101.15 E.00918
G1 X96.193 Y100.867 E.00919
G1 X96.193 Y88.695 E.38164
G1 X96.269 Y88.412 E.00919
G1 X96.476 Y88.205 E.00918
G1 X107.017 Y82.119 E.38164
G1 X107.3 Y82.043 E.00919
G1 X107.583 Y82.119 E.00919
G1 X118.124 Y88.205 E.38164
G1 X118.331 Y88.412 E.00918
G1 X118.407 Y88.695 E.00919
G1 X118.407 Y100.867 E.38164
G1 X118.331 Y101.15 E.00919
G1 X118.23 Y101.251 E.00448
M204 S1000
G1 X117.936 Y101.03 F10800
M204 S800
;TYPE:External perimeter
G1 F1200
G1 X107.394 Y107.117 E.38168
G1 X107.255 Y107.136 E.0044
G1 X96.664 Y101.03 E.38331
G1 X96.577 Y100.919 E.00442
G1 X96.57 Y100.867 E.00165
G1 X96.57 Y88.695 E.38164
G1 X96.623 Y88.564 E.00443
G1 X107.206 Y82.446 E.38328
G1 X107.345 Y82.426 E.0044
G1 X117.936 Y88.532 E.38331
G1 X118.023 Y88.643 E.00442
G1 X118.03 Y88.695 E.00165
G1 X118.03 Y100.867 E.38164
G1 X117.98 Y100.991 E.00419
M204 S1000
G1 X118.072 Y101.407 F10800
;WIPE_START
G1 F8640
G1 X114.981 Y102.726 E-.8
;WIPE_END
G1 Z.6 F720
G1 X130.519 Y121.614 F10800
G1 Z.2 F720
G1 E.8 F2100
M204 S800
;TYPE:Perimeter
;WIDTH:0.508074
G1 F1200
G1 X130.429 Y121.77 E.00697
;WIDTH:0.464037
G1 X130.321 Y121.959 E.00762
;WIDTH:0.462432
G1 X130.262 Y122.031 E.00325
;WIDTH:0.504865
G1 X130.203 Y122.104 E.00361
;WIDTH:0.547298
G1 X130.145 Y122.177 E.00391
G1 X119.603 Y128.263 E.51051
;WIDTH:0.55211
G1 X119.526 Y128.305 E.00371
G1 X119.309 Y128.306 E.00919
;WIDTH:0.508073
G1 X119.091 Y128.306 E.00843
;WIDTH:0.464036
G1 X118.807 Y128.306 E.00994
;WIDTH:0.508072
G1 X118.74 Y128.306 E.00259
;WIDTH:0.552108
G1 X118.674 Y128.305 E.00279
G1 X118.597 Y128.263 E.00371
;WIDTH:0.547302
G1 X108.055 Y122.177 E.51051
G1 X107.951 Y122.043 E.00711
;WIDTH:0.504867
G1 X107.847 Y121.91 E.00649
;WIDTH:0.462433
G1 X107.742 Y121.776 E.00594
G1 X107.679 Y121.619 E.0059
;WIDTH:0.504868
G1 X107.616 Y121.462 E.0065
;WIDTH:0.547302
G1 X107.552 Y121.305 E.00711
G1 X107.552 Y109.133 E.51049
G1 X107.615 Y108.976 E.00709
;WIDTH:0.504868
G1 X107.679 Y108.819 E.00651
;WIDTH:0.462434
G1 X107.742 Y108.662 E.0059
G1 X107.846 Y108.528 E.00592
;WIDTH:0.50475
G1 X107.951 Y108.395 E.00651
;WIDTH:0.547125
G1 X108.055 Y108.261 E.00711
G1 X118.597 Y102.175 E.51034
G1 X118.765 Y102.151 E.00711
;WIDTH:0.504752
G1 X118.932 Y102.128 E.00647
;WIDTH:0.462376
G1 X119.1 Y102.104 E.00592
G1 X119.268 Y102.128 E.00592
;WIDTH:0.504754
G1 X119.435 Y102.151 E.00647
;WIDTH:0.547131
G1 X119.603 Y102.175 E.00711
G1 X130.145 Y108.261 E.51034
;WIDTH:0.551932
G1 X130.22 Y108.307 E.00372
G1 X130.329 Y108.495 E.0092
;WIDTH:0.507955
G1 X130.438 Y108.683 E.0084
;WIDTH:0.463977
G1 X130.547 Y108.871 E.00761
;WIDTH:0.462434
G1 X130.581 Y108.959 E.00329
;WIDTH:0.504869
G1 X130.614 Y109.046 E.00357
;WIDTH:0.547304
G1 X130.648 Y109.133 E.00392
G1 X130.648 Y121.305 E.51049
;WIDTH:0.552111
G1 X130.646 Y121.393 E.00373
G1 X130.549 Y121.562 E.00825
M204 S1000
G1 X130.184 Y121.392 F10800
M204 S800
;WIDTH:0.419999
G1 F1200
M73 P1 R80
G1 X130.131 Y121.588 E.00637
G1 X129.924 Y121.795 E.00918
G1 X119.383 Y127.881 E.38164
G1 X119.1 Y127.957 E.00919
G1 X118.817 Y127.881 E.00919
G1 X108.276 Y121.795 E.38164
G1 X108.069 Y121.588 E.00918
G1 X107.993 Y121.305 E.00919
G1 X107.993 Y109.133 E.38164
G1 X108.069 Y108.85 E.00919
G1 X108.276 Y108.643 E.00918
G1 X118.817 Y102.557 E.38164
G1 X119.1 Y102.481 E.00919
M73 P1 R79
G1 X119.383 Y102.557 E.00919
G1 X129.924 Y108.643 E.38164
G1 X130.131 Y108.85 E.00918
G1 X130.207 Y109.133 E.00919
G1 X130.199 Y121.334 E.38255
M204 S1000
G1 X129.83 Y121.305 F10800
M204 S800
;TYPE:External perimeter
G1 F1200
G1 X129.777 Y121.436 E.00443
G1 X129.736 Y121.468 E.00163
G1 X119.194 Y127.554 E.38166
G1 X119.055 Y127.574 E.0044
G1 X119.006 Y127.554 E.00166
G1 X108.464 Y121.468 E.38166
G1 X108.377 Y121.357 E.00442
G1 X108.37 Y109.133 E.38327
G1 X108.423 Y109.002 E.00443
G1 X119.006 Y102.883 E.38329
G1 X119.145 Y102.864 E.0044
G1 X119.194 Y102.883 E.00165
G1 X129.736 Y108.97 E.38168
G1 X129.823 Y109.081 E.00442
G1 X129.83 Y121.245 E.38139
M204 S1000
G1 X129.931 Y121.404 F10800
;WIPE_START
G1 F8640
G1 X129.777 Y121.436 E-.04577
G1 X129.736 Y121.468 E-.01201
G1 X126.952 Y123.075 E-.74222
;WIPE_END
G1 Z.6 F720
G1 X95.898 Y128.615 F10800
G1 Z.2 F720
G1 E.8 F2100
M204 S800
;TYPE:Perimeter
;WIDTH:0.364919
G1 F1200
G1 X95.639 Y128.925 E.01082
G1 X95.5 Y129.333 E.01154
G1 X95.361 Y128.925 E.01154
G1 X95.102 Y128.615 E.01082
G1 X95.5 Y128.683 E.01081
G1 X95.839 Y128.625 E.00921
M204 S1000
;WIPE_START
G1 F8640
G1 X95.639 Y128.925 E-.08325
G1 X95.5 Y129.333 E-.09953
G1 X95.361 Y128.925 E-.09953
G1 X95.102 Y128.615 E-.09327
G1 X95.5 Y128.683 E-.09323
G1 X95.839 Y128.625 E-.07941
;WIPE_END
G1 E-.25178 F2100
G1 Z.6 F720
G1 X143.098 Y128.615 F10800
G1 Z.2 F720
G1 E.8 F2100
M204 S800
;WIDTH:0.364916
G1 F1200
G1 X142.839 Y128.925 E.01082
G1 X142.7 Y129.333 E.01154
G1 X142.561 Y128.925 E.01154
G1 X142.302 Y128.615 E.01082
G1 X142.7 Y128.683 E.01081
G1 X143.039 Y128.625 E.00921
M204 S1000
;WIPE_START
G1 F8640
G1 X142.839 Y128.925 E-.08325
G1 X142.7 Y129.333 E-.09953
G1 X142.561 Y128.925 E-.09953
G1 X142.302 Y128.615 E-.09327
G1 X142.7 Y128.683 E-.09323
G1 X143.039 Y128.625 E-.07941
;WIPE_END
G1 E-.25178 F2100
G1 Z.6 F720
G1 X154.529 Y121.651 F10800
G1 Z.2 F720
G1 E.8 F2100
M204 S800
;WIDTH:0.364919
G1 F1200
G1 X154.639 Y121.951 E.00856
G1 X154.923 Y122.276 E.01156
G1 X154.5 Y122.193 E.01154
G1 X154.077 Y122.276 E.01154
G1 X154.361 Y121.951 E.01156
G1 X154.5 Y121.572 E.01081
G1 X154.508 Y121.594 E.00063
M204 S1000
;WIPE_START
G1 F8640
G1 X154.639 Y121.951 E-.08781
G1 X154.923 Y122.276 E-.09966
G1 X154.5 Y122.193 E-.09953
G1 X154.077 Y122.276 E-.09953
G1 X154.361 Y121.951 E-.09966
G1 X154.5 Y121.572 E-.09321
G1 X154.508 Y121.594 E-.00541
;WIPE_END
G1 E-.21519 F2100
G1 Z.6 F720
G1 X154.897 Y108.177 F10800
G1 Z.2 F720
G1 E.8 F2100
M204 S800
;WIDTH:0.364786
G1 F1200
G1 X154.639 Y108.487 E.01079
G1 X154.5 Y108.895 E.01154
G1 X154.361 Y108.487 E.01154
G1 X154.103 Y108.177 E.01079
G1 X154.5 Y108.245 E.01078
G1 X154.838 Y108.187 E.00918
M204 S1000
;WIPE_START
G1 F8640
G1 X154.639 Y108.487 E-.08313
G1 X154.5 Y108.895 E-.09953
G1 X154.361 Y108.487 E-.09953
G1 X154.103 Y108.177 E-.09313
G1 X154.5 Y108.245 E-.093
G1 X154.838 Y108.187 E-.07919
;WIPE_END
G1 E-.25249 F2100
G1 Z.6 F720
G1 X143.122 Y101.837 F10800
G1 Z.2 F720
G1 E.8 F2100
M204 S800
;WIDTH:0.364784
G1 F1200
G1 X142.7 Y101.755 E.01151
G1 X142.278 Y101.837 E.01151
G1 X142.561 Y101.513 E.01151
G1 X142.7 Y101.134 E.0108
G1 X142.839 Y101.513 E.0108
G1 X143.083 Y101.792 E.00992
M204 S1000
;WIPE_START
G1 F8640
G1 X142.7 Y101.755 E-.08885
G1 X142.278 Y101.837 E-.09926
G1 X142.561 Y101.513 E-.09933
G1 X142.7 Y101.134 E-.09321
