; generated by PrusaSlicer 2.6.0+linux-x64-GTK3 on 2023-07-08 at 19:19:03 UTC


;
;
; 

; external perimeters extrusion width = 0.45mm
; perimeters extrusion width = 0.45mm
; infill extrusion width = 0.45mm
; solid infill extrusion width = 0.45mm
; top infill extrusion width = 0.40mm
; first layer extrusion width = 0.42mm

M73 P0 R98
M201 X9000 Y9000 Z500 E10000 ; sets maximum accelerations, mm/sec^2
M203 X500 Y500 Z12 E120 ; sets maximum feedrates, mm / sec
M204 S2000 T1500 ; sets acceleration (S) and retract acceleration (R), mm/sec^2
M205 X10.00 Y10.00 Z0.20 E4.50 ; sets the jerk limits, mm/sec
M205 S0 T0 ; sets the minimum extruding and travel feed rate, mm/sec
;TYPE:Custom
M862.3 P "MK2.5" ; printer model check
M862.1 P0.4 ; nozzle diameter check
M115 U3.12.2 ; tell printer latest fw version
G90 ; use absolute coordinates
M83 ; extruder relative mode
M104 S215 ; set extruder temp
M140 S60 ; set bed temp
M190 S60 ; wait for bed temp
M109 S215 ; wait for extruder temp
G28 W ; home all without mesh bed level
G80 ; mesh bed leveling

G1 Z0.2 F720
G1 Y-3 F1000 ; go outside print area
G92 E0
G1 X60 E9 F1000 ; intro line
G1 X100 E12.5 F1000 ; intro line

G92 E0
G21 ; set units to millimeters
G90 ; use absolute coordinates
M83 ; use relative distances for extrusion
M900 K0.05 ; Filament gcode LA 1.5
M900 K30 ; Filament gcode LA 1.0
M107
;LAYER_CHANGE
;Z:0.2
;HEIGHT:0.2
;BEFORE_LAYER_CHANGE
G92 E0.0
;0.2


G1 E-.8 F2100
G1 Z.4 F720
;AFTER_LAYER_CHANGE
;0.2
G1 X50.307 Y91.354 F10800
G1 Z.2 F720
G1 E.8 F2100
M204 S800
;TYPE:Skirt/Brim
;WIDTH:0.42
G1 F1200
G1 X51.247 Y91.16 E.03009
G1 X126.577 Y91.16 E2.36192
G1 X197.638 Y92.982 E2.2288
G1 X198.935 Y93.407 E.04279
G1 X199.784 Y94.475 E.04278
G1 X199.954 Y95.358 E.02819
G1 X199.954 Y114.662 E.60526
G1 X199.563 Y115.97 E.0428
G1 X198.517 Y116.846 E.04278
G1 X197.637 Y117.039 E.02825
G1 X126.577 Y118.819 E2.22874
G1 X51.247 Y118.819 E2.36192
G1 X49.94 Y118.427 E.04278
G1 X49.063 Y117.381 E.0428
G1 X48.87 Y116.442 E.03006
G1 X48.87 Y93.538 E.71814
G1 X49.261 Y92.23 E.0428
M73 P0 R97
G1 X50.261 Y91.393 E.04089
M204 S1000
; printing object OralB_Travel_remix_v2.stl id:0 copy 0
;WIPE_START
G1 F8640
G1 X51.247 Y91.16 E-.23394
G1 X53.699 Y91.16 E-.56606
;WIPE_END
G1 Z.6 F720
G1 X105.126 Y95.068 F10800
G1 Z.2 F720
G1 E.8 F2100
M204 S800
;TYPE:Perimeter
;WIDTH:0.419999
G1 F1200
G1 X105.126 Y115.163 E.63006
G1 X105.618 Y115.655 E.02182
G1 X53.262 Y115.655 E1.64158
G1 X53.262 Y94.325 E.66879
G1 X105.539 Y94.325 E1.63911
G1 X105.126 Y94.816 E.02012
G1 X105.126 Y95.008 E.00602
M204 S1000
G1 X105.503 Y94.816 F10800
M204 S800
;TYPE:External perimeter
G1 F1200
G1 X105.503 Y115.163 E.63796
;WIDTH:0.457865
G1 X105.551 Y115.229 E.00282
;WIDTH:0.49573
G1 X105.598 Y115.295 E.00305
;WIDTH:0.533595
G1 X105.645 Y115.361 E.00331
;WIDTH:0.57146
G1 X105.692 Y115.427 E.00356
G1 X124.864 Y115.427 E.84258
G1 X124.864 Y115.692 E.01165
G1 X124.864 Y115.956 E.0116
G1 X105.692 Y115.956 E.84258
G1 X105.428 Y115.975 E.01163
;WIDTH:0.533595
G1 X105.163 Y115.994 E.01084
;WIDTH:0.49573
G1 X104.899 Y116.013 E.00997
;WIDTH:0.457865
G1 X104.635 Y116.032 E.00913
;WIDTH:0.419999
G1 X52.885 Y116.032 E1.62258
G1 X52.885 Y93.948 E.69243
G1 X104.635 Y93.948 E1.62258
;WIDTH:0.457865
G1 X104.899 Y93.966 E.00913
;WIDTH:0.49573
G1 X105.163 Y93.985 E.00997
;WIDTH:0.533595
G1 X105.428 Y94.004 E.01084
;WIDTH:0.57146
G1 X105.692 Y94.023 E.01163
G1 X124.864 Y94.023 E.84258
G1 X124.864 Y94.552 E.02325
G1 X105.692 Y94.552 E.84258
;WIDTH:0.575465
G1 X105.646 Y94.554 E.00204
G1 X105.61 Y94.619 E.00329
;WIDTH:0.536599
G1 X105.575 Y94.685 E.00307
;WIDTH:0.497732
G1 X105.539 Y94.75 E.00281
;WIDTH:0.458866
G1 X105.532 Y94.763 E.00051
M204 S1000
G1 X104.957 Y94.963 F10800
M204 S800
;TYPE:Solid infill
;WIDTH:0.421892
G1 F1200
G1 X104.658 Y94.664 E.01332
G1 X104.122 Y94.664 E.01689
G1 X104.787 Y95.329 E.02964
G1 X104.787 Y95.865 E.01689
G1 X103.586 Y94.664 E.05352
G1 X103.05 Y94.664 E.01689
G1 X104.787 Y96.401 E.07741
G1 X104.787 Y96.937 E.01689
G1 X102.514 Y94.664 E.10129
G1 X101.978 Y94.664 E.01689
G1 X104.787 Y97.473 E.12518
G1 X104.787 Y98.009 E.01689
G1 X101.442 Y94.664 E.14907
G1 X100.906 Y94.664 E.01689
G1 X104.787 Y98.545 E.17295
G1 X104.787 Y99.081 E.01689
G1 X100.37 Y94.664 E.19684
G1 X99.834 Y94.664 E.01689
G1 X104.787 Y99.617 E.22073
G1 X104.787 Y100.153 E.01689
G1 X99.298 Y94.664 E.24461
G1 X98.762 Y94.664 E.01689
G1 X104.787 Y100.689 E.2685
G1 X104.787 Y101.225 E.01689
G1 X98.226 Y94.664 E.29239
G1 X97.69 Y94.664 E.01689
G1 X104.787 Y101.761 E.31627
G1 X104.787 Y102.297 E.01689
G1 X97.154 Y94.664 E.34016
G1 X96.619 Y94.664 E.01686
G1 X104.787 Y102.832 E.364
G1 X104.787 Y103.368 E.01689
G1 X96.083 Y94.664 E.38789
G1 X95.547 Y94.664 E.01689
G1 X104.787 Y103.904 E.41177
G1 X104.787 Y104.44 E.01689
G1 X95.011 Y94.664 E.43566
G1 X94.475 Y94.664 E.01689
G1 X104.787 Y104.976 E.45955
G1 X104.787 Y105.512 E.01689
G1 X93.939 Y94.664 E.48343
G1 X93.403 Y94.664 E.01689
G1 X104.787 Y106.048 E.50732
G1 X104.787 Y106.584 E.01689
G1 X92.867 Y94.664 E.53121
G1 X92.331 Y94.664 E.01689
G1 X104.787 Y107.12 E.55509
G1 X104.787 Y107.656 E.01689
G1 X91.795 Y94.664 E.57898
G1 X91.259 Y94.664 E.01689
G1 X104.787 Y108.192 E.60286
G1 X104.787 Y108.728 E.01689
G1 X90.723 Y94.664 E.62675
G1 X90.187 Y94.664 E.01689
G1 X104.787 Y109.264 E.65064
G1 X104.787 Y109.8 E.01689
M73 P1 R97
G1 X89.651 Y94.664 E.67452
G1 X89.115 Y94.664 E.01689
G1 X104.787 Y110.336 E.69841
G1 X104.787 Y110.872 E.01689
G1 X88.579 Y94.664 E.7223
G1 X88.043 Y94.664 E.01689
G1 X104.787 Y111.408 E.74618
G1 X104.787 Y111.944 E.01689
G1 X87.507 Y94.664 E.77007
G1 X86.971 Y94.664 E.01689
G1 X104.787 Y112.48 E.79396
G1 X104.787 Y113.015 E.01686
G1 X86.436 Y94.664 E.8178
G1 X85.9 Y94.664 E.01689
G1 X104.787 Y113.551 E.84168
G1 X104.787 Y114.087 E.01689
G1 X85.364 Y94.664 E.86557
G1 X84.828 Y94.664 E.01689
G1 X104.787 Y114.623 E.88946
G1 X104.787 Y115.159 E.01689
G1 X84.292 Y94.664 E.91334
G1 X83.756 Y94.664 E.01689
G1 X104.407 Y115.315 E.9203
G1 X103.871 Y115.315 E.01689
G1 X83.22 Y94.664 E.9203
G1 X82.684 Y94.664 E.01689
G1 X103.335 Y115.315 E.9203
G1 X102.799 Y115.315 E.01689
G1 X82.148 Y94.664 E.9203
G1 X81.612 Y94.664 E.01689
G1 X102.263 Y115.315 E.9203
G1 X101.727 Y115.315 E.01689
G1 X81.076 Y94.664 E.9203
G1 X80.54 Y94.664 E.01689
G1 X101.191 Y115.315 E.9203
G1 X100.655 Y115.315 E.01689
M73 P1 R96
G1 X80.004 Y94.664 E.9203
G1 X79.468 Y94.664 E.01689
G1 X100.12 Y115.315 E.92032
G1 X99.584 Y115.315 E.01689
G1 X78.932 Y94.664 E.92032
G1 X78.396 Y94.664 E.01689
G1 X99.048 Y115.315 E.92032
G1 X98.512 Y115.315 E.01689
G1 X77.86 Y94.664 E.92032
G1 X77.324 Y94.664 E.01689
G1 X97.976 Y115.315 E.92032
G1 X97.44 Y115.315 E.01689
G1 X76.788 Y94.664 E.92032
G1 X76.253 Y94.664 E.01686
G1 X96.904 Y115.315 E.9203
G1 X96.368 Y115.315 E.01689
G1 X75.717 Y94.664 E.9203
G1 X75.181 Y94.664 E.01689
G1 X95.832 Y115.315 E.9203
G1 X95.296 Y115.315 E.01689
G1 X74.645 Y94.664 E.9203
G1 X74.109 Y94.664 E.01689
G1 X94.76 Y115.315 E.9203
G1 X94.224 Y115.315 E.01689
G1 X73.573 Y94.664 E.9203
G1 X73.037 Y94.664 E.01689
G1 X93.688 Y115.315 E.9203
G1 X93.152 Y115.315 E.01689
G1 X72.501 Y94.664 E.9203
G1 X71.965 Y94.664 E.01689
G1 X92.616 Y115.315 E.9203
G1 X92.08 Y115.315 E.01689
G1 X71.429 Y94.664 E.9203
G1 X70.893 Y94.664 E.01689
G1 X91.544 Y115.315 E.9203
G1 X91.008 Y115.315 E.01689
G1 X70.357 Y94.664 E.9203
G1 X69.821 Y94.664 E.01689
G1 X90.472 Y115.315 E.9203
G1 X89.937 Y115.315 E.01686
G1 X69.285 Y94.664 E.92032
G1 X68.749 Y94.664 E.01689
G1 X89.401 Y115.315 E.92032
G1 X88.865 Y115.315 E.01689
G1 X68.213 Y94.664 E.92032
G1 X67.677 Y94.664 E.01689
M73 P2 R96
G1 X88.329 Y115.315 E.92032
G1 X87.793 Y115.315 E.01689
G1 X67.141 Y94.664 E.92032
G1 X66.605 Y94.664 E.01689
G1 X87.257 Y115.315 E.92032
G1 X86.721 Y115.315 E.01689
G1 X66.07 Y94.664 E.9203
G1 X65.534 Y94.664 E.01689
G1 X86.185 Y115.315 E.9203
G1 X85.649 Y115.315 E.01689
G1 X64.998 Y94.664 E.9203
G1 X64.462 Y94.664 E.01689
G1 X85.113 Y115.315 E.9203
G1 X84.577 Y115.315 E.01689
G1 X63.926 Y94.664 E.9203
G1 X63.39 Y94.664 E.01689
G1 X84.041 Y115.315 E.9203
G1 X83.505 Y115.315 E.01689
G1 X62.854 Y94.664 E.9203
G1 X62.318 Y94.664 E.01689
G1 X82.969 Y115.315 E.9203
G1 X82.433 Y115.315 E.01689
G1 X61.782 Y94.664 E.9203
G1 X61.246 Y94.664 E.01689
G1 X81.897 Y115.315 E.9203
G1 X81.361 Y115.315 E.01689
G1 X60.71 Y94.664 E.9203
G1 X60.174 Y94.664 E.01689
G1 X80.825 Y115.315 E.9203
G1 X80.289 Y115.315 E.01689
G1 X59.638 Y94.664 E.9203
G1 X59.102 Y94.664 E.01689
G1 X79.754 Y115.315 E.92032
G1 X79.218 Y115.315 E.01689
G1 X58.566 Y94.664 E.92032
G1 X58.03 Y94.664 E.01689
M73 P2 R95
G1 X78.682 Y115.315 E.92032
G1 X78.146 Y115.315 E.01689
G1 X57.494 Y94.664 E.92032
G1 X56.958 Y94.664 E.01689
G1 X77.61 Y115.315 E.92032
G1 X77.074 Y115.315 E.01689
G1 X56.422 Y94.664 E.92032
G1 X55.887 Y94.664 E.01686
G1 X76.538 Y115.315 E.9203
G1 X76.002 Y115.315 E.01689
G1 X55.351 Y94.664 E.9203
G1 X54.815 Y94.664 E.01689
G1 X75.466 Y115.315 E.9203
G1 X74.93 Y115.315 E.01689
G1 X54.279 Y94.664 E.9203
G1 X53.743 Y94.664 E.01689
G1 X74.394 Y115.315 E.9203
G1 X73.858 Y115.315 E.01689
G1 X53.601 Y95.058 E.90274
G1 X53.601 Y95.594 E.01689
G1 X73.322 Y115.315 E.87885
G1 X72.786 Y115.315 E.01689
G1 X53.601 Y96.13 E.85496
G1 X53.601 Y96.666 E.01689
G1 X72.25 Y115.315 E.83108
G1 X71.714 Y115.315 E.01689
G1 X53.601 Y97.202 E.80719
G1 X53.601 Y97.738 E.01689
G1 X71.178 Y115.315 E.7833
G1 X70.642 Y115.315 E.01689
G1 X53.601 Y98.274 E.75942
G1 X53.601 Y98.81 E.01689
G1 X70.106 Y115.315 E.73553
G1 X69.571 Y115.315 E.01686
G1 X53.601 Y99.346 E.71167
G1 X53.601 Y99.882 E.01689
G1 X69.035 Y115.315 E.68778
G1 X68.499 Y115.315 E.01689
G1 X53.601 Y100.418 E.6639
G1 X53.601 Y100.954 E.01689
G1 X67.963 Y115.315 E.64001
G1 X67.427 Y115.315 E.01689
G1 X53.601 Y101.49 E.61612
G1 X53.601 Y102.026 E.01689
G1 X66.891 Y115.315 E.59224
G1 X66.355 Y115.315 E.01689
G1 X53.601 Y102.562 E.56835
G1 X53.601 Y103.098 E.01689
M73 P3 R95
G1 X65.819 Y115.315 E.54446
G1 X65.283 Y115.315 E.01689
G1 X53.601 Y103.634 E.52058
G1 X53.601 Y104.169 E.01686
G1 X64.747 Y115.315 E.49671
G1 X64.211 Y115.315 E.01689
G1 X53.601 Y104.705 E.47283
G1 X53.601 Y105.241 E.01689
G1 X63.675 Y115.315 E.44894
G1 X63.139 Y115.315 E.01689
G1 X53.601 Y105.777 E.42505
G1 X53.601 Y106.313 E.01689
G1 X62.603 Y115.315 E.40117
G1 X62.067 Y115.315 E.01689
G1 X53.601 Y106.849 E.37728
G1 X53.601 Y107.385 E.01689
G1 X61.531 Y115.315 E.35339
G1 X60.995 Y115.315 E.01689
G1 X53.601 Y107.921 E.32951
G1 X53.601 Y108.457 E.01689
G1 X60.459 Y115.315 E.30562
G1 X59.923 Y115.315 E.01689
G1 X53.601 Y108.993 E.28173
G1 X53.601 Y109.529 E.01689
G1 X59.388 Y115.315 E.25787
G1 X58.852 Y115.315 E.01689
G1 X53.601 Y110.065 E.23398
G1 X53.601 Y110.601 E.01689
G1 X58.316 Y115.315 E.2101
G1 X57.78 Y115.315 E.01689
G1 X53.601 Y111.137 E.18621
G1 X53.601 Y111.673 E.01689
G1 X57.244 Y115.315 E.16233
G1 X56.708 Y115.315 E.01689
G1 X53.601 Y112.209 E.13844
G1 X53.601 Y112.745 E.01689
G1 X56.172 Y115.315 E.11455
G1 X55.636 Y115.315 E.01689
G1 X53.601 Y113.281 E.09067
G1 X53.601 Y113.817 E.01689
G1 X55.1 Y115.315 E.06678
G1 X54.564 Y115.315 E.01689
G1 X53.601 Y114.352 E.04292
G1 X53.601 Y114.888 E.01689
G1 X54.198 Y115.485 E.0266
M204 S1000
;WIPE_START
G1 F8640
G1 X53.601 Y114.888 E-.19495
G1 X53.601 Y114.352 E-.12376
G1 X54.564 Y115.315 E-.31446
G1 X55.1 Y115.315 E-.12376
G1 X54.968 Y115.183 E-.04307
;WIPE_END
G1 Z.6 F720
G1 X124.262 Y96.145 F10800
G1 Z.2 F720
G1 E.8 F2100
M204 S800
;TYPE:Perimeter
;WIDTH:0.419999
G1 F1200
G1 X195.562 Y96.145 E2.23556
G1 X195.562 Y113.875 E.55591
G1 X124.262 Y113.875 E2.23556
G1 X124.262 Y96.205 E.55403
M204 S1000
G1 X123.885 Y95.768 F10800
M204 S800
;TYPE:External perimeter
G1 F1200
G1 X195.939 Y95.768 E2.2592
G1 X195.939 Y114.252 E.57955
G1 X123.885 Y114.252 E2.2592
G1 X123.885 Y95.828 E.57767
M204 S1000
M73 P3 R94
G1 X124.283 Y95.802 F10800
;WIPE_START
G1 F8640
G1 X127.35 Y95.825 E-.8
;WIPE_END
G1 Z.6 F720
G1 X195.393 Y97.081 F10800
G1 Z.2 F720
G1 E.8 F2100
M204 S800
;TYPE:Solid infill
;WIDTH:0.421874
G1 F1200
G1 X194.796 Y96.485 E.02658
G1 X194.26 Y96.485 E.01689
G1 X195.223 Y97.448 E.04291
G1 X195.223 Y97.983 E.01686
G1 X193.724 Y96.485 E.06678
G1 X193.188 Y96.485 E.01689
G1 X195.223 Y98.519 E.09066
G1 X195.223 Y99.055 E.01689
G1 X192.652 Y96.485 E.11455
G1 X192.116 Y96.485 E.01689
G1 X195.223 Y99.591 E.13843
G1 X195.223 Y100.127 E.01689
G1 X191.581 Y96.485 E.1623
G1 X191.045 Y96.485 E.01689
G1 X195.223 Y100.663 E.18618
G1 X195.223 Y101.199 E.01689
G1 X190.509 Y96.485 E.21007
G1 X189.973 Y96.485 E.01689
G1 X195.223 Y101.735 E.23395
G1 X195.223 Y102.271 E.01689
G1 X189.437 Y96.485 E.25784
G1 X188.901 Y96.485 E.01689
G1 X195.223 Y102.807 E.28172
G1 X195.223 Y103.343 E.01689
G1 X188.365 Y96.485 E.30561
G1 X187.829 Y96.485 E.01689
G1 X195.223 Y103.879 E.32949
G1 X195.223 Y104.415 E.01689
G1 X187.293 Y96.485 E.35338
G1 X186.757 Y96.485 E.01689
G1 X195.223 Y104.95 E.37724
G1 X195.223 Y105.486 E.01689
G1 X186.221 Y96.485 E.40113
G1 X185.685 Y96.485 E.01689
G1 X195.223 Y106.022 E.42501
G1 X195.223 Y106.558 E.01689
G1 X185.15 Y96.485 E.44887
G1 X184.614 Y96.485 E.01689
G1 X195.223 Y107.094 E.47276
G1 X195.223 Y107.63 E.01689
G1 X184.078 Y96.485 E.49664
G1 X183.542 Y96.485 E.01689
G1 X195.223 Y108.166 E.52053
G1 X195.223 Y108.702 E.01689
G1 X183.006 Y96.485 E.54442
G1 X182.47 Y96.485 E.01689
G1 X195.223 Y109.238 E.5683
G1 X195.223 Y109.774 E.01689
G1 X181.934 Y96.485 E.59219
G1 X181.398 Y96.485 E.01689
G1 X195.223 Y110.31 E.61607
G1 X195.223 Y110.846 E.01689
G1 X180.862 Y96.485 E.63996
G1 X180.326 Y96.485 E.01689
G1 X195.223 Y111.382 E.66384
G1 X195.223 Y111.917 E.01686
G1 X179.79 Y96.485 E.6877
G1 X179.254 Y96.485 E.01689
G1 X195.223 Y112.453 E.71159
G1 X195.223 Y112.989 E.01689
G1 X178.718 Y96.485 E.73547
G1 X178.183 Y96.485 E.01686
G1 X195.223 Y113.525 E.75934
G1 X194.698 Y113.536 E.01655
G1 X177.647 Y96.485 E.75983
G1 X177.111 Y96.485 E.01689
G1 X194.162 Y113.536 E.75983
G1 X193.626 Y113.536 E.01689
G1 X176.575 Y96.485 E.75983
G1 X176.039 Y96.485 E.01689
G1 X193.09 Y113.536 E.75983
G1 X192.554 Y113.536 E.01689
G1 X175.503 Y96.485 E.75983
G1 X174.967 Y96.485 E.01689
G1 X192.018 Y113.536 E.75983
G1 X191.482 Y113.536 E.01689
M73 P4 R94
G1 X174.431 Y96.485 E.75983
G1 X173.895 Y96.485 E.01689
G1 X190.946 Y113.536 E.75983
G1 X190.411 Y113.536 E.01686
G1 X173.359 Y96.485 E.75985
G1 X172.823 Y96.485 E.01689
G1 X189.875 Y113.536 E.75985
G1 X189.339 Y113.536 E.01689
G1 X172.287 Y96.485 E.75985
G1 X171.751 Y96.485 E.01689
G1 X188.803 Y113.536 E.75985
G1 X188.267 Y113.536 E.01689
G1 X171.216 Y96.485 E.75983
G1 X170.68 Y96.485 E.01689
G1 X187.731 Y113.536 E.75983
G1 X187.195 Y113.536 E.01689
G1 X170.144 Y96.485 E.75983
G1 X169.608 Y96.485 E.01689
G1 X186.659 Y113.536 E.75983
G1 X186.123 Y113.536 E.01689
G1 X169.072 Y96.485 E.75983
G1 X168.536 Y96.485 E.01689
G1 X185.587 Y113.536 E.75983
G1 X185.051 Y113.536 E.01689
G1 X168 Y96.485 E.75983
G1 X167.464 Y96.485 E.01689
G1 X184.515 Y113.536 E.75983
G1 X183.979 Y113.536 E.01689
G1 X166.928 Y96.485 E.75983
G1 X166.392 Y96.485 E.01689
G1 X183.444 Y113.536 E.75985
G1 X182.908 Y113.536 E.01689
G1 X165.856 Y96.485 E.75985
G1 X165.32 Y96.485 E.01689
G1 X182.372 Y113.536 E.75985
G1 X181.836 Y113.536 E.01689
G1 X164.784 Y96.485 E.75985
G1 X164.249 Y96.485 E.01686
G1 X181.3 Y113.536 E.75983
G1 X180.764 Y113.536 E.01689
G1 X163.713 Y96.485 E.75983
G1 X163.177 Y96.485 E.01689
G1 X180.228 Y113.536 E.75983
G1 X179.692 Y113.536 E.01689
G1 X162.641 Y96.485 E.75983
G1 X162.105 Y96.485 E.01689
M73 P4 R93
G1 X179.156 Y113.536 E.75983
G1 X178.62 Y113.536 E.01689
G1 X161.569 Y96.485 E.75983
G1 X161.033 Y96.485 E.01689
G1 X178.084 Y113.536 E.75983
G1 X177.548 Y113.536 E.01689
G1 X160.497 Y96.485 E.75983
G1 X159.961 Y96.485 E.01689
G1 X177.012 Y113.536 E.75983
G1 X176.477 Y113.536 E.01686
G1 X159.425 Y96.485 E.75985
G1 X158.889 Y96.485 E.01689
G1 X175.941 Y113.536 E.75985
G1 X175.405 Y113.536 E.01689
G1 X158.353 Y96.485 E.75985
G1 X157.817 Y96.485 E.01689
G1 X174.869 Y113.536 E.75985
G1 X174.333 Y113.536 E.01689
