; generated by PrusaSlicer 2.6.1+linux-x64-GTK3 on 2023-09-17 at 21:34:51 UTC


;
;
; 

; external perimeters extrusion width = 0.60mm
; perimeters extrusion width = 0.43mm
; infill extrusion width = 0.45mm
; solid infill extrusion width = 0.70mm
; top infill extrusion width = 0.45mm
; first layer extrusion width = 0.42mm

M73 P0 R239
M201 X9000 Y9000 Z500 E10000 ; sets maximum accelerations, mm/sec^2
M203 X500 Y500 Z12 E120 ; sets maximum feedrates, mm / sec
M204 S2000 T1500 ; sets acceleration (S) and retract acceleration (R), mm/sec^2
M205 X10.00 Y10.00 Z0.20 E4.50 ; sets the jerk limits, mm/sec
M205 S0 T0 ; sets the minimum extruding and travel feed rate, mm/sec
;TYPE:Custom
M862.3 P "MK2.5" ; printer model check
M862.1 P0.4 ; nozzle diameter check
M115 U3.13.0 ; tell printer latest fw version
G90 ; use absolute coordinates
M83 ; extruder relative mode
M104 S215 ; set extruder temp
M140 S60 ; set bed temp
M190 S60 ; wait for bed temp
M109 S215 ; wait for extruder temp
G28 W ; home all without mesh bed level
G80 ; mesh bed leveling

G1 Z0.2 F720
G1 Y-3 F1000 ; go outside print area
G92 E0
G1 X60 E9 F1000 ; intro line
G1 X100 E12.5 F1000 ; intro line

G92 E0
G21 ; set units to millimeters
G90 ; use absolute coordinates
M83 ; use relative distances for extrusion
M900 K0.05 ; Filament gcode LA 1.5
M900 K30 ; Filament gcode LA 1.0
M107
;LAYER_CHANGE
;Z:0.2
;HEIGHT:0.2
;BEFORE_LAYER_CHANGE
G92 E0.0
;0.2


G1 E-.8 F2100
G1 Z.4 F720
;AFTER_LAYER_CHANGE
;0.2
G1 X55.515 Y58.693 F10800
G1 Z.2 F720
G1 E.8 F2100
M204 S800
;TYPE:Skirt/Brim
;WIDTH:0.42
G1 F1200
G1 X56.56 Y57.817 E.04275
G1 X57.5 Y57.623 E.03009
G1 X192.5 Y57.623 E4.23283
G1 X193.807 Y58.015 E.04278
G1 X194.683 Y59.06 E.04275
G1 X194.877 Y60 E.03009
G1 X194.877 Y150 E2.82189
G1 X194.485 Y151.307 E.04278
M73 P0 R238
G1 X193.44 Y152.183 E.04275
G1 X192.5 Y152.377 E.03009
G1 X57.5 Y152.377 E4.23283
G1 X56.193 Y151.985 E.04278
G1 X55.317 Y150.94 E.04275
G1 X55.123 Y150 E.03009
G1 X55.123 Y60 E2.82189
G1 X55.497 Y58.75 E.04091
M204 S1000
; printing object module.stl id:0 copy 0
;WIPE_START
G1 F8640
G1 X56.56 Y57.817 E-.32658
G1 X57.5 Y57.623 E-.22162
G1 X58.591 Y57.623 E-.2518
;WIPE_END
G1 Z.6 F720
G1 X191.713 Y149.213 F10800
G1 Z.2 F720
G1 E.8 F2100
M204 S800
;TYPE:Perimeter
;WIDTH:0.419999
G1 F1200
G1 X58.287 Y149.213 E4.18347
G1 X58.287 Y60.787 E2.77253
G1 X191.713 Y60.787 E4.18347
G1 X191.713 Y149.153 E2.77065
M204 S1000
G1 X192.09 Y149.59 F10800
M204 S800
;TYPE:External perimeter
G1 F1200
G1 X57.91 Y149.59 E4.20711
G1 X57.91 Y60.41 E2.79617
G1 X192.09 Y60.41 E4.20711
G1 X192.09 Y149.53 E2.79429
M204 S1000
G1 X191.698 Y149.512 F10800
;WIPE_START
G1 F8640
G1 X188.625 Y149.532 E-.8
;WIPE_END
G1 Z.6 F720
G1 X191.543 Y61.721 F10800
G1 Z.2 F720
G1 E.8 F2100
M204 S800
;TYPE:Solid infill
;WIDTH:0.420809
G1 F1200
G1 X190.949 Y61.126 E.02642
G1 X190.415 Y61.126 E.01678
G1 X191.374 Y62.085 E.04261
G1 X191.374 Y62.62 E.01681
G1 X189.88 Y61.126 E.06639
G1 X189.346 Y61.126 E.01678
G1 X191.374 Y63.154 E.09012
G1 X191.374 Y63.689 E.01681
G1 X188.811 Y61.126 E.11389
G1 X188.277 Y61.126 E.01678
G1 X191.374 Y64.223 E.13762
G1 X191.374 Y64.758 E.01681
G1 X187.742 Y61.126 E.16139
G1 X187.208 Y61.126 E.01678
M73 P0 R237
G1 X191.374 Y65.292 E.18512
G1 X191.374 Y65.826 E.01678
G1 X186.674 Y61.126 E.20885
G1 X186.139 Y61.126 E.01681
G1 X191.374 Y66.361 E.23263
G1 X191.374 Y66.895 E.01678
G1 X185.605 Y61.126 E.25636
G1 X185.07 Y61.126 E.01681
G1 X191.374 Y67.43 E.28013
G1 X191.374 Y67.964 E.01678
G1 X184.536 Y61.126 E.30386
G1 X184.002 Y61.126 E.01678
G1 X191.374 Y68.498 E.32759
G1 X191.374 Y69.033 E.01681
G1 X183.467 Y61.126 E.35136
G1 X182.933 Y61.126 E.01678
G1 X191.374 Y69.567 E.37509
G1 X191.374 Y70.102 E.01681
G1 X182.398 Y61.126 E.39887
G1 X181.864 Y61.126 E.01678
G1 X191.374 Y70.636 E.42259
G1 X191.374 Y71.171 E.01681
G1 X181.329 Y61.126 E.44637
G1 X180.795 Y61.126 E.01678
G1 X191.374 Y71.705 E.4701
G1 X191.374 Y72.239 E.01678
G1 X180.261 Y61.126 E.49383
G1 X179.726 Y61.126 E.01681
G1 X191.374 Y72.774 E.5176
G1 X191.374 Y73.308 E.01678
G1 X179.192 Y61.126 E.54133
G1 X178.657 Y61.126 E.01681
G1 X191.374 Y73.843 E.5651
G1 X191.374 Y74.377 E.01678
G1 X178.123 Y61.126 E.58883
G1 X177.589 Y61.126 E.01678
G1 X191.374 Y74.911 E.61256
G1 X191.374 Y75.446 E.01681
G1 X177.054 Y61.126 E.63634
G1 X176.52 Y61.126 E.01678
G1 X191.374 Y75.98 E.66006
G1 X191.374 Y76.515 E.01681
G1 X175.985 Y61.126 E.68384
G1 X175.451 Y61.126 E.01678
G1 X191.374 Y77.049 E.70757
G1 X191.374 Y77.584 E.01681
G1 X174.916 Y61.126 E.73134
G1 X174.382 Y61.126 E.01678
G1 X191.374 Y78.118 E.75507
G1 X191.374 Y78.652 E.01678
G1 X173.848 Y61.126 E.7788
G1 X173.313 Y61.126 E.01681
G1 X191.374 Y79.187 E.80257
G1 X191.374 Y79.721 E.01678
G1 X172.779 Y61.126 E.8263
G1 X172.244 Y61.126 E.01681
G1 X191.374 Y80.256 E.85008
G1 X191.374 Y80.79 E.01678
G1 X171.71 Y61.126 E.87381
G1 X171.176 Y61.126 E.01678
G1 X191.374 Y81.324 E.89754
G1 X191.374 Y81.859 E.01681
G1 X170.641 Y61.126 E.92131
G1 X170.107 Y61.126 E.01678
G1 X191.374 Y82.393 E.94504
G1 X191.374 Y82.928 E.01681
G1 X169.572 Y61.126 E.96881
G1 X169.038 Y61.126 E.01678
G1 X191.374 Y83.462 E.99254
G1 X191.374 Y83.997 E.01681
G1 X168.503 Y61.126 E1.01632
G1 X167.969 Y61.126 E.01678
G1 X191.374 Y84.531 E1.04004
G1 X191.374 Y85.065 E.01678
G1 X167.435 Y61.126 E1.06377
G1 X166.9 Y61.126 E.01681
G1 X191.374 Y85.6 E1.08755
G1 X191.374 Y86.134 E.01678
G1 X166.366 Y61.126 E1.11128
G1 X165.831 Y61.126 E.01681
G1 X191.374 Y86.669 E1.13505
G1 X191.374 Y87.203 E.01678
G1 X165.297 Y61.126 E1.15878
G1 X164.763 Y61.126 E.01678
G1 X191.374 Y87.737 E1.18251
G1 X191.374 Y88.272 E.01681
G1 X164.228 Y61.126 E1.20628
G1 X163.694 Y61.126 E.01678
G1 X191.374 Y88.806 E1.23001
G1 X191.374 Y89.341 E.01681
G1 X163.159 Y61.126 E1.25379
G1 X162.625 Y61.126 E.01678
G1 X191.374 Y89.875 E1.27752
G1 X191.374 Y90.41 E.01681
G1 X162.09 Y61.126 E1.30129
G1 X161.556 Y61.126 E.01678
G1 X191.374 Y90.944 E1.32502
G1 X191.374 Y91.478 E.01678
M73 P0 R236
G1 X161.022 Y61.126 E1.34875
G1 X160.487 Y61.126 E.01681
G1 X191.374 Y92.013 E1.37252
G1 X191.374 Y92.547 E.01678
G1 X159.953 Y61.126 E1.39625
G1 X159.418 Y61.126 E.01681
M73 P1 R236
G1 X191.374 Y93.082 E1.42002
G1 X191.374 Y93.616 E.01678
G1 X158.884 Y61.126 E1.44375
G1 X158.35 Y61.126 E.01678
G1 X191.374 Y94.15 E1.46748
G1 X191.374 Y94.685 E.01681
G1 X157.815 Y61.126 E1.49126
G1 X157.281 Y61.126 E.01678
G1 X191.374 Y95.219 E1.51499
G1 X191.374 Y95.754 E.01681
G1 X156.746 Y61.126 E1.53876
G1 X156.212 Y61.126 E.01678
G1 X191.374 Y96.288 E1.56249
G1 X191.374 Y96.823 E.01681
G1 X155.677 Y61.126 E1.58626
G1 X155.143 Y61.126 E.01678
G1 X191.374 Y97.357 E1.60999
G1 X191.374 Y97.891 E.01678
G1 X154.609 Y61.126 E1.63372
G1 X154.074 Y61.126 E.01681
G1 X191.374 Y98.426 E1.65749
G1 X191.374 Y98.96 E.01678
G1 X153.54 Y61.126 E1.68122
G1 X153.005 Y61.126 E.01681
G1 X191.374 Y99.495 E1.705
G1 X191.374 Y100.029 E.01678
G1 X152.471 Y61.126 E1.72873
G1 X151.937 Y61.126 E.01678
G1 X191.374 Y100.563 E1.75246
G1 X191.374 Y101.098 E.01681
G1 X151.402 Y61.126 E1.77623
G1 X150.868 Y61.126 E.01678
G1 X191.374 Y101.632 E1.79996
G1 X191.374 Y102.167 E.01681
G1 X150.333 Y61.126 E1.82373
G1 X149.799 Y61.126 E.01678
G1 X191.374 Y102.701 E1.84746
G1 X191.374 Y103.235 E.01678
G1 X149.265 Y61.126 E1.87119
G1 X148.73 Y61.126 E.01681
M73 P1 R235
G1 X191.374 Y103.77 E1.89497
G1 X191.374 Y104.304 E.01678
G1 X148.196 Y61.126 E1.91869
G1 X147.661 Y61.126 E.01681
G1 X191.374 Y104.839 E1.94247
G1 X191.374 Y105.373 E.01678
G1 X147.127 Y61.126 E1.9662
G1 X146.592 Y61.126 E.01681
G1 X191.374 Y105.908 E1.98997
G1 X191.374 Y106.442 E.01678
G1 X146.058 Y61.126 E2.0137
G1 X145.524 Y61.126 E.01678
G1 X191.374 Y106.976 E2.03743
G1 X191.374 Y107.511 E.01681
G1 X144.989 Y61.126 E2.0612
G1 X144.455 Y61.126 E.01678
G1 X191.374 Y108.045 E2.08493
G1 X191.374 Y108.58 E.01681
G1 X143.92 Y61.126 E2.10871
G1 X143.386 Y61.126 E.01678
G1 X191.374 Y109.114 E2.13244
G1 X191.374 Y109.648 E.01678
G1 X142.852 Y61.126 E2.15616
G1 X142.317 Y61.126 E.01681
G1 X191.374 Y110.183 E2.17994
G1 X191.374 Y110.717 E.01678
G1 X141.783 Y61.126 E2.20367
G1 X141.248 Y61.126 E.01681
G1 X191.374 Y111.252 E2.22744
G1 X191.374 Y111.786 E.01678
G1 X140.714 Y61.126 E2.25117
G1 X140.179 Y61.126 E.01681
G1 X191.374 Y112.321 E2.27494
G1 X191.374 Y112.855 E.01678
G1 X139.645 Y61.126 E2.29867
G1 X139.111 Y61.126 E.01678
M73 P1 R234
G1 X191.374 Y113.389 E2.3224
G1 X191.374 Y113.924 E.01681
G1 X138.576 Y61.126 E2.34618
G1 X138.042 Y61.126 E.01678
G1 X191.374 Y114.458 E2.36991
G1 X191.374 Y114.993 E.01681
G1 X137.507 Y61.126 E2.39368
G1 X136.973 Y61.126 E.01678
G1 X191.374 Y115.527 E2.41741
G1 X191.374 Y116.061 E.01678
G1 X136.439 Y61.126 E2.44114
G1 X135.904 Y61.126 E.01681
G1 X191.374 Y116.596 E2.46491
G1 X191.374 Y117.13 E.01678
G1 X135.37 Y61.126 E2.48864
G1 X134.835 Y61.126 E.01681
M73 P2 R234
G1 X191.374 Y117.665 E2.51242
G1 X191.374 Y118.199 E.01678
G1 X134.301 Y61.126 E2.53614
G1 X133.766 Y61.126 E.01681
G1 X191.374 Y118.734 E2.55992
G1 X191.374 Y119.268 E.01678
G1 X133.232 Y61.126 E2.58365
G1 X132.698 Y61.126 E.01678
G1 X191.374 Y119.802 E2.60738
G1 X191.374 Y120.337 E.01681
G1 X132.163 Y61.126 E2.63115
G1 X131.629 Y61.126 E.01678
G1 X191.374 Y120.871 E2.65488
G1 X191.374 Y121.406 E.01681
M73 P2 R233
G1 X131.094 Y61.126 E2.67865
G1 X130.56 Y61.126 E.01678
G1 X191.374 Y121.94 E2.70238
G1 X191.374 Y122.474 E.01678
G1 X130.026 Y61.126 E2.72611
G1 X129.491 Y61.126 E.01681
G1 X191.374 Y123.009 E2.74989
G1 X191.374 Y123.543 E.01678
G1 X128.957 Y61.126 E2.77361
G1 X128.422 Y61.126 E.01681
G1 X191.374 Y124.078 E2.79739
G1 X191.374 Y124.612 E.01678
G1 X127.888 Y61.126 E2.82112
G1 X127.353 Y61.126 E.01681
G1 X191.374 Y125.147 E2.84489
G1 X191.374 Y125.681 E.01678
G1 X126.819 Y61.126 E2.86862
G1 X126.285 Y61.126 E.01678
G1 X191.374 Y126.215 E2.89235
G1 X191.374 Y126.75 E.01681
G1 X125.75 Y61.126 E2.91612
G1 X125.216 Y61.126 E.01678
G1 X191.374 Y127.284 E2.93985
G1 X191.374 Y127.819 E.01681
G1 X124.681 Y61.126 E2.96363
G1 X124.147 Y61.126 E.01678
G1 X191.374 Y128.353 E2.98736
G1 X191.374 Y128.887 E.01678
M73 P2 R232
G1 X123.613 Y61.126 E3.01109
G1 X123.078 Y61.126 E.01681
G1 X191.374 Y129.422 E3.03486
G1 X191.374 Y129.956 E.01678
G1 X122.544 Y61.126 E3.05859
G1 X122.009 Y61.126 E.01681
G1 X191.374 Y130.491 E3.08236
G1 X191.374 Y131.025 E.01678
G1 X121.475 Y61.126 E3.10609
G1 X120.94 Y61.126 E.01681
G1 X191.374 Y131.56 E3.12987
G1 X191.374 Y132.094 E.01678
G1 X120.406 Y61.126 E3.15359
G1 X119.872 Y61.126 E.01678
G1 X191.374 Y132.628 E3.17732
G1 X191.374 Y133.163 E.01681
G1 X119.337 Y61.126 E3.2011
G1 X118.803 Y61.126 E.01678
G1 X191.374 Y133.697 E3.22483
G1 X191.374 Y134.232 E.01681
M73 P3 R232
G1 X118.268 Y61.126 E3.2486
G1 X117.734 Y61.126 E.01678
G1 X191.374 Y134.766 E3.27233
G1 X191.374 Y135.3 E.01678
M73 P3 R231
G1 X117.2 Y61.126 E3.29606
G1 X116.665 Y61.126 E.01681
G1 X191.374 Y135.835 E3.31983
G1 X191.374 Y136.369 E.01678
G1 X116.131 Y61.126 E3.34356
G1 X115.596 Y61.126 E.01681
G1 X191.374 Y136.904 E3.36734
G1 X191.374 Y137.438 E.01678
G1 X115.062 Y61.126 E3.39107
G1 X114.527 Y61.126 E.01681
G1 X191.374 Y137.973 E3.41484
G1 X191.374 Y138.507 E.01678
G1 X113.993 Y61.126 E3.43857
G1 X113.459 Y61.126 E.01678
G1 X191.374 Y139.041 E3.4623
G1 X191.374 Y139.576 E.01681
G1 X112.924 Y61.126 E3.48607
G1 X112.39 Y61.126 E.01678
G1 X191.374 Y140.11 E3.5098
G1 X191.374 Y140.645 E.01681
G1 X111.855 Y61.126 E3.53357
G1 X111.321 Y61.126 E.01678
M73 P3 R230
G1 X191.374 Y141.179 E3.5573
G1 X191.374 Y141.713 E.01678
G1 X110.787 Y61.126 E3.58103
G1 X110.252 Y61.126 E.01681
G1 X191.374 Y142.248 E3.60481
G1 X191.374 Y142.782 E.01678
G1 X109.718 Y61.126 E3.62854
G1 X109.183 Y61.126 E.01681
G1 X191.374 Y143.317 E3.65231
G1 X191.374 Y143.851 E.01678
G1 X108.649 Y61.126 E3.67604
G1 X108.114 Y61.126 E.01681
G1 X191.374 Y144.386 E3.69981
G1 X191.374 Y144.92 E.01678
G1 X107.58 Y61.126 E3.72354
G1 X107.046 Y61.126 E.01678
G1 X191.374 Y145.454 E3.74727
G1 X191.374 Y145.989 E.01681
G1 X106.511 Y61.126 E3.77104
G1 X105.977 Y61.126 E.01678
M73 P3 R229
G1 X191.374 Y146.523 E3.79477
G1 X191.374 Y147.058 E.01681
G1 X105.442 Y61.126 E3.81855
G1 X104.908 Y61.126 E.01678
G1 X191.374 Y147.592 E3.84228
G1 X191.374 Y148.126 E.01678
M73 P4 R229
G1 X104.374 Y61.126 E3.86601
G1 X103.839 Y61.126 E.01681
G1 X191.374 Y148.661 E3.88978
G1 X191.374 Y148.874 E.00669
G1 X191.052 Y148.874 E.01012
G1 X103.305 Y61.126 E3.89922
G1 X102.77 Y61.126 E.01681
G1 X190.517 Y148.874 E3.89922
G1 X189.983 Y148.874 E.01678
G1 X102.236 Y61.126 E3.89922
G1 X101.702 Y61.126 E.01678
G1 X189.449 Y148.874 E3.89922
G1 X188.914 Y148.874 E.01681
G1 X101.167 Y61.126 E3.89922
G1 X100.633 Y61.126 E.01678
M73 P4 R228
G1 X188.38 Y148.874 E3.89922
G1 X187.845 Y148.874 E.01681
G1 X100.098 Y61.126 E3.89922
G1 X99.564 Y61.126 E.01678
G1 X187.311 Y148.874 E3.89922
G1 X186.777 Y148.874 E.01678
G1 X99.029 Y61.126 E3.89924
G1 X98.495 Y61.126 E.01678
G1 X186.242 Y148.874 E3.89922
G1 X185.708 Y148.874 E.01678
G1 X97.961 Y61.126 E3.89922
G1 X97.426 Y61.126 E.01681
G1 X185.173 Y148.874 E3.89922
G1 X184.639 Y148.874 E.01678
G1 X96.892 Y61.126 E3.89922
G1 X96.357 Y61.126 E.01681
G1 X184.104 Y148.874 E3.89922
G1 X183.57 Y148.874 E.01678
M73 P4 R227
G1 X95.823 Y61.126 E3.89922
G1 X95.289 Y61.126 E.01678
G1 X183.036 Y148.874 E3.89922
G1 X182.501 Y148.874 E.01681
G1 X94.754 Y61.126 E3.89922
G1 X94.22 Y61.126 E.01678
G1 X181.967 Y148.874 E3.89922
G1 X181.432 Y148.874 E.01681
G1 X93.685 Y61.126 E3.89922
G1 X93.151 Y61.126 E.01678
G1 X180.898 Y148.874 E3.89922
G1 X180.364 Y148.874 E.01678
G1 X92.616 Y61.126 E3.89924
G1 X92.082 Y61.126 E.01678
M73 P5 R227
G1 X179.829 Y148.874 E3.89922
G1 X179.295 Y148.874 E.01678
G1 X91.548 Y61.126 E3.89922
G1 X91.013 Y61.126 E.01681
G1 X178.76 Y148.874 E3.89922
G1 X178.226 Y148.874 E.01678
M73 P5 R226
G1 X90.479 Y61.126 E3.89922
G1 X89.944 Y61.126 E.01681
G1 X177.691 Y148.874 E3.89922
G1 X177.157 Y148.874 E.01678
G1 X89.41 Y61.126 E3.89922
G1 X88.876 Y61.126 E.01678
G1 X176.623 Y148.874 E3.89922
G1 X176.088 Y148.874 E.01681
G1 X88.341 Y61.126 E3.89922
G1 X87.807 Y61.126 E.01678
G1 X175.554 Y148.874 E3.89922
G1 X175.019 Y148.874 E.01681
G1 X87.272 Y61.126 E3.89922
G1 X86.738 Y61.126 E.01678
G1 X174.485 Y148.874 E3.89922
G1 X173.951 Y148.874 E.01678
G1 X86.203 Y61.126 E3.89924
G1 X85.669 Y61.126 E.01678
M73 P5 R225
G1 X173.416 Y148.874 E3.89922
G1 X172.882 Y148.874 E.01678
G1 X85.135 Y61.126 E3.89922
G1 X84.6 Y61.126 E.01681
G1 X172.347 Y148.874 E3.89922
G1 X171.813 Y148.874 E.01678
G1 X84.066 Y61.126 E3.89922
G1 X83.531 Y61.126 E.01681
G1 X171.278 Y148.874 E3.89922
G1 X170.744 Y148.874 E.01678
G1 X82.997 Y61.126 E3.89922
G1 X82.463 Y61.126 E.01678
G1 X170.21 Y148.874 E3.89922
G1 X169.675 Y148.874 E.01681
G1 X81.928 Y61.126 E3.89922
G1 X81.394 Y61.126 E.01678
G1 X169.141 Y148.874 E3.89922
G1 X168.606 Y148.874 E.01681
G1 X80.859 Y61.126 E3.89922
G1 X80.325 Y61.126 E.01678
M73 P5 R224
G1 X168.072 Y148.874 E3.89922
G1 X167.538 Y148.874 E.01678
M73 P6 R224
G1 X79.79 Y61.126 E3.89924
G1 X79.256 Y61.126 E.01678
G1 X167.003 Y148.874 E3.89922
G1 X166.469 Y148.874 E.01678
G1 X78.722 Y61.126 E3.89922
G1 X78.187 Y61.126 E.01681
G1 X165.934 Y148.874 E3.89922
G1 X165.4 Y148.874 E.01678
G1 X77.653 Y61.126 E3.89922
G1 X77.118 Y61.126 E.01681
G1 X164.865 Y148.874 E3.89922
G1 X164.331 Y148.874 E.01678
G1 X76.584 Y61.126 E3.89922
G1 X76.05 Y61.126 E.01678
G1 X163.797 Y148.874 E3.89922
G1 X163.262 Y148.874 E.01681
G1 X75.515 Y61.126 E3.89922
G1 X74.981 Y61.126 E.01678
M73 P6 R223
G1 X162.728 Y148.874 E3.89922
G1 X162.193 Y148.874 E.01681
G1 X74.446 Y61.126 E3.89922
G1 X73.912 Y61.126 E.01678
G1 X161.659 Y148.874 E3.89922
G1 X161.125 Y148.874 E.01678
G1 X73.377 Y61.126 E3.89924
G1 X72.843 Y61.126 E.01678
G1 X160.59 Y148.874 E3.89922
G1 X160.056 Y148.874 E.01678
G1 X72.309 Y61.126 E3.89922
G1 X71.774 Y61.126 E.01681
G1 X159.521 Y148.874 E3.89922
G1 X158.987 Y148.874 E.01678
G1 X71.24 Y61.126 E3.89922
G1 X70.705 Y61.126 E.01681
G1 X158.452 Y148.874 E3.89922
G1 X157.918 Y148.874 E.01678
M73 P6 R222
