; generated by PrusaSlicer 2.6.1+linux-x64-GTK3 on 2023-09-18 at 01:24:02 UTC


;
;
; 

; external perimeters extrusion width = 0.60mm
; perimeters extrusion width = 0.43mm
; infill extrusion width = 0.45mm
; solid infill extrusion width = 0.70mm
; top infill extrusion width = 0.45mm
; first layer extrusion width = 0.42mm

M73 P0 R218
M201 X9000 Y9000 Z500 E10000 ; sets maximum accelerations, mm/sec^2
M203 X500 Y500 Z12 E120 ; sets maximum feedrates, mm / sec
M204 S2000 T1500 ; sets acceleration (S) and retract acceleration (R), mm/sec^2
M205 X10.00 Y10.00 Z0.20 E4.50 ; sets the jerk limits, mm/sec
M205 S0 T0 ; sets the minimum extruding and travel feed rate, mm/sec
;TYPE:Custom
M862.3 P "MK2.5" ; printer model check
M862.1 P0.4 ; nozzle diameter check
M115 U3.13.0 ; tell printer latest fw version
G90 ; use absolute coordinates
M83 ; extruder relative mode
M104 S215 ; set extruder temp
M140 S60 ; set bed temp
M190 S60 ; wait for bed temp
M109 S215 ; wait for extruder temp
G28 W ; home all without mesh bed level
G80 ; mesh bed leveling

G1 Z0.2 F720
G1 Y-3 F1000 ; go outside print area
G92 E0
G1 X60 E9 F1000 ; intro line
G1 X100 E12.5 F1000 ; intro line

G92 E0
G21 ; set units to millimeters
G90 ; use absolute coordinates
M83 ; use relative distances for extrusion
M900 K0.05 ; Filament gcode LA 1.5
M900 K30 ; Filament gcode LA 1.0
M107
;LAYER_CHANGE
;Z:0.2
;HEIGHT:0.2
;BEFORE_LAYER_CHANGE
G92 E0.0
;0.2


G1 E-.8 F2100
G1 Z.4 F720
;AFTER_LAYER_CHANGE
;0.2
G1 X56.959 Y61.566 F10800
G1 Z.2 F720
G1 E.8 F2100
M204 S800
;TYPE:Skirt/Brim
;WIDTH:0.42
G1 F1200
G1 X58.005 Y60.689 E.0428
G1 X58.945 Y60.496 E.03009
G1 X193.945 Y60.496 E4.23283
G1 X195.252 Y60.887 E.04277
G1 X196.128 Y61.933 E.04278
G1 X196.322 Y62.873 E.03009
G1 X196.322 Y152.873 E2.82189
G1 X195.93 Y154.18 E.04278
G1 X194.885 Y155.056 E.04275
G1 X193.945 Y155.25 E.03009
G1 X58.945 Y155.25 E4.23283
G1 X57.638 Y154.858 E.04278
G1 X56.762 Y153.812 E.04278
G1 X56.568 Y152.873 E.03006
G1 X56.568 Y62.873 E2.82189
G1 X56.942 Y61.623 E.04091
M204 S1000
; printing object module.stl id:0 copy 0
;WIPE_START
G1 F8640
G1 X58.005 Y60.689 E-.32674
G1 X58.945 Y60.496 E-.22158
G1 X60.035 Y60.496 E-.25168
;WIPE_END
G1 Z.6 F720
G1 X59.732 Y152.086 F10800
G1 Z.2 F720
G1 E.8 F2100
M204 S800
;TYPE:Perimeter
;WIDTH:0.419999
G1 F1200
G1 X59.732 Y63.66 E2.77253
G1 X193.158 Y63.66 E4.18347
G1 X193.158 Y152.086 E2.77253
M73 P0 R217
G1 X59.792 Y152.086 E4.18159
M204 S1000
G1 X59.355 Y152.463 F10800
M204 S800
;TYPE:External perimeter
G1 F1200
G1 X59.355 Y63.283 E2.79617
G1 X193.535 Y63.283 E4.20711
G1 X193.535 Y152.463 E2.79617
G1 X59.415 Y152.463 E4.20523
M204 S1000
G1 X59.484 Y152.084 F10800
;WIPE_START
G1 F8640
G1 X59.413 Y148.998 E-.8
;WIPE_END
G1 Z.6 F720
G1 X192.988 Y64.593 F10800
G1 Z.2 F720
G1 E.8 F2100
M204 S800
;TYPE:Solid infill
;WIDTH:0.420809
G1 F1200
G1 X192.394 Y63.999 E.0264
G1 X191.859 Y63.999 E.01681
G1 X192.819 Y64.958 E.04264
G1 X192.819 Y65.493 E.01681
G1 X191.325 Y63.999 E.06639
G1 X190.791 Y63.999 E.01678
G1 X192.819 Y66.027 E.09012
G1 X192.819 Y66.561 E.01678
G1 X190.256 Y63.999 E.11387
G1 X189.722 Y63.999 E.01678
G1 X192.819 Y67.096 E.13762
G1 X192.819 Y67.63 E.01678
G1 X189.187 Y63.999 E.16137
G1 X188.653 Y63.999 E.01678
G1 X192.819 Y68.165 E.18512
G1 X192.819 Y68.699 E.01678
G1 X188.119 Y63.999 E.20885
G1 X187.584 Y63.999 E.01681
G1 X192.819 Y69.234 E.23263
G1 X192.819 Y69.768 E.01678
G1 X187.05 Y63.999 E.25636
G1 X186.515 Y63.999 E.01681
G1 X192.819 Y70.302 E.28011
G1 X192.819 Y70.837 E.01681
G1 X185.981 Y63.999 E.30386
G1 X185.446 Y63.999 E.01681
G1 X192.819 Y71.371 E.32761
G1 X192.819 Y71.906 E.01681
G1 X184.912 Y63.999 E.35136
G1 X184.378 Y63.999 E.01678
G1 X192.819 Y72.44 E.37509
G1 X192.819 Y72.974 E.01678
G1 X183.843 Y63.999 E.39884
G1 X183.309 Y63.999 E.01678
G1 X192.819 Y73.509 E.42259
G1 X192.819 Y74.043 E.01678
G1 X182.774 Y63.999 E.44635
G1 X182.24 Y63.999 E.01678
G1 X192.819 Y74.578 E.4701
G1 X192.819 Y75.112 E.01678
G1 X181.706 Y63.999 E.49383
G1 X181.171 Y63.999 E.01681
G1 X192.819 Y75.647 E.5176
G1 X192.819 Y76.181 E.01678
G1 X180.637 Y63.999 E.54133
G1 X180.102 Y63.999 E.01681
G1 X192.819 Y76.715 E.56508
G1 X192.819 Y77.25 E.01681
G1 X179.568 Y63.999 E.58883
G1 X179.034 Y63.999 E.01678
G1 X192.819 Y77.784 E.61256
G1 X192.819 Y78.319 E.01681
G1 X178.499 Y63.999 E.63634
G1 X177.965 Y63.999 E.01678
G1 X192.819 Y78.853 E.66006
G1 X192.819 Y79.387 E.01678
G1 X177.43 Y63.999 E.68382
G1 X176.896 Y63.999 E.01678
G1 X192.819 Y79.922 E.70757
G1 X192.819 Y80.456 E.01678
G1 X176.361 Y63.999 E.73132
G1 X175.827 Y63.999 E.01678
G1 X192.819 Y80.991 E.75507
G1 X192.819 Y81.525 E.01678
G1 X175.293 Y63.999 E.7788
G1 X174.758 Y63.999 E.01681
G1 X192.819 Y82.06 E.80257
G1 X192.819 Y82.594 E.01678
M73 P0 R216
G1 X174.224 Y63.999 E.8263
G1 X173.689 Y63.999 E.01681
G1 X192.819 Y83.128 E.85005
G1 X192.819 Y83.663 E.01681
G1 X173.155 Y63.999 E.87381
G1 X172.621 Y63.999 E.01678
G1 X192.819 Y84.197 E.89754
G1 X192.819 Y84.732 E.01681
G1 X172.086 Y63.999 E.92131
G1 X171.552 Y63.999 E.01678
G1 X192.819 Y85.266 E.94504
G1 X192.819 Y85.8 E.01678
G1 X171.017 Y63.999 E.96879
G1 X170.483 Y63.999 E.01678
G1 X192.819 Y86.335 E.99254
G1 X192.819 Y86.869 E.01678
G1 X169.948 Y63.999 E1.01629
G1 X169.414 Y63.999 E.01678
G1 X192.819 Y87.404 E1.04004
G1 X192.819 Y87.938 E.01678
G1 X168.88 Y63.999 E1.06377
G1 X168.345 Y63.999 E.01681
G1 X192.819 Y88.472 E1.08753
G1 X192.819 Y89.007 E.01681
G1 X167.811 Y63.999 E1.11128
G1 X167.276 Y63.999 E.01681
G1 X192.819 Y89.541 E1.13503
G1 X192.819 Y90.076 E.01681
G1 X166.742 Y63.999 E1.15878
G1 X166.208 Y63.999 E.01678
G1 X192.819 Y90.61 E1.18251
G1 X192.819 Y91.145 E.01681
G1 X165.673 Y63.999 E1.20628
G1 X165.139 Y63.999 E.01678
G1 X192.819 Y91.679 E1.23001
G1 X192.819 Y92.213 E.01678
G1 X164.604 Y63.999 E1.25376
G1 X164.07 Y63.999 E.01678
M73 P1 R216
G1 X192.819 Y92.748 E1.27752
G1 X192.819 Y93.282 E.01678
G1 X163.535 Y63.999 E1.30127
G1 X163.001 Y63.999 E.01678
G1 X192.819 Y93.817 E1.32502
G1 X192.819 Y94.351 E.01678
G1 X162.467 Y63.999 E1.34875
G1 X161.932 Y63.999 E.01681
G1 X192.819 Y94.885 E1.3725
G1 X192.819 Y95.42 E.01681
G1 X161.398 Y63.999 E1.39625
G1 X160.863 Y63.999 E.01681
G1 X192.819 Y95.954 E1.42
G1 X192.819 Y96.489 E.01681
G1 X160.329 Y63.999 E1.44375
G1 X159.795 Y63.999 E.01678
G1 X192.819 Y97.023 E1.46748
G1 X192.819 Y97.558 E.01681
G1 X159.26 Y63.999 E1.49126
G1 X158.726 Y63.999 E.01678
G1 X192.819 Y98.092 E1.51499
G1 X192.819 Y98.626 E.01678
G1 X158.191 Y63.999 E1.53874
G1 X157.657 Y63.999 E.01678
G1 X192.819 Y99.161 E1.56249
G1 X192.819 Y99.695 E.01678
M73 P1 R215
G1 X157.122 Y63.999 E1.58624
G1 X156.588 Y63.999 E.01678
G1 X192.819 Y100.23 E1.60999
G1 X192.819 Y100.764 E.01678
G1 X156.054 Y63.999 E1.63372
G1 X155.519 Y63.999 E.01681
G1 X192.819 Y101.298 E1.65747
G1 X192.819 Y101.833 E.01681
G1 X154.985 Y63.999 E1.68122
G1 X154.45 Y63.999 E.01681
G1 X192.819 Y102.367 E1.70498
G1 X192.819 Y102.902 E.01681
G1 X153.916 Y63.999 E1.72873
G1 X153.382 Y63.999 E.01678
G1 X192.819 Y103.436 E1.75246
G1 X192.819 Y103.971 E.01681
G1 X152.847 Y63.999 E1.77623
G1 X152.313 Y63.999 E.01678
G1 X192.819 Y104.505 E1.79996
G1 X192.819 Y105.039 E.01678
G1 X151.778 Y63.999 E1.82371
G1 X151.244 Y63.999 E.01678
G1 X192.819 Y105.574 E1.84746
G1 X192.819 Y106.108 E.01678
G1 X150.709 Y63.999 E1.87121
G1 X150.175 Y63.999 E.01678
G1 X192.819 Y106.643 E1.89497
G1 X192.819 Y107.177 E.01678
G1 X149.641 Y63.999 E1.91869
G1 X149.106 Y63.999 E.01681
G1 X192.819 Y107.711 E1.94245
G1 X192.819 Y108.246 E.01681
G1 X148.572 Y63.999 E1.9662
G1 X148.037 Y63.999 E.01681
G1 X192.819 Y108.78 E1.98995
G1 X192.819 Y109.315 E.01681
G1 X147.503 Y63.999 E2.0137
G1 X146.969 Y63.999 E.01678
G1 X192.819 Y109.849 E2.03743
G1 X192.819 Y110.384 E.01681
M73 P1 R214
G1 X146.434 Y63.999 E2.0612
G1 X145.9 Y63.999 E.01678
G1 X192.819 Y110.918 E2.08493
G1 X192.819 Y111.452 E.01678
G1 X145.365 Y63.999 E2.10868
G1 X144.831 Y63.999 E.01678
G1 X192.819 Y111.987 E2.13244
G1 X192.819 Y112.521 E.01678
G1 X144.296 Y63.999 E2.15619
G1 X143.762 Y63.999 E.01678
G1 X192.819 Y113.056 E2.17994
G1 X192.819 Y113.59 E.01678
G1 X143.228 Y63.999 E2.20367
G1 X142.693 Y63.999 E.01681
G1 X192.819 Y114.124 E2.22742
G1 X192.819 Y114.659 E.01681
G1 X142.159 Y63.999 E2.25117
G1 X141.624 Y63.999 E.01681
G1 X192.819 Y115.193 E2.27492
G1 X192.819 Y115.728 E.01681
G1 X141.09 Y63.999 E2.29867
G1 X140.556 Y63.999 E.01678
G1 X192.819 Y116.262 E2.3224
G1 X192.819 Y116.797 E.01681
M73 P2 R214
G1 X140.021 Y63.999 E2.34618
G1 X139.487 Y63.999 E.01678
G1 X192.819 Y117.331 E2.36991
G1 X192.819 Y117.865 E.01678
G1 X138.952 Y63.999 E2.39366
G1 X138.418 Y63.999 E.01678
G1 X192.819 Y118.4 E2.41741
G1 X192.819 Y118.934 E.01678
G1 X137.883 Y63.999 E2.44116
G1 X137.349 Y63.999 E.01678
M73 P2 R213
G1 X192.819 Y119.469 E2.46491
G1 X192.819 Y120.003 E.01678
G1 X136.815 Y63.999 E2.48864
G1 X136.28 Y63.999 E.01681
G1 X192.819 Y120.537 E2.51239
G1 X192.819 Y121.072 E.01681
G1 X135.746 Y63.999 E2.53614
G1 X135.211 Y63.999 E.01681
G1 X192.819 Y121.606 E2.5599
G1 X192.819 Y122.141 E.01681
G1 X134.677 Y63.999 E2.58365
G1 X134.143 Y63.999 E.01678
G1 X192.819 Y122.675 E2.60738
G1 X192.819 Y123.21 E.01681
G1 X133.608 Y63.999 E2.63115
G1 X133.074 Y63.999 E.01678
G1 X192.819 Y123.744 E2.65488
G1 X192.819 Y124.278 E.01678
G1 X132.539 Y63.999 E2.67863
G1 X132.005 Y63.999 E.01678
G1 X192.819 Y124.813 E2.70238
G1 X192.819 Y125.347 E.01678
G1 X131.471 Y63.999 E2.72611
G1 X130.936 Y63.999 E.01681
G1 X192.819 Y125.882 E2.74989
G1 X192.819 Y126.416 E.01678
G1 X130.402 Y63.999 E2.77361
G1 X129.867 Y63.999 E.01681
M73 P2 R212
G1 X192.819 Y126.95 E2.79737
G1 X192.819 Y127.485 E.01681
G1 X129.333 Y63.999 E2.82112
G1 X128.798 Y63.999 E.01681
G1 X192.819 Y128.019 E2.84487
G1 X192.819 Y128.554 E.01681
G1 X128.264 Y63.999 E2.86862
G1 X127.73 Y63.999 E.01678
G1 X192.819 Y129.088 E2.89235
G1 X192.819 Y129.623 E.01681
G1 X127.195 Y63.999 E2.91612
G1 X126.661 Y63.999 E.01678
G1 X192.819 Y130.157 E2.93985
G1 X192.819 Y130.691 E.01678
G1 X126.126 Y63.999 E2.9636
G1 X125.592 Y63.999 E.01678
G1 X192.819 Y131.226 E2.98736
G1 X192.819 Y131.76 E.01678
G1 X125.058 Y63.999 E3.01109
G1 X124.523 Y63.999 E.01681
G1 X192.819 Y132.295 E3.03486
G1 X192.819 Y132.829 E.01678
G1 X123.989 Y63.999 E3.05859
G1 X123.454 Y63.999 E.01681
M73 P3 R212
G1 X192.819 Y133.363 E3.08234
G1 X192.819 Y133.898 E.01681
M73 P3 R211
G1 X122.92 Y63.999 E3.10609
G1 X122.385 Y63.999 E.01681
G1 X192.819 Y134.432 E3.12984
G1 X192.819 Y134.967 E.01681
G1 X121.851 Y63.999 E3.15359
G1 X121.317 Y63.999 E.01678
G1 X192.819 Y135.501 E3.17732
G1 X192.819 Y136.036 E.01681
G1 X120.782 Y63.999 E3.2011
G1 X120.248 Y63.999 E.01678
G1 X192.819 Y136.57 E3.22483
G1 X192.819 Y137.104 E.01678
G1 X119.713 Y63.999 E3.24858
G1 X119.179 Y63.999 E.01678
G1 X192.819 Y137.639 E3.27233
G1 X192.819 Y138.173 E.01678
G1 X118.645 Y63.999 E3.29606
G1 X118.11 Y63.999 E.01681
G1 X192.819 Y138.708 E3.31983
G1 X192.819 Y139.242 E.01678
G1 X117.576 Y63.999 E3.34356
G1 X117.041 Y63.999 E.01681
G1 X192.819 Y139.776 E3.36731
G1 X192.819 Y140.311 E.01681
M73 P3 R210
G1 X116.507 Y63.999 E3.39107
G1 X115.972 Y63.999 E.01681
G1 X192.819 Y140.845 E3.41482
G1 X192.819 Y141.38 E.01681
G1 X115.438 Y63.999 E3.43857
G1 X114.904 Y63.999 E.01678
G1 X192.819 Y141.914 E3.4623
G1 X192.819 Y142.448 E.01678
G1 X114.369 Y63.999 E3.48605
G1 X113.835 Y63.999 E.01678
G1 X192.819 Y142.983 E3.5098
G1 X192.819 Y143.517 E.01678
G1 X113.3 Y63.999 E3.53355
G1 X112.766 Y63.999 E.01678
G1 X192.819 Y144.052 E3.5573
G1 X192.819 Y144.586 E.01678
G1 X112.232 Y63.999 E3.58103
G1 X111.697 Y63.999 E.01681
G1 X192.819 Y145.121 E3.60481
G1 X192.819 Y145.655 E.01678
M73 P3 R209
G1 X111.163 Y63.999 E3.62854
G1 X110.628 Y63.999 E.01681
M73 P4 R209
G1 X192.819 Y146.189 E3.65229
G1 X192.819 Y146.724 E.01681
G1 X110.094 Y63.999 E3.67604
G1 X109.559 Y63.999 E.01681
G1 X192.819 Y147.258 E3.69979
G1 X192.819 Y147.793 E.01681
G1 X109.025 Y63.999 E3.72354
G1 X108.491 Y63.999 E.01678
G1 X192.819 Y148.327 E3.74727
G1 X192.819 Y148.861 E.01678
G1 X107.956 Y63.999 E3.77102
G1 X107.422 Y63.999 E.01678
G1 X192.819 Y149.396 E3.79477
G1 X192.819 Y149.93 E.01678
G1 X106.887 Y63.999 E3.81853
G1 X106.353 Y63.999 E.01678
G1 X192.819 Y150.465 E3.84228
G1 X192.819 Y150.999 E.01678
M73 P4 R208
G1 X105.819 Y63.999 E3.86601
G1 X105.284 Y63.999 E.01681
G1 X192.819 Y151.534 E3.88978
G1 X192.819 Y151.746 E.00666
G1 X192.497 Y151.746 E.01012
G1 X104.75 Y63.999 E3.8992
G1 X104.215 Y63.999 E.01681
G1 X191.962 Y151.746 E3.8992
G1 X191.428 Y151.746 E.01678
G1 X103.681 Y63.999 E3.8992
G1 X103.146 Y63.999 E.01681
G1 X190.894 Y151.746 E3.89922
G1 X190.359 Y151.746 E.01681
G1 X102.612 Y63.999 E3.8992
G1 X102.078 Y63.999 E.01678
G1 X189.825 Y151.746 E3.8992
G1 X189.29 Y151.746 E.01681
G1 X101.543 Y63.999 E3.8992
G1 X101.009 Y63.999 E.01678
G1 X188.756 Y151.746 E3.8992
G1 X188.221 Y151.746 E.01681
M73 P4 R207
G1 X100.474 Y63.999 E3.8992
G1 X99.94 Y63.999 E.01678
G1 X187.687 Y151.746 E3.8992
G1 X187.153 Y151.746 E.01678
G1 X99.406 Y63.999 E3.8992
G1 X98.871 Y63.999 E.01681
M73 P5 R207
G1 X186.618 Y151.746 E3.8992
G1 X186.084 Y151.746 E.01678
G1 X98.337 Y63.999 E3.8992
G1 X97.802 Y63.999 E.01681
G1 X185.549 Y151.746 E3.8992
G1 X185.015 Y151.746 E.01678
G1 X97.268 Y63.999 E3.8992
G1 X96.733 Y63.999 E.01681
G1 X184.481 Y151.746 E3.89922
G1 X183.946 Y151.746 E.01681
G1 X96.199 Y63.999 E3.8992
G1 X95.665 Y63.999 E.01678
G1 X183.412 Y151.746 E3.8992
G1 X182.877 Y151.746 E.01681
M73 P5 R206
G1 X95.13 Y63.999 E3.8992
G1 X94.596 Y63.999 E.01678
G1 X182.343 Y151.746 E3.8992
G1 X181.809 Y151.746 E.01678
G1 X94.061 Y63.999 E3.89922
G1 X93.527 Y63.999 E.01678
G1 X181.274 Y151.746 E3.8992
G1 X180.74 Y151.746 E.01678
G1 X92.993 Y63.999 E3.8992
G1 X92.458 Y63.999 E.01681
G1 X180.205 Y151.746 E3.8992
G1 X179.671 Y151.746 E.01678
G1 X91.924 Y63.999 E3.8992
G1 X91.389 Y63.999 E.01681
G1 X179.136 Y151.746 E3.8992
G1 X178.602 Y151.746 E.01678
G1 X90.855 Y63.999 E3.8992
G1 X90.32 Y63.999 E.01681
M73 P5 R205
G1 X178.068 Y151.746 E3.89922
G1 X177.533 Y151.746 E.01681
G1 X89.786 Y63.999 E3.8992
G1 X89.252 Y63.999 E.01678
G1 X176.999 Y151.746 E3.8992
G1 X176.464 Y151.746 E.01681
G1 X88.717 Y63.999 E3.8992
G1 X88.183 Y63.999 E.01678
G1 X175.93 Y151.746 E3.8992
G1 X175.396 Y151.746 E.01678
M73 P6 R205
G1 X87.648 Y63.999 E3.89922
G1 X87.114 Y63.999 E.01678
G1 X174.861 Y151.746 E3.8992
G1 X174.327 Y151.746 E.01678
G1 X86.58 Y63.999 E3.8992
G1 X86.045 Y63.999 E.01681
G1 X173.792 Y151.746 E3.8992
G1 X173.258 Y151.746 E.01678
G1 X85.511 Y63.999 E3.8992
G1 X84.976 Y63.999 E.01681
M73 P6 R204
G1 X172.723 Y151.746 E3.8992
G1 X172.189 Y151.746 E.01678
G1 X84.442 Y63.999 E3.8992
G1 X83.908 Y63.999 E.01678
G1 X171.655 Y151.746 E3.8992
G1 X171.12 Y151.746 E.01681
G1 X83.373 Y63.999 E3.8992
G1 X82.839 Y63.999 E.01678
G1 X170.586 Y151.746 E3.8992
G1 X170.051 Y151.746 E.01681
G1 X82.304 Y63.999 E3.8992
G1 X81.77 Y63.999 E.01678
G1 X169.517 Y151.746 E3.8992
G1 X168.983 Y151.746 E.01678
G1 X81.235 Y63.999 E3.89922
G1 X80.701 Y63.999 E.01678
G1 X168.448 Y151.746 E3.8992
G1 X167.914 Y151.746 E.01678
G1 X80.167 Y63.999 E3.8992
G1 X79.632 Y63.999 E.01681
M73 P6 R203
G1 X167.379 Y151.746 E3.8992
G1 X166.845 Y151.746 E.01678
G1 X79.098 Y63.999 E3.8992
G1 X78.563 Y63.999 E.01681
G1 X166.31 Y151.746 E3.8992
G1 X165.776 Y151.746 E.01678
G1 X78.029 Y63.999 E3.8992
G1 X77.495 Y63.999 E.01678
G1 X165.242 Y151.746 E3.8992
G1 X164.707 Y151.746 E.01681
G1 X76.96 Y63.999 E3.8992
G1 X76.426 Y63.999 E.01678
M73 P7 R203
G1 X164.173 Y151.746 E3.8992
G1 X163.638 Y151.746 E.01681
G1 X75.891 Y63.999 E3.8992
G1 X75.357 Y63.999 E.01678
G1 X163.104 Y151.746 E3.8992
G1 X162.57 Y151.746 E.01678
M73 P7 R202
G1 X74.822 Y63.999 E3.89922
G1 X74.288 Y63.999 E.01678
G1 X162.035 Y151.746 E3.8992
G1 X161.501 Y151.746 E.01678
G1 X73.754 Y63.999 E3.8992
G1 X73.219 Y63.999 E.01681
G1 X160.966 Y151.746 E3.8992
G1 X160.432 Y151.746 E.01678
G1 X72.685 Y63.999 E3.8992
G1 X72.15 Y63.999 E.01681
G1 X159.897 Y151.746 E3.8992
G1 X159.363 Y151.746 E.01678
G1 X71.616 Y63.999 E3.8992
